MODULE MainModule
  PERS wobjdata platform := [ FALSE, TRUE, "", [ [800, 0, 600], [1, 0, 0 ,0] ], [ [0, 0, 0], [1, 0, 0 ,0] ] ];
  PERS tooldata pen := [ TRUE, [[0, 0, 100], [1, 0, 0 ,0]], [0.8,[0, 0, 30], [1, 0, 0, 0], 0, 0, 0]];
  PROC main()
    ConfL\Off;
    ConfJ\Off;
    SingArea\Wrist;
    !!-0.16887495373796563, -2.1449999999999996;
    MoveL [ [18.994, -7.077, 45.908], [0.202, -0.244, -0.948, 0.000], [0, 0, 0, 0], [ 9E9, 9E9, 9E9, 9E9, 9E9, 9E9] ], v1000, fine, pen\WObj:=platform;
    MoveL [ [-0.169, -2.145, -0.010], [0.202, -0.244, -0.948, 0.000], [0, 0, 0, 0], [ 9E9, 9E9, 9E9, 9E9, 9E9, 9E9] ], v30, fine, pen\WObj:=platform;
    MoveL [ [18.994, -7.077, 45.908], [0.202, -0.244, -0.948, 0.000], [0, 0, 0, 0], [ 9E9, 9E9, 9E9, 9E9, 9E9, 9E9] ], v1000, fine, pen\WObj:=platform;
    
    !!-0.6754998149518622, -1.2674999999999996;
    MoveL [ [18.939, -9.449, 45.249], [0.218, -0.376, -0.901, 0.000], [0, 0, 0, 0], [ 9E9, 9E9, 9E9, 9E9, 9E9, 9E9] ], v1000, fine, pen\WObj:=platform;
    MoveL [ [-0.675, -1.267, -0.010], [0.218, -0.376, -0.901, 0.000], [0, 0, 0, 0], [ 9E9, 9E9, 9E9, 9E9, 9E9, 9E9] ], v30, fine, pen\WObj:=platform;
    MoveL [ [18.939, -9.449, 45.249], [0.218, -0.376, -0.901, 0.000], [0, 0, 0, 0], [ 9E9, 9E9, 9E9, 9E9, 9E9, 9E9] ], v1000, fine, pen\WObj:=platform;
    
    !!-0.7317914661978503, -1.17;
    MoveL [ [18.828, 6.969, 45.280], [0.217, 0.375, -0.901, 0.000], [0, 0, 0, 0], [ 9E9, 9E9, 9E9, 9E9, 9E9, 9E9] ], v1000, fine, pen\WObj:=platform;
    MoveL [ [-0.732, -1.170, -0.010], [0.217, 0.375, -0.901, 0.000], [0, 0, 0, 0], [ 9E9, 9E9, 9E9, 9E9, 9E9, 9E9] ], v30, fine, pen\WObj:=platform;
    MoveL [ [18.828, 6.969, 45.280], [0.217, 0.375, -0.901, 0.000], [0, 0, 0, 0], [ 9E9, 9E9, 9E9, 9E9, 9E9, 9E9] ], v1000, fine, pen\WObj:=platform;
    
    !!-0.7880831174438391, -1.0724999999999998;
    MoveL [ [19.421, 3.160, 45.528], [0.211, 0.200, -0.957, 0.000], [0, 0, 0, 0], [ 9E9, 9E9, 9E9, 9E9, 9E9, 9E9] ], v1000, fine, pen\WObj:=platform;
    MoveL [ [-0.788, -1.072, -0.010], [0.211, 0.200, -0.957, 0.000], [0, 0, 0, 0], [ 9E9, 9E9, 9E9, 9E9, 9E9, 9E9] ], v30, fine, pen\WObj:=platform;
    MoveL [ [19.421, 3.160, 45.528], [0.211, 0.200, -0.957, 0.000], [0, 0, 0, 0], [ 9E9, 9E9, 9E9, 9E9, 9E9, 9E9] ], v1000, fine, pen\WObj:=platform;
    
    !!-0.8443747686898279, -0.9749999999999998;
    MoveL [ [18.728, -10.944, 44.907], [0.225, -0.442, -0.868, 0.000], [0, 0, 0, 0], [ 9E9, 9E9, 9E9, 9E9, 9E9, 9E9] ], v1000, fine, pen\WObj:=platform;
    MoveL [ [-0.844, -0.975, -0.010], [0.225, -0.442, -0.868, 0.000], [0, 0, 0, 0], [ 9E9, 9E9, 9E9, 9E9, 9E9, 9E9] ], v30, fine, pen\WObj:=platform;
    MoveL [ [18.728, -10.944, 44.907], [0.225, -0.442, -0.868, 0.000], [0, 0, 0, 0], [ 9E9, 9E9, 9E9, 9E9, 9E9, 9E9] ], v1000, fine, pen\WObj:=platform;
    
    !!-0.9006664199358159, -0.8774999999999997;
    MoveL [ [17.324, -16.139, 43.978], [0.245, -0.622, -0.743, 0.000], [0, 0, 0, 0], [ 9E9, 9E9, 9E9, 9E9, 9E9, 9E9] ], v1000, fine, pen\WObj:=platform;
    MoveL [ [-0.901, -0.877, -0.010], [0.245, -0.622, -0.743, 0.000], [0, 0, 0, 0], [ 9E9, 9E9, 9E9, 9E9, 9E9, 9E9] ], v30, fine, pen\WObj:=platform;
    MoveL [ [17.324, -16.139, 43.978], [0.245, -0.622, -0.743, 0.000], [0, 0, 0, 0], [ 9E9, 9E9, 9E9, 9E9, 9E9, 9E9] ], v1000, fine, pen\WObj:=platform;
    
    !!-0.9569580711818046, -0.7799999999999998;
    MoveL [ [19.764, -1.181, 45.493], [0.212, -0.019, -0.977, 0.000], [0, 0, 0, 0], [ 9E9, 9E9, 9E9, 9E9, 9E9, 9E9] ], v1000, fine, pen\WObj:=platform;
    MoveL [ [-0.957, -0.780, -0.010], [0.212, -0.019, -0.977, 0.000], [0, 0, 0, 0], [ 9E9, 9E9, 9E9, 9E9, 9E9, 9E9] ], v30, fine, pen\WObj:=platform;
    MoveL [ [19.764, -1.181, 45.493], [0.212, -0.019, -0.977, 0.000], [0, 0, 0, 0], [ 9E9, 9E9, 9E9, 9E9, 9E9, 9E9] ], v1000, fine, pen\WObj:=platform;
    
    !!-1.0132497224277934, -0.6824999999999998;
    MoveL [ [19.780, -2.633, 45.419], [0.214, -0.091, -0.973, 0.000], [0, 0, 0, 0], [ 9E9, 9E9, 9E9, 9E9, 9E9, 9E9] ], v1000, fine, pen\WObj:=platform;
    MoveL [ [-1.013, -0.682, -0.010], [0.214, -0.091, -0.973, 0.000], [0, 0, 0, 0], [ 9E9, 9E9, 9E9, 9E9, 9E9, 9E9] ], v30, fine, pen\WObj:=platform;
    MoveL [ [19.780, -2.633, 45.419], [0.214, -0.091, -0.973, 0.000], [0, 0, 0, 0], [ 9E9, 9E9, 9E9, 9E9, 9E9, 9E9] ], v1000, fine, pen\WObj:=platform;
    
    !!-1.0695413736737815, -0.5849999999999997;
    MoveL [ [19.525, -6.609, 45.152], [0.220, -0.274, -0.936, 0.000], [0, 0, 0, 0], [ 9E9, 9E9, 9E9, 9E9, 9E9, 9E9] ], v1000, fine, pen\WObj:=platform;
    MoveL [ [-1.070, -0.585, -0.010], [0.220, -0.274, -0.936, 0.000], [0, 0, 0, 0], [ 9E9, 9E9, 9E9, 9E9, 9E9, 9E9] ], v30, fine, pen\WObj:=platform;
    MoveL [ [19.525, -6.609, 45.152], [0.220, -0.274, -0.936, 0.000], [0, 0, 0, 0], [ 9E9, 9E9, 9E9, 9E9, 9E9, 9E9] ], v1000, fine, pen\WObj:=platform;
    
    !!-1.1258330249197703, -0.4874999999999996;
    MoveL [ [19.669, -5.482, 45.185], [0.219, -0.228, -0.949, 0.000], [0, 0, 0, 0], [ 9E9, 9E9, 9E9, 9E9, 9E9, 9E9] ], v1000, fine, pen\WObj:=platform;
    MoveL [ [-1.126, -0.487, -0.010], [0.219, -0.228, -0.949, 0.000], [0, 0, 0, 0], [ 9E9, 9E9, 9E9, 9E9, 9E9, 9E9] ], v30, fine, pen\WObj:=platform;
    MoveL [ [19.669, -5.482, 45.185], [0.219, -0.228, -0.949, 0.000], [0, 0, 0, 0], [ 9E9, 9E9, 9E9, 9E9, 9E9, 9E9] ], v1000, fine, pen\WObj:=platform;
    
    !!-1.1821246761657587, -0.3899999999999995;
    MoveL [ [18.721, 9.181, 44.848], [0.227, 0.422, -0.878, 0.000], [0, 0, 0, 0], [ 9E9, 9E9, 9E9, 9E9, 9E9, 9E9] ], v1000, fine, pen\WObj:=platform;
    MoveL [ [-1.182, -0.390, -0.010], [0.227, 0.422, -0.878, 0.000], [0, 0, 0, 0], [ 9E9, 9E9, 9E9, 9E9, 9E9, 9E9] ], v30, fine, pen\WObj:=platform;
    MoveL [ [18.721, 9.181, 44.848], [0.227, 0.422, -0.878, 0.000], [0, 0, 0, 0], [ 9E9, 9E9, 9E9, 9E9, 9E9, 9E9] ], v1000, fine, pen\WObj:=platform;
    
    !!-0.22516660498395405, -2.0474999999999994;
    MoveL [ [16.482, -18.107, 44.295], [0.239, -0.673, -0.700, 0.000], [0, 0, 0, 0], [ 9E9, 9E9, 9E9, 9E9, 9E9, 9E9] ], v1000, fine, pen\WObj:=platform;
    MoveL [ [-0.225, -2.047, -0.010], [0.239, -0.673, -0.700, 0.000], [0, 0, 0, 0], [ 9E9, 9E9, 9E9, 9E9, 9E9, 9E9] ], v30, fine, pen\WObj:=platform;
    MoveL [ [16.482, -18.107, 44.295], [0.239, -0.673, -0.700, 0.000], [0, 0, 0, 0], [ 9E9, 9E9, 9E9, 9E9, 9E9, 9E9] ], v1000, fine, pen\WObj:=platform;
    
    !!-0.28145825622994247, -1.9499999999999997;
    MoveL [ [19.151, 1.983, 45.891], [0.202, 0.194, -0.960, 0.000], [0, 0, 0, 0], [ 9E9, 9E9, 9E9, 9E9, 9E9, 9E9] ], v1000, fine, pen\WObj:=platform;
    MoveL [ [-0.281, -1.950, -0.010], [0.202, 0.194, -0.960, 0.000], [0, 0, 0, 0], [ 9E9, 9E9, 9E9, 9E9, 9E9, 9E9] ], v30, fine, pen\WObj:=platform;
    MoveL [ [19.151, 1.983, 45.891], [0.202, 0.194, -0.960, 0.000], [0, 0, 0, 0], [ 9E9, 9E9, 9E9, 9E9, 9E9, 9E9] ], v1000, fine, pen\WObj:=platform;
    
    !!-0.33774990747593125, -1.8524999999999996;
    MoveL [ [18.528, 6.834, 45.472], [0.213, 0.409, -0.888, 0.000], [0, 0, 0, 0], [ 9E9, 9E9, 9E9, 9E9, 9E9, 9E9] ], v1000, fine, pen\WObj:=platform;
    MoveL [ [-0.338, -1.852, -0.010], [0.213, 0.409, -0.888, 0.000], [0, 0, 0, 0], [ 9E9, 9E9, 9E9, 9E9, 9E9, 9E9] ], v30, fine, pen\WObj:=platform;
    MoveL [ [18.528, 6.834, 45.472], [0.213, 0.409, -0.888, 0.000], [0, 0, 0, 0], [ 9E9, 9E9, 9E9, 9E9, 9E9, 9E9] ], v1000, fine, pen\WObj:=platform;
    
    !!-0.3940415587219193, -1.7549999999999997;
    MoveL [ [17.684, -14.552, 44.817], [0.227, -0.563, -0.795, 0.000], [0, 0, 0, 0], [ 9E9, 9E9, 9E9, 9E9, 9E9, 9E9] ], v1000, fine, pen\WObj:=platform;
    MoveL [ [-0.394, -1.755, -0.010], [0.227, -0.563, -0.795, 0.000], [0, 0, 0, 0], [ 9E9, 9E9, 9E9, 9E9, 9E9, 9E9] ], v30, fine, pen\WObj:=platform;
    MoveL [ [17.684, -14.552, 44.817], [0.227, -0.563, -0.795, 0.000], [0, 0, 0, 0], [ 9E9, 9E9, 9E9, 9E9, 9E9, 9E9] ], v1000, fine, pen\WObj:=platform;
    
    !!-0.4503332099679081, -1.6574999999999995;
    MoveL [ [18.479, -11.373, 45.237], [0.218, -0.446, -0.868, 0.000], [0, 0, 0, 0], [ 9E9, 9E9, 9E9, 9E9, 9E9, 9E9] ], v1000, fine, pen\WObj:=platform;
    MoveL [ [-0.450, -1.657, -0.010], [0.218, -0.446, -0.868, 0.000], [0, 0, 0, 0], [ 9E9, 9E9, 9E9, 9E9, 9E9, 9E9] ], v30, fine, pen\WObj:=platform;
    MoveL [ [18.479, -11.373, 45.237], [0.218, -0.446, -0.868, 0.000], [0, 0, 0, 0], [ 9E9, 9E9, 9E9, 9E9, 9E9, 9E9] ], v1000, fine, pen\WObj:=platform;
    
    !!-0.5066248612138966, -1.5599999999999996;
    MoveL [ [18.018, 9.759, 45.031], [0.223, 0.508, -0.832, 0.000], [0, 0, 0, 0], [ 9E9, 9E9, 9E9, 9E9, 9E9, 9E9] ], v1000, fine, pen\WObj:=platform;
    MoveL [ [-0.507, -1.560, -0.010], [0.223, 0.508, -0.832, 0.000], [0, 0, 0, 0], [ 9E9, 9E9, 9E9, 9E9, 9E9, 9E9] ], v30, fine, pen\WObj:=platform;
    MoveL [ [18.018, 9.759, 45.031], [0.223, 0.508, -0.832, 0.000], [0, 0, 0, 0], [ 9E9, 9E9, 9E9, 9E9, 9E9, 9E9] ], v1000, fine, pen\WObj:=platform;
    
    !!-0.5629165124598849, -1.4625;
    MoveL [ [17.236, 12.594, 44.550], [0.233, 0.603, -0.763, 0.000], [0, 0, 0, 0], [ 9E9, 9E9, 9E9, 9E9, 9E9, 9E9] ], v1000, fine, pen\WObj:=platform;
    MoveL [ [-0.563, -1.462, -0.010], [0.233, 0.603, -0.763, 0.000], [0, 0, 0, 0], [ 9E9, 9E9, 9E9, 9E9, 9E9, 9E9] ], v30, fine, pen\WObj:=platform;
    MoveL [ [17.236, 12.594, 44.550], [0.233, 0.603, -0.763, 0.000], [0, 0, 0, 0], [ 9E9, 9E9, 9E9, 9E9, 9E9, 9E9] ], v1000, fine, pen\WObj:=platform;
    
    !!-0.6192081637058734, -1.3649999999999995;
    MoveL [ [18.227, -12.784, 44.872], [0.226, -0.505, -0.833, 0.000], [0, 0, 0, 0], [ 9E9, 9E9, 9E9, 9E9, 9E9, 9E9] ], v1000, fine, pen\WObj:=platform;
    MoveL [ [-0.619, -1.365, -0.010], [0.226, -0.505, -0.833, 0.000], [0, 0, 0, 0], [ 9E9, 9E9, 9E9, 9E9, 9E9, 9E9] ], v30, fine, pen\WObj:=platform;
    MoveL [ [18.227, -12.784, 44.872], [0.226, -0.505, -0.833, 0.000], [0, 0, 0, 0], [ 9E9, 9E9, 9E9, 9E9, 9E9, 9E9] ], v1000, fine, pen\WObj:=platform;
    
    !!-0.11258330249197686, -2.2424999999999997;
    MoveL [ [17.111, 11.684, 44.816], [0.227, 0.612, -0.757, 0.000], [0, 0, 0, 0], [ 9E9, 9E9, 9E9, 9E9, 9E9, 9E9] ], v1000, fine, pen\WObj:=platform;
    MoveL [ [-0.113, -2.242, -0.010], [0.227, 0.612, -0.757, 0.000], [0, 0, 0, 0], [ 9E9, 9E9, 9E9, 9E9, 9E9, 9E9] ], v30, fine, pen\WObj:=platform;
    MoveL [ [17.111, 11.684, 44.816], [0.227, 0.612, -0.757, 0.000], [0, 0, 0, 0], [ 9E9, 9E9, 9E9, 9E9, 9E9, 9E9] ], v1000, fine, pen\WObj:=platform;
    
    !!-0.05629165124598878, -2.34;
    MoveL [ [16.711, 12.743, 44.615], [0.232, 0.651, -0.723, 0.000], [0, 0, 0, 0], [ 9E9, 9E9, 9E9, 9E9, 9E9, 9E9] ], v1000, fine, pen\WObj:=platform;
    MoveL [ [-0.056, -2.340, -0.010], [0.232, 0.651, -0.723, 0.000], [0, 0, 0, 0], [ 9E9, 9E9, 9E9, 9E9, 9E9, 9E9] ], v30, fine, pen\WObj:=platform;
    MoveL [ [16.711, 12.743, 44.615], [0.232, 0.651, -0.723, 0.000], [0, 0, 0, 0], [ 9E9, 9E9, 9E9, 9E9, 9E9, 9E9] ], v1000, fine, pen\WObj:=platform;
    
    !!0.4503332099679081, -3.2175;
    MoveL [ [18.121, -10.802, 46.144], [0.196, -0.387, -0.901, 0.000], [0, 0, 0, 0], [ 9E9, 9E9, 9E9, 9E9, 9E9, 9E9] ], v1000, fine, pen\WObj:=platform;
    MoveL [ [0.450, -3.217, -0.010], [0.196, -0.387, -0.901, 0.000], [0, 0, 0, 0], [ 9E9, 9E9, 9E9, 9E9, 9E9, 9E9] ], v30, fine, pen\WObj:=platform;
    MoveL [ [18.121, -10.802, 46.144], [0.196, -0.387, -0.901, 0.000], [0, 0, 0, 0], [ 9E9, 9E9, 9E9, 9E9, 9E9, 9E9] ], v1000, fine, pen\WObj:=platform;
    
    !!0.5066248612138969, -3.3150000000000004;
    MoveL [ [17.889, -11.916, 46.075], [0.198, -0.435, -0.879, 0.000], [0, 0, 0, 0], [ 9E9, 9E9, 9E9, 9E9, 9E9, 9E9] ], v1000, fine, pen\WObj:=platform;
    MoveL [ [0.507, -3.315, -0.010], [0.198, -0.435, -0.879, 0.000], [0, 0, 0, 0], [ 9E9, 9E9, 9E9, 9E9, 9E9, 9E9] ], v30, fine, pen\WObj:=platform;
    MoveL [ [17.889, -11.916, 46.075], [0.198, -0.435, -0.879, 0.000], [0, 0, 0, 0], [ 9E9, 9E9, 9E9, 9E9, 9E9, 9E9] ], v1000, fine, pen\WObj:=platform;
    
    !!0.5629165124598849, -3.4125;
    MoveL [ [16.280, 12.197, 44.815], [0.227, 0.686, -0.691, 0.000], [0, 0, 0, 0], [ 9E9, 9E9, 9E9, 9E9, 9E9, 9E9] ], v1000, fine, pen\WObj:=platform;
    MoveL [ [0.563, -3.413, -0.010], [0.227, 0.686, -0.691, 0.000], [0, 0, 0, 0], [ 9E9, 9E9, 9E9, 9E9, 9E9, 9E9] ], v30, fine, pen\WObj:=platform;
    MoveL [ [16.280, 12.197, 44.815], [0.227, 0.686, -0.691, 0.000], [0, 0, 0, 0], [ 9E9, 9E9, 9E9, 9E9, 9E9, 9E9] ], v1000, fine, pen\WObj:=platform;
    
    !!0.6192081637058737, -3.51;
    MoveL [ [17.365, 8.172, 45.631], [0.209, 0.560, -0.802, 0.000], [0, 0, 0, 0], [ 9E9, 9E9, 9E9, 9E9, 9E9, 9E9] ], v1000, fine, pen\WObj:=platform;
    MoveL [ [0.619, -3.510, -0.010], [0.209, 0.560, -0.802, 0.000], [0, 0, 0, 0], [ 9E9, 9E9, 9E9, 9E9, 9E9, 9E9] ], v30, fine, pen\WObj:=platform;
    MoveL [ [17.365, 8.172, 45.631], [0.209, 0.560, -0.802, 0.000], [0, 0, 0, 0], [ 9E9, 9E9, 9E9, 9E9, 9E9, 9E9] ], v1000, fine, pen\WObj:=platform;
    
    !!0.6754998149518625, -3.6074999999999995;
    MoveL [ [17.619, -12.790, 46.127], [0.197, -0.467, -0.862, 0.000], [0, 0, 0, 0], [ 9E9, 9E9, 9E9, 9E9, 9E9, 9E9] ], v1000, fine, pen\WObj:=platform;
    MoveL [ [0.675, -3.607, -0.010], [0.197, -0.467, -0.862, 0.000], [0, 0, 0, 0], [ 9E9, 9E9, 9E9, 9E9, 9E9, 9E9] ], v30, fine, pen\WObj:=platform;
    MoveL [ [17.619, -12.790, 46.127], [0.197, -0.467, -0.862, 0.000], [0, 0, 0, 0], [ 9E9, 9E9, 9E9, 9E9, 9E9, 9E9] ], v1000, fine, pen\WObj:=platform;
    
    !!0.7317914661978506, -3.704999999999999;
    MoveL [ [17.089, -14.978, 45.874], [0.203, -0.556, -0.806, 0.000], [0, 0, 0, 0], [ 9E9, 9E9, 9E9, 9E9, 9E9, 9E9] ], v1000, fine, pen\WObj:=platform;
    MoveL [ [0.732, -3.705, -0.010], [0.203, -0.556, -0.806, 0.000], [0, 0, 0, 0], [ 9E9, 9E9, 9E9, 9E9, 9E9, 9E9] ], v30, fine, pen\WObj:=platform;
    MoveL [ [17.089, -14.978, 45.874], [0.203, -0.556, -0.806, 0.000], [0, 0, 0, 0], [ 9E9, 9E9, 9E9, 9E9, 9E9, 9E9] ], v1000, fine, pen\WObj:=platform;
    
    !!0.7880831174438394, -3.8024999999999998;
    MoveL [ [17.836, 5.001, 46.162], [0.196, 0.450, -0.871, 0.000], [0, 0, 0, 0], [ 9E9, 9E9, 9E9, 9E9, 9E9, 9E9] ], v1000, fine, pen\WObj:=platform;
    MoveL [ [0.788, -3.802, -0.010], [0.196, 0.450, -0.871, 0.000], [0, 0, 0, 0], [ 9E9, 9E9, 9E9, 9E9, 9E9, 9E9] ], v30, fine, pen\WObj:=platform;
    MoveL [ [17.836, 5.001, 46.162], [0.196, 0.450, -0.871, 0.000], [0, 0, 0, 0], [ 9E9, 9E9, 9E9, 9E9, 9E9, 9E9] ], v1000, fine, pen\WObj:=platform;
    
    !!0.8443747686898274, -3.9000000000000004;
    MoveL [ [18.268, 1.174, 46.581], [0.185, 0.275, -0.944, 0.000], [0, 0, 0, 0], [ 9E9, 9E9, 9E9, 9E9, 9E9, 9E9] ], v1000, fine, pen\WObj:=platform;
    MoveL [ [0.844, -3.900, -0.010], [0.185, 0.275, -0.944, 0.000], [0, 0, 0, 0], [ 9E9, 9E9, 9E9, 9E9, 9E9, 9E9] ], v30, fine, pen\WObj:=platform;
    MoveL [ [18.268, 1.174, 46.581], [0.185, 0.275, -0.944, 0.000], [0, 0, 0, 0], [ 9E9, 9E9, 9E9, 9E9, 9E9, 9E9] ], v1000, fine, pen\WObj:=platform;
    
    !!0.9006664199358162, -3.9975;
    MoveL [ [18.398, -4.299, 46.827], [0.178, -0.017, -0.984, 0.000], [0, 0, 0, 0], [ 9E9, 9E9, 9E9, 9E9, 9E9, 9E9] ], v1000, fine, pen\WObj:=platform;
    MoveL [ [0.901, -3.998, -0.010], [0.178, -0.017, -0.984, 0.000], [0, 0, 0, 0], [ 9E9, 9E9, 9E9, 9E9, 9E9, 9E9] ], v30, fine, pen\WObj:=platform;
    MoveL [ [18.398, -4.299, 46.827], [0.178, -0.017, -0.984, 0.000], [0, 0, 0, 0], [ 9E9, 9E9, 9E9, 9E9, 9E9, 9E9] ], v1000, fine, pen\WObj:=platform;
    
    !!0.956958071181805, -4.095;
    MoveL [ [18.246, 0.115, 46.717], [0.181, 0.233, -0.956, 0.000], [0, 0, 0, 0], [ 9E9, 9E9, 9E9, 9E9, 9E9, 9E9] ], v1000, fine, pen\WObj:=platform;
    MoveL [ [0.957, -4.095, -0.010], [0.181, 0.233, -0.956, 0.000], [0, 0, 0, 0], [ 9E9, 9E9, 9E9, 9E9, 9E9, 9E9] ], v30, fine, pen\WObj:=platform;
    MoveL [ [18.246, 0.115, 46.717], [0.181, 0.233, -0.956, 0.000], [0, 0, 0, 0], [ 9E9, 9E9, 9E9, 9E9, 9E9, 9E9] ], v1000, fine, pen\WObj:=platform;
    
    !!0, -2.4375;
    MoveL [ [19.095, -3.979, 46.174], [0.195, -0.079, -0.978, 0.000], [0, 0, 0, 0], [ 9E9, 9E9, 9E9, 9E9, 9E9, 9E9] ], v1000, fine, pen\WObj:=platform;
    MoveL [ [0.000, -2.438, -0.010], [0.195, -0.079, -0.978, 0.000], [0, 0, 0, 0], [ 9E9, 9E9, 9E9, 9E9, 9E9, 9E9] ], v30, fine, pen\WObj:=platform;
    MoveL [ [19.095, -3.979, 46.174], [0.195, -0.079, -0.978, 0.000], [0, 0, 0, 0], [ 9E9, 9E9, 9E9, 9E9, 9E9, 9E9] ], v1000, fine, pen\WObj:=platform;
    
    !!1.0132497224277932, -4.1925;
    MoveL [ [14.846, 14.772, 44.137], [0.242, 0.784, -0.572, 0.000], [0, 0, 0, 0], [ 9E9, 9E9, 9E9, 9E9, 9E9, 9E9] ], v1000, fine, pen\WObj:=platform;
    MoveL [ [1.013, -4.192, -0.010], [0.242, 0.784, -0.572, 0.000], [0, 0, 0, 0], [ 9E9, 9E9, 9E9, 9E9, 9E9, 9E9] ], v30, fine, pen\WObj:=platform;
    MoveL [ [14.846, 14.772, 44.137], [0.242, 0.784, -0.572, 0.000], [0, 0, 0, 0], [ 9E9, 9E9, 9E9, 9E9, 9E9, 9E9] ], v1000, fine, pen\WObj:=platform;
    
    !!0.05629165124598878, -2.535;
    MoveL [ [16.816, -16.920, 44.847], [0.227, -0.634, -0.739, 0.000], [0, 0, 0, 0], [ 9E9, 9E9, 9E9, 9E9, 9E9, 9E9] ], v1000, fine, pen\WObj:=platform;
    MoveL [ [0.056, -2.535, -0.010], [0.227, -0.634, -0.739, 0.000], [0, 0, 0, 0], [ 9E9, 9E9, 9E9, 9E9, 9E9, 9E9] ], v30, fine, pen\WObj:=platform;
    MoveL [ [16.816, -16.920, 44.847], [0.227, -0.634, -0.739, 0.000], [0, 0, 0, 0], [ 9E9, 9E9, 9E9, 9E9, 9E9, 9E9] ], v1000, fine, pen\WObj:=platform;
    
    !!0.11258330249197686, -2.6325;
    MoveL [ [18.854, 1.772, 46.135], [0.196, 0.224, -0.955, 0.000], [0, 0, 0, 0], [ 9E9, 9E9, 9E9, 9E9, 9E9, 9E9] ], v1000, fine, pen\WObj:=platform;
    MoveL [ [0.113, -2.632, -0.010], [0.196, 0.224, -0.955, 0.000], [0, 0, 0, 0], [ 9E9, 9E9, 9E9, 9E9, 9E9, 9E9] ], v30, fine, pen\WObj:=platform;
    MoveL [ [18.854, 1.772, 46.135], [0.196, 0.224, -0.955, 0.000], [0, 0, 0, 0], [ 9E9, 9E9, 9E9, 9E9, 9E9, 9E9] ], v1000, fine, pen\WObj:=platform;
    
    !!0.16887495373796563, -2.7299999999999995;
    MoveL [ [18.480, 4.539, 45.945], [0.201, 0.361, -0.910, 0.000], [0, 0, 0, 0], [ 9E9, 9E9, 9E9, 9E9, 9E9, 9E9] ], v1000, fine, pen\WObj:=platform;
    MoveL [ [0.169, -2.730, -0.010], [0.201, 0.361, -0.910, 0.000], [0, 0, 0, 0], [ 9E9, 9E9, 9E9, 9E9, 9E9, 9E9] ], v30, fine, pen\WObj:=platform;
    MoveL [ [18.480, 4.539, 45.945], [0.201, 0.361, -0.910, 0.000], [0, 0, 0, 0], [ 9E9, 9E9, 9E9, 9E9, 9E9, 9E9] ], v1000, fine, pen\WObj:=platform;
    
    !!0.2251666049839544, -2.8274999999999997;
    MoveL [ [18.560, -8.754, 46.128], [0.197, -0.302, -0.933, 0.000], [0, 0, 0, 0], [ 9E9, 9E9, 9E9, 9E9, 9E9, 9E9] ], v1000, fine, pen\WObj:=platform;
    MoveL [ [0.225, -2.827, -0.010], [0.197, -0.302, -0.933, 0.000], [0, 0, 0, 0], [ 9E9, 9E9, 9E9, 9E9, 9E9, 9E9] ], v30, fine, pen\WObj:=platform;
    MoveL [ [18.560, -8.754, 46.128], [0.197, -0.302, -0.933, 0.000], [0, 0, 0, 0], [ 9E9, 9E9, 9E9, 9E9, 9E9, 9E9] ], v1000, fine, pen\WObj:=platform;
    
    !!0.28145825622994247, -2.925;
    MoveL [ [18.872, -4.596, 46.375], [0.190, -0.088, -0.978, 0.000], [0, 0, 0, 0], [ 9E9, 9E9, 9E9, 9E9, 9E9, 9E9] ], v1000, fine, pen\WObj:=platform;
    MoveL [ [0.281, -2.925, -0.010], [0.190, -0.088, -0.978, 0.000], [0, 0, 0, 0], [ 9E9, 9E9, 9E9, 9E9, 9E9, 9E9] ], v30, fine, pen\WObj:=platform;
    MoveL [ [18.872, -4.596, 46.375], [0.190, -0.088, -0.978, 0.000], [0, 0, 0, 0], [ 9E9, 9E9, 9E9, 9E9, 9E9, 9E9] ], v1000, fine, pen\WObj:=platform;
    
    !!0.33774990747593125, -3.0224999999999995;
    MoveL [ [17.261, 9.679, 45.292], [0.217, 0.586, -0.781, 0.000], [0, 0, 0, 0], [ 9E9, 9E9, 9E9, 9E9, 9E9, 9E9] ], v1000, fine, pen\WObj:=platform;
    MoveL [ [0.338, -3.022, -0.010], [0.217, 0.586, -0.781, 0.000], [0, 0, 0, 0], [ 9E9, 9E9, 9E9, 9E9, 9E9, 9E9] ], v30, fine, pen\WObj:=platform;
    MoveL [ [17.261, 9.679, 45.292], [0.217, 0.586, -0.781, 0.000], [0, 0, 0, 0], [ 9E9, 9E9, 9E9, 9E9, 9E9, 9E9] ], v1000, fine, pen\WObj:=platform;
    
    !!0.3940415587219193, -3.12;
    MoveL [ [16.875, 10.851, 45.081], [0.222, 0.631, -0.744, 0.000], [0, 0, 0, 0], [ 9E9, 9E9, 9E9, 9E9, 9E9, 9E9] ], v1000, fine, pen\WObj:=platform;
    MoveL [ [0.394, -3.120, -0.010], [0.222, 0.631, -0.744, 0.000], [0, 0, 0, 0], [ 9E9, 9E9, 9E9, 9E9, 9E9, 9E9] ], v30, fine, pen\WObj:=platform;
    MoveL [ [16.875, 10.851, 45.081], [0.222, 0.631, -0.744, 0.000], [0, 0, 0, 0], [ 9E9, 9E9, 9E9, 9E9, 9E9, 9E9] ], v1000, fine, pen\WObj:=platform;
    
    !!-1.1821246761657587, -2.1449999999999996;
    MoveL [ [18.220, 10.088, 44.419], [0.236, 0.518, -0.822, 0.000], [0, 0, 0, 0], [ 9E9, 9E9, 9E9, 9E9, 9E9, 9E9] ], v1000, fine, pen\WObj:=platform;
    MoveL [ [-1.182, -2.145, -0.010], [0.236, 0.518, -0.822, 0.000], [0, 0, 0, 0], [ 9E9, 9E9, 9E9, 9E9, 9E9, 9E9] ], v30, fine, pen\WObj:=platform;
    MoveL [ [18.220, 10.088, 44.419], [0.236, 0.518, -0.822, 0.000], [0, 0, 0, 0], [ 9E9, 9E9, 9E9, 9E9, 9E9, 9E9] ], v1000, fine, pen\WObj:=platform;
    
    !!-1.688749537379655, -1.2674999999999996;
    MoveL [ [20.169, -1.760, 44.957], [0.224, -0.022, -0.974, 0.000], [0, 0, 0, 0], [ 9E9, 9E9, 9E9, 9E9, 9E9, 9E9] ], v1000, fine, pen\WObj:=platform;
    MoveL [ [-1.689, -1.267, -0.010], [0.224, -0.022, -0.974, 0.000], [0, 0, 0, 0], [ 9E9, 9E9, 9E9, 9E9, 9E9, 9E9] ], v30, fine, pen\WObj:=platform;
    MoveL [ [20.169, -1.760, 44.957], [0.224, -0.022, -0.974, 0.000], [0, 0, 0, 0], [ 9E9, 9E9, 9E9, 9E9, 9E9, 9E9] ], v1000, fine, pen\WObj:=platform;
    
    !!-1.7450411886256436, -1.17;
    MoveL [ [20.018, -5.656, 44.781], [0.228, -0.197, -0.954, 0.000], [0, 0, 0, 0], [ 9E9, 9E9, 9E9, 9E9, 9E9, 9E9] ], v1000, fine, pen\WObj:=platform;
    MoveL [ [-1.745, -1.170, -0.010], [0.228, -0.197, -0.954, 0.000], [0, 0, 0, 0], [ 9E9, 9E9, 9E9, 9E9, 9E9, 9E9] ], v30, fine, pen\WObj:=platform;
    MoveL [ [20.018, -5.656, 44.781], [0.228, -0.197, -0.954, 0.000], [0, 0, 0, 0], [ 9E9, 9E9, 9E9, 9E9, 9E9, 9E9] ], v1000, fine, pen\WObj:=platform;
    
    !!-1.8013328398716324, -1.0724999999999998;
    MoveL [ [20.128, -4.548, 44.790], [0.228, -0.152, -0.962, 0.000], [0, 0, 0, 0], [ 9E9, 9E9, 9E9, 9E9, 9E9, 9E9] ], v1000, fine, pen\WObj:=platform;
    MoveL [ [-1.801, -1.072, -0.010], [0.228, -0.152, -0.962, 0.000], [0, 0, 0, 0], [ 9E9, 9E9, 9E9, 9E9, 9E9, 9E9] ], v30, fine, pen\WObj:=platform;
    MoveL [ [20.128, -4.548, 44.790], [0.228, -0.152, -0.962, 0.000], [0, 0, 0, 0], [ 9E9, 9E9, 9E9, 9E9, 9E9, 9E9] ], v1000, fine, pen\WObj:=platform;
    
    !!-1.8576244911176203, -0.9749999999999998;
    MoveL [ [18.885, 9.538, 44.253], [0.240, 0.439, -0.866, 0.000], [0, 0, 0, 0], [ 9E9, 9E9, 9E9, 9E9, 9E9, 9E9] ], v1000, fine, pen\WObj:=platform;
    MoveL [ [-1.858, -0.975, -0.010], [0.240, 0.439, -0.866, 0.000], [0, 0, 0, 0], [ 9E9, 9E9, 9E9, 9E9, 9E9, 9E9] ], v30, fine, pen\WObj:=platform;
    MoveL [ [18.885, 9.538, 44.253], [0.240, 0.439, -0.866, 0.000], [0, 0, 0, 0], [ 9E9, 9E9, 9E9, 9E9, 9E9, 9E9] ], v1000, fine, pen\WObj:=platform;
    
    !!-1.238416327411747, -2.0474999999999994;
    MoveL [ [17.421, 12.770, 43.948], [0.246, 0.603, -0.759, 0.000], [0, 0, 0, 0], [ 9E9, 9E9, 9E9, 9E9, 9E9, 9E9] ], v1000, fine, pen\WObj:=platform;
    MoveL [ [-1.238, -2.047, -0.010], [0.246, 0.603, -0.759, 0.000], [0, 0, 0, 0], [ 9E9, 9E9, 9E9, 9E9, 9E9, 9E9] ], v30, fine, pen\WObj:=platform;
    MoveL [ [17.421, 12.770, 43.948], [0.246, 0.603, -0.759, 0.000], [0, 0, 0, 0], [ 9E9, 9E9, 9E9, 9E9, 9E9, 9E9] ], v1000, fine, pen\WObj:=platform;
    
    !!-1.2947079786577356, -1.9499999999999997;
    MoveL [ [18.911, -11.812, 44.649], [0.231, -0.427, -0.874, 0.000], [0, 0, 0, 0], [ 9E9, 9E9, 9E9, 9E9, 9E9, 9E9] ], v1000, fine, pen\WObj:=platform;
    MoveL [ [-1.295, -1.950, -0.010], [0.231, -0.427, -0.874, 0.000], [0, 0, 0, 0], [ 9E9, 9E9, 9E9, 9E9, 9E9, 9E9] ], v30, fine, pen\WObj:=platform;
    MoveL [ [18.911, -11.812, 44.649], [0.231, -0.427, -0.874, 0.000], [0, 0, 0, 0], [ 9E9, 9E9, 9E9, 9E9, 9E9, 9E9] ], v1000, fine, pen\WObj:=platform;
    
    !!-1.350999629903724, -1.8524999999999996;
    MoveL [ [19.534, -8.458, 44.936], [0.225, -0.294, -0.929, 0.000], [0, 0, 0, 0], [ 9E9, 9E9, 9E9, 9E9, 9E9, 9E9] ], v1000, fine, pen\WObj:=platform;
    MoveL [ [-1.351, -1.852, -0.010], [0.225, -0.294, -0.929, 0.000], [0, 0, 0, 0], [ 9E9, 9E9, 9E9, 9E9, 9E9, 9E9] ], v30, fine, pen\WObj:=platform;
    MoveL [ [19.534, -8.458, 44.936], [0.225, -0.294, -0.929, 0.000], [0, 0, 0, 0], [ 9E9, 9E9, 9E9, 9E9, 9E9, 9E9] ], v1000, fine, pen\WObj:=platform;
    
    !!-1.4072912811497122, -1.7549999999999997;
    MoveL [ [19.043, 7.444, 44.680], [0.230, 0.399, -0.887, 0.000], [0, 0, 0, 0], [ 9E9, 9E9, 9E9, 9E9, 9E9, 9E9] ], v1000, fine, pen\WObj:=platform;
    MoveL [ [-1.407, -1.755, -0.010], [0.230, 0.399, -0.887, 0.000], [0, 0, 0, 0], [ 9E9, 9E9, 9E9, 9E9, 9E9, 9E9] ], v30, fine, pen\WObj:=platform;
    MoveL [ [19.043, 7.444, 44.680], [0.230, 0.399, -0.887, 0.000], [0, 0, 0, 0], [ 9E9, 9E9, 9E9, 9E9, 9E9, 9E9] ], v1000, fine, pen\WObj:=platform;
    
    !!-1.4635829323957013, -1.6574999999999995;
    MoveL [ [19.692, 3.821, 44.962], [0.224, 0.244, -0.943, 0.000], [0, 0, 0, 0], [ 9E9, 9E9, 9E9, 9E9, 9E9, 9E9] ], v1000, fine, pen\WObj:=platform;
    MoveL [ [-1.464, -1.657, -0.010], [0.224, 0.244, -0.943, 0.000], [0, 0, 0, 0], [ 9E9, 9E9, 9E9, 9E9, 9E9, 9E9] ], v30, fine, pen\WObj:=platform;
    MoveL [ [19.692, 3.821, 44.962], [0.224, 0.244, -0.943, 0.000], [0, 0, 0, 0], [ 9E9, 9E9, 9E9, 9E9, 9E9, 9E9] ], v1000, fine, pen\WObj:=platform;
    
    !!-1.5198745836416896, -1.5599999999999996;
    MoveL [ [19.352, -9.965, 44.641], [0.231, -0.363, -0.902, 0.000], [0, 0, 0, 0], [ 9E9, 9E9, 9E9, 9E9, 9E9, 9E9] ], v1000, fine, pen\WObj:=platform;
    MoveL [ [-1.520, -1.560, -0.010], [0.231, -0.363, -0.902, 0.000], [0, 0, 0, 0], [ 9E9, 9E9, 9E9, 9E9, 9E9, 9E9] ], v30, fine, pen\WObj:=platform;
    MoveL [ [19.352, -9.965, 44.641], [0.231, -0.363, -0.902, 0.000], [0, 0, 0, 0], [ 9E9, 9E9, 9E9, 9E9, 9E9, 9E9] ], v1000, fine, pen\WObj:=platform;
    
    !!-1.5761662348876782, -1.4625;
    MoveL [ [18.057, -15.264, 43.854], [0.248, -0.557, -0.793, 0.000], [0, 0, 0, 0], [ 9E9, 9E9, 9E9, 9E9, 9E9, 9E9] ], v1000, fine, pen\WObj:=platform;
    MoveL [ [-1.576, -1.462, -0.010], [0.248, -0.557, -0.793, 0.000], [0, 0, 0, 0], [ 9E9, 9E9, 9E9, 9E9, 9E9, 9E9] ], v30, fine, pen\WObj:=platform;
    MoveL [ [18.057, -15.264, 43.854], [0.248, -0.557, -0.793, 0.000], [0, 0, 0, 0], [ 9E9, 9E9, 9E9, 9E9, 9E9, 9E9] ], v1000, fine, pen\WObj:=platform;
    
    !!-1.632457886133667, -1.3649999999999995;
    MoveL [ [20.119, -0.351, 44.999], [0.223, 0.045, -0.974, 0.000], [0, 0, 0, 0], [ 9E9, 9E9, 9E9, 9E9, 9E9, 9E9] ], v1000, fine, pen\WObj:=platform;
    MoveL [ [-1.632, -1.365, -0.010], [0.223, 0.045, -0.974, 0.000], [0, 0, 0, 0], [ 9E9, 9E9, 9E9, 9E9, 9E9, 9E9] ], v30, fine, pen\WObj:=platform;
    MoveL [ [20.119, -0.351, 44.999], [0.223, 0.045, -0.974, 0.000], [0, 0, 0, 0], [ 9E9, 9E9, 9E9, 9E9, 9E9, 9E9] ], v1000, fine, pen\WObj:=platform;
    
    !!-1.1258330249197703, -2.2424999999999997;
    MoveL [ [19.139, -10.377, 44.970], [0.224, -0.363, -0.904, 0.000], [0, 0, 0, 0], [ 9E9, 9E9, 9E9, 9E9, 9E9, 9E9] ], v1000, fine, pen\WObj:=platform;
    MoveL [ [-1.126, -2.242, -0.010], [0.224, -0.363, -0.904, 0.000], [0, 0, 0, 0], [ 9E9, 9E9, 9E9, 9E9, 9E9, 9E9] ], v30, fine, pen\WObj:=platform;
    MoveL [ [19.139, -10.377, 44.970], [0.224, -0.363, -0.904, 0.000], [0, 0, 0, 0], [ 9E9, 9E9, 9E9, 9E9, 9E9, 9E9] ], v1000, fine, pen\WObj:=platform;
    
    !!-1.0695413736737815, -2.34;
    MoveL [ [18.421, -13.601, 44.637], [0.231, -0.487, -0.842, 0.000], [0, 0, 0, 0], [ 9E9, 9E9, 9E9, 9E9, 9E9, 9E9] ], v1000, fine, pen\WObj:=platform;
    MoveL [ [-1.070, -2.340, -0.010], [0.231, -0.487, -0.842, 0.000], [0, 0, 0, 0], [ 9E9, 9E9, 9E9, 9E9, 9E9, 9E9] ], v30, fine, pen\WObj:=platform;
    MoveL [ [18.421, -13.601, 44.637], [0.231, -0.487, -0.842, 0.000], [0, 0, 0, 0], [ 9E9, 9E9, 9E9, 9E9, 9E9, 9E9] ], v1000, fine, pen\WObj:=platform;
    
    !!-0.5629165124598849, -3.2175;
    MoveL [ [19.214, 2.514, 45.554], [0.211, 0.272, -0.939, 0.000], [0, 0, 0, 0], [ 9E9, 9E9, 9E9, 9E9, 9E9, 9E9] ], v1000, fine, pen\WObj:=platform;
    MoveL [ [-0.563, -3.217, -0.010], [0.211, 0.272, -0.939, 0.000], [0, 0, 0, 0], [ 9E9, 9E9, 9E9, 9E9, 9E9, 9E9] ], v30, fine, pen\WObj:=platform;
    MoveL [ [19.214, 2.514, 45.554], [0.211, 0.272, -0.939, 0.000], [0, 0, 0, 0], [ 9E9, 9E9, 9E9, 9E9, 9E9, 9E9] ], v1000, fine, pen\WObj:=platform;
    
    !!-0.5066248612138966, -3.3150000000000004;
    MoveL [ [18.792, 5.150, 45.332], [0.216, 0.392, -0.894, 0.000], [0, 0, 0, 0], [ 9E9, 9E9, 9E9, 9E9, 9E9, 9E9] ], v1000, fine, pen\WObj:=platform;
    MoveL [ [-0.507, -3.315, -0.010], [0.216, 0.392, -0.894, 0.000], [0, 0, 0, 0], [ 9E9, 9E9, 9E9, 9E9, 9E9, 9E9] ], v30, fine, pen\WObj:=platform;
    MoveL [ [18.792, 5.150, 45.332], [0.216, 0.392, -0.894, 0.000], [0, 0, 0, 0], [ 9E9, 9E9, 9E9, 9E9, 9E9, 9E9] ], v1000, fine, pen\WObj:=platform;
    
    !!-0.4503332099679081, -3.4125;
    MoveL [ [19.197, -7.721, 45.766], [0.206, -0.210, -0.956, 0.000], [0, 0, 0, 0], [ 9E9, 9E9, 9E9, 9E9, 9E9, 9E9] ], v1000, fine, pen\WObj:=platform;
    MoveL [ [-0.450, -3.413, -0.010], [0.206, -0.210, -0.956, 0.000], [0, 0, 0, 0], [ 9E9, 9E9, 9E9, 9E9, 9E9, 9E9] ], v30, fine, pen\WObj:=platform;
    MoveL [ [19.197, -7.721, 45.766], [0.206, -0.210, -0.956, 0.000], [0, 0, 0, 0], [ 9E9, 9E9, 9E9, 9E9, 9E9, 9E9] ], v1000, fine, pen\WObj:=platform;
    
    !!-0.3940415587219193, -3.51;
    MoveL [ [19.399, -3.625, 45.905], [0.202, -0.006, -0.979, 0.000], [0, 0, 0, 0], [ 9E9, 9E9, 9E9, 9E9, 9E9, 9E9] ], v1000, fine, pen\WObj:=platform;
    MoveL [ [-0.394, -3.510, -0.010], [0.202, -0.006, -0.979, 0.000], [0, 0, 0, 0], [ 9E9, 9E9, 9E9, 9E9, 9E9, 9E9] ], v30, fine, pen\WObj:=platform;
    MoveL [ [19.399, -3.625, 45.905], [0.202, -0.006, -0.979, 0.000], [0, 0, 0, 0], [ 9E9, 9E9, 9E9, 9E9, 9E9, 9E9] ], v1000, fine, pen\WObj:=platform;
    
    !!-0.33774990747593125, -3.6074999999999995;
    MoveL [ [17.522, 10.014, 44.661], [0.231, 0.590, -0.774, 0.000], [0, 0, 0, 0], [ 9E9, 9E9, 9E9, 9E9, 9E9, 9E9] ], v1000, fine, pen\WObj:=platform;
    MoveL [ [-0.338, -3.607, -0.010], [0.231, 0.590, -0.774, 0.000], [0, 0, 0, 0], [ 9E9, 9E9, 9E9, 9E9, 9E9, 9E9] ], v30, fine, pen\WObj:=platform;
    MoveL [ [17.522, 10.014, 44.661], [0.231, 0.590, -0.774, 0.000], [0, 0, 0, 0], [ 9E9, 9E9, 9E9, 9E9, 9E9, 9E9] ], v1000, fine, pen\WObj:=platform;
    
    !!-0.28145825622994247, -3.704999999999999;
    MoveL [ [17.132, 11.121, 44.453], [0.235, 0.630, -0.740, 0.000], [0, 0, 0, 0], [ 9E9, 9E9, 9E9, 9E9, 9E9, 9E9] ], v1000, fine, pen\WObj:=platform;
    MoveL [ [-0.281, -3.705, -0.010], [0.235, 0.630, -0.740, 0.000], [0, 0, 0, 0], [ 9E9, 9E9, 9E9, 9E9, 9E9, 9E9] ], v30, fine, pen\WObj:=platform;
    MoveL [ [17.132, 11.121, 44.453], [0.235, 0.630, -0.740, 0.000], [0, 0, 0, 0], [ 9E9, 9E9, 9E9, 9E9, 9E9, 9E9] ], v1000, fine, pen\WObj:=platform;
    
    !!-0.22516660498395372, -3.8024999999999998;
    MoveL [ [18.828, -9.755, 45.833], [0.204, -0.292, -0.934, 0.000], [0, 0, 0, 0], [ 9E9, 9E9, 9E9, 9E9, 9E9, 9E9] ], v1000, fine, pen\WObj:=platform;
    MoveL [ [-0.225, -3.802, -0.010], [0.204, -0.292, -0.934, 0.000], [0, 0, 0, 0], [ 9E9, 9E9, 9E9, 9E9, 9E9, 9E9] ], v30, fine, pen\WObj:=platform;
    MoveL [ [18.828, -9.755, 45.833], [0.204, -0.292, -0.934, 0.000], [0, 0, 0, 0], [ 9E9, 9E9, 9E9, 9E9, 9E9, 9E9] ], v1000, fine, pen\WObj:=platform;
    
    !!-0.16887495373796563, -3.9000000000000004;
    MoveL [ [18.628, -10.873, 45.795], [0.205, -0.340, -0.918, 0.000], [0, 0, 0, 0], [ 9E9, 9E9, 9E9, 9E9, 9E9, 9E9] ], v1000, fine, pen\WObj:=platform;
    MoveL [ [-0.169, -3.900, -0.010], [0.205, -0.340, -0.918, 0.000], [0, 0, 0, 0], [ 9E9, 9E9, 9E9, 9E9, 9E9, 9E9] ], v30, fine, pen\WObj:=platform;
    MoveL [ [18.628, -10.873, 45.795], [0.205, -0.340, -0.918, 0.000], [0, 0, 0, 0], [ 9E9, 9E9, 9E9, 9E9, 9E9, 9E9] ], v1000, fine, pen\WObj:=platform;
    
    !!-0.11258330249197686, -3.9975;
    MoveL [ [16.542, 12.392, 44.194], [0.241, 0.681, -0.692, 0.000], [0, 0, 0, 0], [ 9E9, 9E9, 9E9, 9E9, 9E9, 9E9] ], v1000, fine, pen\WObj:=platform;
    MoveL [ [-0.113, -3.998, -0.010], [0.241, 0.681, -0.692, 0.000], [0, 0, 0, 0], [ 9E9, 9E9, 9E9, 9E9, 9E9, 9E9] ], v30, fine, pen\WObj:=platform;
    MoveL [ [16.542, 12.392, 44.194], [0.241, 0.681, -0.692, 0.000], [0, 0, 0, 0], [ 9E9, 9E9, 9E9, 9E9, 9E9, 9E9] ], v1000, fine, pen\WObj:=platform;
    
    !!-0.05629165124598806, -4.095;
    MoveL [ [17.661, 8.593, 44.991], [0.224, 0.567, -0.792, 0.000], [0, 0, 0, 0], [ 9E9, 9E9, 9E9, 9E9, 9E9, 9E9] ], v1000, fine, pen\WObj:=platform;
    MoveL [ [-0.056, -4.095, -0.010], [0.224, 0.567, -0.792, 0.000], [0, 0, 0, 0], [ 9E9, 9E9, 9E9, 9E9, 9E9, 9E9] ], v30, fine, pen\WObj:=platform;
    MoveL [ [17.661, 8.593, 44.991], [0.224, 0.567, -0.792, 0.000], [0, 0, 0, 0], [ 9E9, 9E9, 9E9, 9E9, 9E9, 9E9] ], v1000, fine, pen\WObj:=platform;
    
    !!-1.0132497224277934, -2.4375;
    MoveL [ [18.772, 7.319, 44.861], [0.226, 0.431, -0.874, 0.000], [0, 0, 0, 0], [ 9E9, 9E9, 9E9, 9E9, 9E9, 9E9] ], v1000, fine, pen\WObj:=platform;
    MoveL [ [-1.013, -2.438, -0.010], [0.226, 0.431, -0.874, 0.000], [0, 0, 0, 0], [ 9E9, 9E9, 9E9, 9E9, 9E9, 9E9] ], v30, fine, pen\WObj:=platform;
    MoveL [ [18.772, 7.319, 44.861], [0.226, 0.431, -0.874, 0.000], [0, 0, 0, 0], [ 9E9, 9E9, 9E9, 9E9, 9E9, 9E9] ], v1000, fine, pen\WObj:=platform;
    
    !!0, -4.1925;
    MoveL [ [18.391, -11.747, 45.867], [0.203, -0.372, -0.906, 0.000], [0, 0, 0, 0], [ 9E9, 9E9, 9E9, 9E9, 9E9, 9E9] ], v1000, fine, pen\WObj:=platform;
    MoveL [ [0.000, -4.192, -0.010], [0.203, -0.372, -0.906, 0.000], [0, 0, 0, 0], [ 9E9, 9E9, 9E9, 9E9, 9E9, 9E9] ], v30, fine, pen\WObj:=platform;
    MoveL [ [18.391, -11.747, 45.867], [0.203, -0.372, -0.906, 0.000], [0, 0, 0, 0], [ 9E9, 9E9, 9E9, 9E9, 9E9, 9E9] ], v1000, fine, pen\WObj:=platform;
    
    !!0.05629165124598878, -4.289999999999999;
    MoveL [ [17.912, -13.972, 45.679], [0.208, -0.466, -0.860, 0.000], [0, 0, 0, 0], [ 9E9, 9E9, 9E9, 9E9, 9E9, 9E9] ], v1000, fine, pen\WObj:=platform;
    MoveL [ [0.056, -4.290, -0.010], [0.208, -0.466, -0.860, 0.000], [0, 0, 0, 0], [ 9E9, 9E9, 9E9, 9E9, 9E9, 9E9] ], v30, fine, pen\WObj:=platform;
    MoveL [ [17.912, -13.972, 45.679], [0.208, -0.466, -0.860, 0.000], [0, 0, 0, 0], [ 9E9, 9E9, 9E9, 9E9, 9E9, 9E9] ], v1000, fine, pen\WObj:=platform;
    
    !!0.11258330249197757, -4.387499999999999;
    MoveL [ [18.187, 5.596, 45.527], [0.211, 0.473, -0.856, 0.000], [0, 0, 0, 0], [ 9E9, 9E9, 9E9, 9E9, 9E9, 9E9] ], v1000, fine, pen\WObj:=platform;
    MoveL [ [0.113, -4.387, -0.010], [0.211, 0.473, -0.856, 0.000], [0, 0, 0, 0], [ 9E9, 9E9, 9E9, 9E9, 9E9, 9E9] ], v30, fine, pen\WObj:=platform;
    MoveL [ [18.187, 5.596, 45.527], [0.211, 0.473, -0.856, 0.000], [0, 0, 0, 0], [ 9E9, 9E9, 9E9, 9E9, 9E9, 9E9] ], v1000, fine, pen\WObj:=platform;
    
    !!0.16887495373796563, -4.484999999999999;
    MoveL [ [18.695, 1.958, 45.982], [0.200, 0.322, -0.925, 0.000], [0, 0, 0, 0], [ 9E9, 9E9, 9E9, 9E9, 9E9, 9E9] ], v1000, fine, pen\WObj:=platform;
    MoveL [ [0.169, -4.485, -0.010], [0.200, 0.322, -0.925, 0.000], [0, 0, 0, 0], [ 9E9, 9E9, 9E9, 9E9, 9E9, 9E9] ], v30, fine, pen\WObj:=platform;
    MoveL [ [18.695, 1.958, 45.982], [0.200, 0.322, -0.925, 0.000], [0, 0, 0, 0], [ 9E9, 9E9, 9E9, 9E9, 9E9, 9E9] ], v1000, fine, pen\WObj:=platform;
    
    !!-0.9569580711818046, -2.535;
    MoveL [ [19.478, 2.706, 45.321], [0.216, 0.243, -0.946, 0.000], [0, 0, 0, 0], [ 9E9, 9E9, 9E9, 9E9, 9E9, 9E9] ], v1000, fine, pen\WObj:=platform;
    MoveL [ [-0.957, -2.535, -0.010], [0.216, 0.243, -0.946, 0.000], [0, 0, 0, 0], [ 9E9, 9E9, 9E9, 9E9, 9E9, 9E9] ], v30, fine, pen\WObj:=platform;
    MoveL [ [19.478, 2.706, 45.321], [0.216, 0.243, -0.946, 0.000], [0, 0, 0, 0], [ 9E9, 9E9, 9E9, 9E9, 9E9, 9E9] ], v1000, fine, pen\WObj:=platform;
    
    !!-0.9006664199358159, -2.6325;
    MoveL [ [17.286, -17.259, 44.209], [0.240, -0.608, -0.756, 0.000], [0, 0, 0, 0], [ 9E9, 9E9, 9E9, 9E9, 9E9, 9E9] ], v1000, fine, pen\WObj:=platform;
    MoveL [ [-0.901, -2.632, -0.010], [0.240, -0.608, -0.756, 0.000], [0, 0, 0, 0], [ 9E9, 9E9, 9E9, 9E9, 9E9, 9E9] ], v30, fine, pen\WObj:=platform;
    MoveL [ [17.286, -17.259, 44.209], [0.240, -0.608, -0.756, 0.000], [0, 0, 0, 0], [ 9E9, 9E9, 9E9, 9E9, 9E9, 9E9] ], v1000, fine, pen\WObj:=platform;
    
    !!-0.8443747686898279, -2.7299999999999995;
    MoveL [ [19.557, -6.078, 45.516], [0.212, -0.158, -0.964, 0.000], [0, 0, 0, 0], [ 9E9, 9E9, 9E9, 9E9, 9E9, 9E9] ], v1000, fine, pen\WObj:=platform;
    MoveL [ [-0.844, -2.730, -0.010], [0.212, -0.158, -0.964, 0.000], [0, 0, 0, 0], [ 9E9, 9E9, 9E9, 9E9, 9E9, 9E9] ], v30, fine, pen\WObj:=platform;
    MoveL [ [19.557, -6.078, 45.516], [0.212, -0.158, -0.964, 0.000], [0, 0, 0, 0], [ 9E9, 9E9, 9E9, 9E9, 9E9, 9E9] ], v1000, fine, pen\WObj:=platform;
    
    !!-0.7880831174438391, -2.8274999999999997;
    MoveL [ [17.328, 11.909, 44.201], [0.241, 0.612, -0.753, 0.000], [0, 0, 0, 0], [ 9E9, 9E9, 9E9, 9E9, 9E9, 9E9] ], v1000, fine, pen\WObj:=platform;
    MoveL [ [-0.788, -2.827, -0.010], [0.241, 0.612, -0.753, 0.000], [0, 0, 0, 0], [ 9E9, 9E9, 9E9, 9E9, 9E9, 9E9] ], v30, fine, pen\WObj:=platform;
    MoveL [ [17.328, 11.909, 44.201], [0.241, 0.612, -0.753, 0.000], [0, 0, 0, 0], [ 9E9, 9E9, 9E9, 9E9, 9E9, 9E9] ], v1000, fine, pen\WObj:=platform;
    
    !!-0.7317914661978503, -2.925;
    MoveL [ [16.928, 12.910, 44.006], [0.245, 0.647, -0.722, 0.000], [0, 0, 0, 0], [ 9E9, 9E9, 9E9, 9E9, 9E9, 9E9] ], v1000, fine, pen\WObj:=platform;
    MoveL [ [-0.732, -2.925, -0.010], [0.245, 0.647, -0.722, 0.000], [0, 0, 0, 0], [ 9E9, 9E9, 9E9, 9E9, 9E9, 9E9] ], v30, fine, pen\WObj:=platform;
    MoveL [ [16.928, 12.910, 44.006], [0.245, 0.647, -0.722, 0.000], [0, 0, 0, 0], [ 9E9, 9E9, 9E9, 9E9, 9E9, 9E9] ], v1000, fine, pen\WObj:=platform;
    
    !!-0.6754998149518622, -3.0224999999999995;
    MoveL [ [19.585, -3.034, 45.701], [0.207, -0.001, -0.978, 0.000], [0, 0, 0, 0], [ 9E9, 9E9, 9E9, 9E9, 9E9, 9E9] ], v1000, fine, pen\WObj:=platform;
    MoveL [ [-0.675, -3.022, -0.010], [0.207, -0.001, -0.978, 0.000], [0, 0, 0, 0], [ 9E9, 9E9, 9E9, 9E9, 9E9, 9E9] ], v30, fine, pen\WObj:=platform;
    MoveL [ [19.585, -3.034, 45.701], [0.207, -0.001, -0.978, 0.000], [0, 0, 0, 0], [ 9E9, 9E9, 9E9, 9E9, 9E9, 9E9] ], v1000, fine, pen\WObj:=platform;
    
    !!-0.6192081637058734, -3.12;
    MoveL [ [17.624, -16.010, 44.723], [0.230, -0.562, -0.795, 0.000], [0, 0, 0, 0], [ 9E9, 9E9, 9E9, 9E9, 9E9, 9E9] ], v1000, fine, pen\WObj:=platform;
    MoveL [ [-0.619, -3.120, -0.010], [0.230, -0.562, -0.795, 0.000], [0, 0, 0, 0], [ 9E9, 9E9, 9E9, 9E9, 9E9, 9E9] ], v30, fine, pen\WObj:=platform;
    MoveL [ [17.624, -16.010, 44.723], [0.230, -0.562, -0.795, 0.000], [0, 0, 0, 0], [ 9E9, 9E9, 9E9, 9E9, 9E9, 9E9] ], v1000, fine, pen\WObj:=platform;
    
    !!-1.2947079786577356, -2.1449999999999996;
    MoveL [ [18.742, -12.668, 44.575], [0.233, -0.452, -0.861, 0.000], [0, 0, 0, 0], [ 9E9, 9E9, 9E9, 9E9, 9E9, 9E9] ], v1000, fine, pen\WObj:=platform;
    MoveL [ [-1.295, -2.145, -0.010], [0.233, -0.452, -0.861, 0.000], [0, 0, 0, 0], [ 9E9, 9E9, 9E9, 9E9, 9E9, 9E9] ], v30, fine, pen\WObj:=platform;
    MoveL [ [18.742, -12.668, 44.575], [0.233, -0.452, -0.861, 0.000], [0, 0, 0, 0], [ 9E9, 9E9, 9E9, 9E9, 9E9, 9E9] ], v1000, fine, pen\WObj:=platform;
    
    !!-1.8013328398716324, -1.2674999999999996;
    MoveL [ [20.063, -5.510, 44.755], [0.229, -0.185, -0.956, 0.000], [0, 0, 0, 0], [ 9E9, 9E9, 9E9, 9E9, 9E9, 9E9] ], v1000, fine, pen\WObj:=platform;
    MoveL [ [-1.801, -1.267, -0.010], [0.229, -0.185, -0.956, 0.000], [0, 0, 0, 0], [ 9E9, 9E9, 9E9, 9E9, 9E9, 9E9] ], v30, fine, pen\WObj:=platform;
    MoveL [ [20.063, -5.510, 44.755], [0.229, -0.185, -0.956, 0.000], [0, 0, 0, 0], [ 9E9, 9E9, 9E9, 9E9, 9E9, 9E9] ], v1000, fine, pen\WObj:=platform;
    
    !!-1.8576244911176212, -1.17;
    MoveL [ [18.530, 10.728, 44.067], [0.243, 0.489, -0.838, 0.000], [0, 0, 0, 0], [ 9E9, 9E9, 9E9, 9E9, 9E9, 9E9] ], v1000, fine, pen\WObj:=platform;
    MoveL [ [-1.858, -1.170, -0.010], [0.243, 0.489, -0.838, 0.000], [0, 0, 0, 0], [ 9E9, 9E9, 9E9, 9E9, 9E9, 9E9] ], v30, fine, pen\WObj:=platform;
    MoveL [ [18.530, 10.728, 44.067], [0.243, 0.489, -0.838, 0.000], [0, 0, 0, 0], [ 9E9, 9E9, 9E9, 9E9, 9E9, 9E9] ], v1000, fine, pen\WObj:=platform;
    
    !!-1.9139161423636093, -1.0724999999999998;
    MoveL [ [18.875, 9.617, 44.189], [0.241, 0.444, -0.863, 0.000], [0, 0, 0, 0], [ 9E9, 9E9, 9E9, 9E9, 9E9, 9E9] ], v1000, fine, pen\WObj:=platform;
    MoveL [ [-1.914, -1.072, -0.010], [0.241, 0.444, -0.863, 0.000], [0, 0, 0, 0], [ 9E9, 9E9, 9E9, 9E9, 9E9, 9E9] ], v30, fine, pen\WObj:=platform;
    MoveL [ [18.875, 9.617, 44.189], [0.241, 0.444, -0.863, 0.000], [0, 0, 0, 0], [ 9E9, 9E9, 9E9, 9E9, 9E9, 9E9] ], v1000, fine, pen\WObj:=platform;
    
    !!-1.3509996299037244, -2.0474999999999994;
    MoveL [ [18.983, -11.673, 44.643], [0.231, -0.416, -0.879, 0.000], [0, 0, 0, 0], [ 9E9, 9E9, 9E9, 9E9, 9E9, 9E9] ], v1000, fine, pen\WObj:=platform;
    MoveL [ [-1.351, -2.047, -0.010], [0.231, -0.416, -0.879, 0.000], [0, 0, 0, 0], [ 9E9, 9E9, 9E9, 9E9, 9E9, 9E9] ], v30, fine, pen\WObj:=platform;
    MoveL [ [18.983, -11.673, 44.643], [0.231, -0.416, -0.879, 0.000], [0, 0, 0, 0], [ 9E9, 9E9, 9E9, 9E9, 9E9, 9E9] ], v1000, fine, pen\WObj:=platform;
    
    !!-1.4072912811497127, -1.9499999999999997;
    MoveL [ [18.719, 8.749, 44.492], [0.234, 0.456, -0.858, 0.000], [0, 0, 0, 0], [ 9E9, 9E9, 9E9, 9E9, 9E9, 9E9] ], v1000, fine, pen\WObj:=platform;
    MoveL [ [-1.407, -1.950, -0.010], [0.234, 0.456, -0.858, 0.000], [0, 0, 0, 0], [ 9E9, 9E9, 9E9, 9E9, 9E9, 9E9] ], v30, fine, pen\WObj:=platform;
    MoveL [ [18.719, 8.749, 44.492], [0.234, 0.456, -0.858, 0.000], [0, 0, 0, 0], [ 9E9, 9E9, 9E9, 9E9, 9E9, 9E9] ], v1000, fine, pen\WObj:=platform;
    
    !!-1.4635829323957013, -1.8524999999999996;
    MoveL [ [19.039, 7.539, 44.615], [0.232, 0.405, -0.884, 0.000], [0, 0, 0, 0], [ 9E9, 9E9, 9E9, 9E9, 9E9, 9E9] ], v1000, fine, pen\WObj:=platform;
    MoveL [ [-1.464, -1.852, -0.010], [0.232, 0.405, -0.884, 0.000], [0, 0, 0, 0], [ 9E9, 9E9, 9E9, 9E9, 9E9, 9E9] ], v30, fine, pen\WObj:=platform;
    MoveL [ [19.039, 7.539, 44.615], [0.232, 0.405, -0.884, 0.000], [0, 0, 0, 0], [ 9E9, 9E9, 9E9, 9E9, 9E9, 9E9] ], v1000, fine, pen\WObj:=platform;
    
    !!-1.5198745836416898, -1.7549999999999997;
    MoveL [ [19.891, -6.108, 44.964], [0.224, -0.194, -0.955, 0.000], [0, 0, 0, 0], [ 9E9, 9E9, 9E9, 9E9, 9E9, 9E9] ], v1000, fine, pen\WObj:=platform;
    MoveL [ [-1.520, -1.755, -0.010], [0.224, -0.194, -0.955, 0.000], [0, 0, 0, 0], [ 9E9, 9E9, 9E9, 9E9, 9E9, 9E9] ], v30, fine, pen\WObj:=platform;
    MoveL [ [19.891, -6.108, 44.964], [0.224, -0.194, -0.955, 0.000], [0, 0, 0, 0], [ 9E9, 9E9, 9E9, 9E9, 9E9, 9E9] ], v1000, fine, pen\WObj:=platform;
    
    !!-1.5761662348876784, -1.6574999999999995;
    MoveL [ [19.416, -9.822, 44.629], [0.232, -0.353, -0.907, 0.000], [0, 0, 0, 0], [ 9E9, 9E9, 9E9, 9E9, 9E9, 9E9] ], v1000, fine, pen\WObj:=platform;
    MoveL [ [-1.576, -1.657, -0.010], [0.232, -0.353, -0.907, 0.000], [0, 0, 0, 0], [ 9E9, 9E9, 9E9, 9E9, 9E9, 9E9] ], v30, fine, pen\WObj:=platform;
    MoveL [ [19.416, -9.822, 44.629], [0.232, -0.353, -0.907, 0.000], [0, 0, 0, 0], [ 9E9, 9E9, 9E9, 9E9, 9E9, 9E9] ], v1000, fine, pen\WObj:=platform;
    
    !!-1.632457886133667, -1.5599999999999996;
    MoveL [ [19.940, 2.426, 44.921], [0.225, 0.177, -0.958, 0.000], [0, 0, 0, 0], [ 9E9, 9E9, 9E9, 9E9, 9E9, 9E9] ], v1000, fine, pen\WObj:=platform;
    MoveL [ [-1.632, -1.560, -0.010], [0.225, 0.177, -0.958, 0.000], [0, 0, 0, 0], [ 9E9, 9E9, 9E9, 9E9, 9E9, 9E9] ], v30, fine, pen\WObj:=platform;
    MoveL [ [19.940, 2.426, 44.921], [0.225, 0.177, -0.958, 0.000], [0, 0, 0, 0], [ 9E9, 9E9, 9E9, 9E9, 9E9, 9E9] ], v1000, fine, pen\WObj:=platform;
    
    !!-1.6887495373796557, -1.4625;
    MoveL [ [20.142, -0.215, 44.955], [0.224, 0.056, -0.973, 0.000], [0, 0, 0, 0], [ 9E9, 9E9, 9E9, 9E9, 9E9, 9E9] ], v1000, fine, pen\WObj:=platform;
    MoveL [ [-1.689, -1.462, -0.010], [0.224, 0.056, -0.973, 0.000], [0, 0, 0, 0], [ 9E9, 9E9, 9E9, 9E9, 9E9, 9E9] ], v30, fine, pen\WObj:=platform;
    MoveL [ [20.142, -0.215, 44.955], [0.224, 0.056, -0.973, 0.000], [0, 0, 0, 0], [ 9E9, 9E9, 9E9, 9E9, 9E9, 9E9] ], v1000, fine, pen\WObj:=platform;
    
    !!-1.7450411886256436, -1.3649999999999995;
    MoveL [ [17.508, -17.034, 43.393], [0.257, -0.610, -0.750, 0.000], [0, 0, 0, 0], [ 9E9, 9E9, 9E9, 9E9, 9E9, 9E9] ], v1000, fine, pen\WObj:=platform;
    MoveL [ [-1.745, -1.365, -0.010], [0.257, -0.610, -0.750, 0.000], [0, 0, 0, 0], [ 9E9, 9E9, 9E9, 9E9, 9E9, 9E9] ], v30, fine, pen\WObj:=platform;
    MoveL [ [17.508, -17.034, 43.393], [0.257, -0.610, -0.750, 0.000], [0, 0, 0, 0], [ 9E9, 9E9, 9E9, 9E9, 9E9, 9E9] ], v1000, fine, pen\WObj:=platform;
    
    !!-1.238416327411747, -2.2424999999999997;
    MoveL [ [18.212, 10.164, 44.350], [0.237, 0.522, -0.819, 0.000], [0, 0, 0, 0], [ 9E9, 9E9, 9E9, 9E9, 9E9, 9E9] ], v1000, fine, pen\WObj:=platform;
    MoveL [ [-1.238, -2.242, -0.010], [0.237, 0.522, -0.819, 0.000], [0, 0, 0, 0], [ 9E9, 9E9, 9E9, 9E9, 9E9, 9E9] ], v30, fine, pen\WObj:=platform;
    MoveL [ [18.212, 10.164, 44.350], [0.237, 0.522, -0.819, 0.000], [0, 0, 0, 0], [ 9E9, 9E9, 9E9, 9E9, 9E9, 9E9] ], v1000, fine, pen\WObj:=platform;
    
    !!-1.1821246761657587, -2.34;
    MoveL [ [19.140, 5.998, 44.906], [0.225, 0.370, -0.901, 0.000], [0, 0, 0, 0], [ 9E9, 9E9, 9E9, 9E9, 9E9, 9E9] ], v1000, fine, pen\WObj:=platform;
    MoveL [ [-1.182, -2.340, -0.010], [0.225, 0.370, -0.901, 0.000], [0, 0, 0, 0], [ 9E9, 9E9, 9E9, 9E9, 9E9, 9E9] ], v30, fine, pen\WObj:=platform;
    MoveL [ [19.140, 5.998, 44.906], [0.225, 0.370, -0.901, 0.000], [0, 0, 0, 0], [ 9E9, 9E9, 9E9, 9E9, 9E9, 9E9] ], v1000, fine, pen\WObj:=platform;
    
    !!-0.6754998149518622, -3.2175;
    MoveL [ [17.711, -15.884, 44.728], [0.229, -0.552, -0.802, 0.000], [0, 0, 0, 0], [ 9E9, 9E9, 9E9, 9E9, 9E9, 9E9] ], v1000, fine, pen\WObj:=platform;
    MoveL [ [-0.675, -3.217, -0.010], [0.229, -0.552, -0.802, 0.000], [0, 0, 0, 0], [ 9E9, 9E9, 9E9, 9E9, 9E9, 9E9] ], v30, fine, pen\WObj:=platform;
    MoveL [ [17.711, -15.884, 44.728], [0.229, -0.552, -0.802, 0.000], [0, 0, 0, 0], [ 9E9, 9E9, 9E9, 9E9, 9E9, 9E9] ], v1000, fine, pen\WObj:=platform;
    
    !!-0.6192081637058734, -3.3150000000000004;
    MoveL [ [18.268, -13.745, 45.095], [0.221, -0.471, -0.854, 0.000], [0, 0, 0, 0], [ 9E9, 9E9, 9E9, 9E9, 9E9, 9E9] ], v1000, fine, pen\WObj:=platform;
    MoveL [ [-0.619, -3.315, -0.010], [0.221, -0.471, -0.854, 0.000], [0, 0, 0, 0], [ 9E9, 9E9, 9E9, 9E9, 9E9, 9E9] ], v30, fine, pen\WObj:=platform;
    MoveL [ [18.268, -13.745, 45.095], [0.221, -0.471, -0.854, 0.000], [0, 0, 0, 0], [ 9E9, 9E9, 9E9, 9E9, 9E9, 9E9] ], v1000, fine, pen\WObj:=platform;
    
    !!-0.5629165124598849, -3.4125;
    MoveL [ [18.798, 5.262, 45.266], [0.217, 0.399, -0.891, 0.000], [0, 0, 0, 0], [ 9E9, 9E9, 9E9, 9E9, 9E9, 9E9] ], v1000, fine, pen\WObj:=platform;
    MoveL [ [-0.563, -3.413, -0.010], [0.217, 0.399, -0.891, 0.000], [0, 0, 0, 0], [ 9E9, 9E9, 9E9, 9E9, 9E9, 9E9] ], v30, fine, pen\WObj:=platform;
    MoveL [ [18.798, 5.262, 45.266], [0.217, 0.399, -0.891, 0.000], [0, 0, 0, 0], [ 9E9, 9E9, 9E9, 9E9, 9E9, 9E9] ], v1000, fine, pen\WObj:=platform;
    
    !!-0.5066248612138966, -3.51;
    MoveL [ [18.498, 6.584, 45.123], [0.221, 0.458, -0.861, 0.000], [0, 0, 0, 0], [ 9E9, 9E9, 9E9, 9E9, 9E9, 9E9] ], v1000, fine, pen\WObj:=platform;
    MoveL [ [-0.507, -3.510, -0.010], [0.221, 0.458, -0.861, 0.000], [0, 0, 0, 0], [ 9E9, 9E9, 9E9, 9E9, 9E9, 9E9] ], v30, fine, pen\WObj:=platform;
    MoveL [ [18.498, 6.584, 45.123], [0.221, 0.458, -0.861, 0.000], [0, 0, 0, 0], [ 9E9, 9E9, 9E9, 9E9, 9E9, 9E9] ], v1000, fine, pen\WObj:=platform;
    
    !!-0.4503332099679081, -3.6074999999999995;
    MoveL [ [19.440, -3.471, 45.863], [0.203, 0.007, -0.979, 0.000], [0, 0, 0, 0], [ 9E9, 9E9, 9E9, 9E9, 9E9, 9E9] ], v1000, fine, pen\WObj:=platform;
    MoveL [ [-0.450, -3.607, -0.010], [0.203, 0.007, -0.979, 0.000], [0, 0, 0, 0], [ 9E9, 9E9, 9E9, 9E9, 9E9, 9E9] ], v30, fine, pen\WObj:=platform;
    MoveL [ [19.440, -3.471, 45.863], [0.203, 0.007, -0.979, 0.000], [0, 0, 0, 0], [ 9E9, 9E9, 9E9, 9E9, 9E9, 9E9] ], v1000, fine, pen\WObj:=platform;
    
    !!-0.3940415587219197, -3.704999999999999;
    MoveL [ [19.316, -5.989, 45.885], [0.203, -0.113, -0.973, 0.000], [0, 0, 0, 0], [ 9E9, 9E9, 9E9, 9E9, 9E9, 9E9] ], v1000, fine, pen\WObj:=platform;
    MoveL [ [-0.394, -3.705, -0.010], [0.203, -0.113, -0.973, 0.000], [0, 0, 0, 0], [ 9E9, 9E9, 9E9, 9E9, 9E9, 9E9] ], v30, fine, pen\WObj:=platform;
    MoveL [ [19.316, -5.989, 45.885], [0.203, -0.113, -0.973, 0.000], [0, 0, 0, 0], [ 9E9, 9E9, 9E9, 9E9, 9E9, 9E9] ], v1000, fine, pen\WObj:=platform;
    
    !!-0.33774990747593125, -3.8024999999999998;
    MoveL [ [17.126, 11.188, 44.378], [0.237, 0.633, -0.737, 0.000], [0, 0, 0, 0], [ 9E9, 9E9, 9E9, 9E9, 9E9, 9E9] ], v1000, fine, pen\WObj:=platform;
    MoveL [ [-0.338, -3.802, -0.010], [0.237, 0.633, -0.737, 0.000], [0, 0, 0, 0], [ 9E9, 9E9, 9E9, 9E9, 9E9, 9E9] ], v30, fine, pen\WObj:=platform;
    MoveL [ [17.126, 11.188, 44.378], [0.237, 0.633, -0.737, 0.000], [0, 0, 0, 0], [ 9E9, 9E9, 9E9, 9E9, 9E9, 9E9] ], v1000, fine, pen\WObj:=platform;
    
    !!-0.28145825622994247, -3.9000000000000004;
    MoveL [ [15.764, 14.683, 43.547], [0.254, 0.732, -0.632, 0.000], [0, 0, 0, 0], [ 9E9, 9E9, 9E9, 9E9, 9E9, 9E9] ], v1000, fine, pen\WObj:=platform;
    MoveL [ [-0.281, -3.900, -0.010], [0.254, 0.732, -0.632, 0.000], [0, 0, 0, 0], [ 9E9, 9E9, 9E9, 9E9, 9E9, 9E9] ], v30, fine, pen\WObj:=platform;
    MoveL [ [15.764, 14.683, 43.547], [0.254, 0.732, -0.632, 0.000], [0, 0, 0, 0], [ 9E9, 9E9, 9E9, 9E9, 9E9, 9E9] ], v1000, fine, pen\WObj:=platform;
    
    !!-0.22516660498395405, -3.9975;
    MoveL [ [18.701, -10.719, 45.779], [0.205, -0.328, -0.922, 0.000], [0, 0, 0, 0], [ 9E9, 9E9, 9E9, 9E9, 9E9, 9E9] ], v1000, fine, pen\WObj:=platform;
    MoveL [ [-0.225, -3.998, -0.010], [0.205, -0.328, -0.922, 0.000], [0, 0, 0, 0], [ 9E9, 9E9, 9E9, 9E9, 9E9, 9E9] ], v30, fine, pen\WObj:=platform;
    MoveL [ [18.701, -10.719, 45.779], [0.205, -0.328, -0.922, 0.000], [0, 0, 0, 0], [ 9E9, 9E9, 9E9, 9E9, 9E9, 9E9] ], v1000, fine, pen\WObj:=platform;
    
    !!-0.16887495373796563, -4.095;
    MoveL [ [19.014, -8.066, 45.993], [0.200, -0.199, -0.959, 0.000], [0, 0, 0, 0], [ 9E9, 9E9, 9E9, 9E9, 9E9, 9E9] ], v1000, fine, pen\WObj:=platform;
    MoveL [ [-0.169, -4.095, -0.010], [0.200, -0.199, -0.959, 0.000], [0, 0, 0, 0], [ 9E9, 9E9, 9E9, 9E9, 9E9, 9E9] ], v30, fine, pen\WObj:=platform;
    MoveL [ [19.014, -8.066, 45.993], [0.200, -0.199, -0.959, 0.000], [0, 0, 0, 0], [ 9E9, 9E9, 9E9, 9E9, 9E9, 9E9] ], v1000, fine, pen\WObj:=platform;
    
    !!-1.1258330249197703, -2.4375;
    MoveL [ [18.499, -13.467, 44.635], [0.231, -0.477, -0.848, 0.000], [0, 0, 0, 0], [ 9E9, 9E9, 9E9, 9E9, 9E9, 9E9] ], v1000, fine, pen\WObj:=platform;
    MoveL [ [-1.126, -2.438, -0.010], [0.231, -0.477, -0.848, 0.000], [0, 0, 0, 0], [ 9E9, 9E9, 9E9, 9E9, 9E9, 9E9] ], v30, fine, pen\WObj:=platform;
    MoveL [ [18.499, -13.467, 44.635], [0.231, -0.477, -0.848, 0.000], [0, 0, 0, 0], [ 9E9, 9E9, 9E9, 9E9, 9E9, 9E9] ], v1000, fine, pen\WObj:=platform;
    
    !!-0.1125833024919772, -4.1925;
    MoveL [ [17.661, 8.680, 44.917], [0.225, 0.572, -0.789, 0.000], [0, 0, 0, 0], [ 9E9, 9E9, 9E9, 9E9, 9E9, 9E9] ], v1000, fine, pen\WObj:=platform;
    MoveL [ [-0.113, -4.192, -0.010], [0.225, 0.572, -0.789, 0.000], [0, 0, 0, 0], [ 9E9, 9E9, 9E9, 9E9, 9E9, 9E9] ], v30, fine, pen\WObj:=platform;
    MoveL [ [17.661, 8.680, 44.917], [0.225, 0.572, -0.789, 0.000], [0, 0, 0, 0], [ 9E9, 9E9, 9E9, 9E9, 9E9, 9E9] ], v1000, fine, pen\WObj:=platform;
    
    !!-0.05629165124598806, -4.289999999999999;
    MoveL [ [17.281, 9.854, 44.704], [0.230, 0.615, -0.754, 0.000], [0, 0, 0, 0], [ 9E9, 9E9, 9E9, 9E9, 9E9, 9E9] ], v1000, fine, pen\WObj:=platform;
    MoveL [ [-0.056, -4.290, -0.010], [0.230, 0.615, -0.754, 0.000], [0, 0, 0, 0], [ 9E9, 9E9, 9E9, 9E9, 9E9, 9E9] ], v30, fine, pen\WObj:=platform;
    MoveL [ [17.281, 9.854, 44.704], [0.230, 0.615, -0.754, 0.000], [0, 0, 0, 0], [ 9E9, 9E9, 9E9, 9E9, 9E9, 9E9] ], v1000, fine, pen\WObj:=platform;
    
    !!0, -4.387499999999999;
    MoveL [ [17.997, -13.827, 45.674], [0.208, -0.454, -0.866, 0.000], [0, 0, 0, 0], [ 9E9, 9E9, 9E9, 9E9, 9E9, 9E9] ], v1000, fine, pen\WObj:=platform;
    MoveL [ [0.000, -4.387, -0.010], [0.208, -0.454, -0.866, 0.000], [0, 0, 0, 0], [ 9E9, 9E9, 9E9, 9E9, 9E9, 9E9] ], v30, fine, pen\WObj:=platform;
    MoveL [ [17.997, -13.827, 45.674], [0.208, -0.454, -0.866, 0.000], [0, 0, 0, 0], [ 9E9, 9E9, 9E9, 9E9, 9E9, 9E9] ], v1000, fine, pen\WObj:=platform;
    
    !!0.05629165124598806, -4.484999999999999;
    MoveL [ [17.459, -15.902, 45.452], [0.213, -0.536, -0.817, 0.000], [0, 0, 0, 0], [ 9E9, 9E9, 9E9, 9E9, 9E9, 9E9] ], v1000, fine, pen\WObj:=platform;
    MoveL [ [0.056, -4.485, -0.010], [0.213, -0.536, -0.817, 0.000], [0, 0, 0, 0], [ 9E9, 9E9, 9E9, 9E9, 9E9, 9E9] ], v30, fine, pen\WObj:=platform;
    MoveL [ [17.459, -15.902, 45.452], [0.213, -0.536, -0.817, 0.000], [0, 0, 0, 0], [ 9E9, 9E9, 9E9, 9E9, 9E9, 9E9] ], v1000, fine, pen\WObj:=platform;
    
    !!-1.0695413736737815, -2.535;
    MoveL [ [17.952, -15.410, 44.402], [0.236, -0.545, -0.805, 0.000], [0, 0, 0, 0], [ 9E9, 9E9, 9E9, 9E9, 9E9, 9E9] ], v1000, fine, pen\WObj:=platform;
    MoveL [ [-1.070, -2.535, -0.010], [0.236, -0.545, -0.805, 0.000], [0, 0, 0, 0], [ 9E9, 9E9, 9E9, 9E9, 9E9, 9E9] ], v30, fine, pen\WObj:=platform;
    MoveL [ [17.952, -15.410, 44.402], [0.236, -0.545, -0.805, 0.000], [0, 0, 0, 0], [ 9E9, 9E9, 9E9, 9E9, 9E9, 9E9] ], v1000, fine, pen\WObj:=platform;
    
    !!-1.0132497224277934, -2.6325;
    MoveL [ [19.491, 2.833, 45.264], [0.217, 0.251, -0.943, 0.000], [0, 0, 0, 0], [ 9E9, 9E9, 9E9, 9E9, 9E9, 9E9] ], v1000, fine, pen\WObj:=platform;
    MoveL [ [-1.013, -2.632, -0.010], [0.217, 0.251, -0.943, 0.000], [0, 0, 0, 0], [ 9E9, 9E9, 9E9, 9E9, 9E9, 9E9] ], v30, fine, pen\WObj:=platform;
    MoveL [ [19.491, 2.833, 45.264], [0.217, 0.251, -0.943, 0.000], [0, 0, 0, 0], [ 9E9, 9E9, 9E9, 9E9, 9E9, 9E9] ], v1000, fine, pen\WObj:=platform;
    
    !!-0.9569580711818046, -2.7299999999999995;
    MoveL [ [19.731, -0.854, 45.471], [0.213, 0.088, -0.973, 0.000], [0, 0, 0, 0], [ 9E9, 9E9, 9E9, 9E9, 9E9, 9E9] ], v1000, fine, pen\WObj:=platform;
    MoveL [ [-0.957, -2.730, -0.010], [0.213, 0.088, -0.973, 0.000], [0, 0, 0, 0], [ 9E9, 9E9, 9E9, 9E9, 9E9, 9E9] ], v30, fine, pen\WObj:=platform;
    MoveL [ [19.731, -0.854, 45.471], [0.213, 0.088, -0.973, 0.000], [0, 0, 0, 0], [ 9E9, 9E9, 9E9, 9E9, 9E9, 9E9] ], v1000, fine, pen\WObj:=platform;
    
    !!-0.9006664199358159, -2.8274999999999997;
    MoveL [ [19.607, -5.925, 45.485], [0.212, -0.146, -0.966, 0.000], [0, 0, 0, 0], [ 9E9, 9E9, 9E9, 9E9, 9E9, 9E9] ], v1000, fine, pen\WObj:=platform;
    MoveL [ [-0.901, -2.827, -0.010], [0.212, -0.146, -0.966, 0.000], [0, 0, 0, 0], [ 9E9, 9E9, 9E9, 9E9, 9E9, 9E9] ], v30, fine, pen\WObj:=platform;
    MoveL [ [19.607, -5.925, 45.485], [0.212, -0.146, -0.966, 0.000], [0, 0, 0, 0], [ 9E9, 9E9, 9E9, 9E9, 9E9, 9E9] ], v1000, fine, pen\WObj:=platform;
    
    !!-0.8443747686898279, -2.925;
    MoveL [ [19.686, -1.863, 45.568], [0.210, 0.051, -0.976, 0.000], [0, 0, 0, 0], [ 9E9, 9E9, 9E9, 9E9, 9E9, 9E9] ], v1000, fine, pen\WObj:=platform;
    MoveL [ [-0.844, -2.925, -0.010], [0.210, 0.051, -0.976, 0.000], [0, 0, 0, 0], [ 9E9, 9E9, 9E9, 9E9, 9E9, 9E9] ], v30, fine, pen\WObj:=platform;
    MoveL [ [19.686, -1.863, 45.568], [0.210, 0.051, -0.976, 0.000], [0, 0, 0, 0], [ 9E9, 9E9, 9E9, 9E9, 9E9, 9E9] ], v1000, fine, pen\WObj:=platform;
    
    !!-0.7880831174438391, -3.0224999999999995;
    MoveL [ [16.919, 12.962, 43.933], [0.246, 0.649, -0.719, 0.000], [0, 0, 0, 0], [ 9E9, 9E9, 9E9, 9E9, 9E9, 9E9] ], v1000, fine, pen\WObj:=platform;
    MoveL [ [-0.788, -3.022, -0.010], [0.246, 0.649, -0.719, 0.000], [0, 0, 0, 0], [ 9E9, 9E9, 9E9, 9E9, 9E9, 9E9] ], v30, fine, pen\WObj:=platform;
    MoveL [ [16.919, 12.962, 43.933], [0.246, 0.649, -0.719, 0.000], [0, 0, 0, 0], [ 9E9, 9E9, 9E9, 9E9, 9E9, 9E9] ], v1000, fine, pen\WObj:=platform;
    
    !!-0.7317914661978503, -3.12;
    MoveL [ [19.468, 1.054, 45.537], [0.211, 0.198, -0.957, 0.000], [0, 0, 0, 0], [ 9E9, 9E9, 9E9, 9E9, 9E9, 9E9] ], v1000, fine, pen\WObj:=platform;
    MoveL [ [-0.732, -3.120, -0.010], [0.211, 0.198, -0.957, 0.000], [0, 0, 0, 0], [ 9E9, 9E9, 9E9, 9E9, 9E9, 9E9] ], v30, fine, pen\WObj:=platform;
    MoveL [ [19.468, 1.054, 45.537], [0.211, 0.198, -0.957, 0.000], [0, 0, 0, 0], [ 9E9, 9E9, 9E9, 9E9, 9E9, 9E9] ], v1000, fine, pen\WObj:=platform;
    
    !!-1.4072912811497127, -2.1449999999999996;
    MoveL [ [17.483, 12.766, 43.817], [0.248, 0.600, -0.760, 0.000], [0, 0, 0, 0], [ 9E9, 9E9, 9E9, 9E9, 9E9, 9E9] ], v1000, fine, pen\WObj:=platform;
    MoveL [ [-1.407, -2.145, -0.010], [0.248, 0.600, -0.760, 0.000], [0, 0, 0, 0], [ 9E9, 9E9, 9E9, 9E9, 9E9, 9E9] ], v30, fine, pen\WObj:=platform;
    MoveL [ [17.483, 12.766, 43.817], [0.248, 0.600, -0.760, 0.000], [0, 0, 0, 0], [ 9E9, 9E9, 9E9, 9E9, 9E9, 9E9] ], v1000, fine, pen\WObj:=platform;
    
    !!-1.9139161423636093, -1.2674999999999996;
    MoveL [ [18.518, 10.798, 44.001], [0.245, 0.493, -0.835, 0.000], [0, 0, 0, 0], [ 9E9, 9E9, 9E9, 9E9, 9E9, 9E9] ], v1000, fine, pen\WObj:=platform;
    MoveL [ [-1.914, -1.267, -0.010], [0.245, 0.493, -0.835, 0.000], [0, 0, 0, 0], [ 9E9, 9E9, 9E9, 9E9, 9E9, 9E9] ], v30, fine, pen\WObj:=platform;
    MoveL [ [18.518, 10.798, 44.001], [0.245, 0.493, -0.835, 0.000], [0, 0, 0, 0], [ 9E9, 9E9, 9E9, 9E9, 9E9, 9E9] ], v1000, fine, pen\WObj:=platform;
    
    !!-1.9702077936095979, -1.17;
    MoveL [ [20.223, -4.391, 44.679], [0.230, -0.140, -0.963, 0.000], [0, 0, 0, 0], [ 9E9, 9E9, 9E9, 9E9, 9E9, 9E9] ], v1000, fine, pen\WObj:=platform;
    MoveL [ [-1.970, -1.170, -0.010], [0.230, -0.140, -0.963, 0.000], [0, 0, 0, 0], [ 9E9, 9E9, 9E9, 9E9, 9E9, 9E9] ], v30, fine, pen\WObj:=platform;
    MoveL [ [20.223, -4.391, 44.679], [0.230, -0.140, -0.963, 0.000], [0, 0, 0, 0], [ 9E9, 9E9, 9E9, 9E9, 9E9, 9E9] ], v1000, fine, pen\WObj:=platform;
    
    !!-1.4635829323957015, -2.0474999999999994;
    MoveL [ [18.712, 8.834, 44.426], [0.236, 0.461, -0.855, 0.000], [0, 0, 0, 0], [ 9E9, 9E9, 9E9, 9E9, 9E9, 9E9] ], v1000, fine, pen\WObj:=platform;
    MoveL [ [-1.464, -2.047, -0.010], [0.236, 0.461, -0.855, 0.000], [0, 0, 0, 0], [ 9E9, 9E9, 9E9, 9E9, 9E9, 9E9] ], v30, fine, pen\WObj:=platform;
    MoveL [ [18.712, 8.834, 44.426], [0.236, 0.461, -0.855, 0.000], [0, 0, 0, 0], [ 9E9, 9E9, 9E9, 9E9, 9E9, 9E9] ], v1000, fine, pen\WObj:=platform;
    
    !!-1.5198745836416898, -1.9499999999999997;
    MoveL [ [19.656, -8.280, 44.840], [0.227, -0.279, -0.933, 0.000], [0, 0, 0, 0], [ 9E9, 9E9, 9E9, 9E9, 9E9, 9E9] ], v1000, fine, pen\WObj:=platform;
    MoveL [ [-1.520, -1.950, -0.010], [0.227, -0.279, -0.933, 0.000], [0, 0, 0, 0], [ 9E9, 9E9, 9E9, 9E9, 9E9, 9E9] ], v30, fine, pen\WObj:=platform;
    MoveL [ [19.656, -8.280, 44.840], [0.227, -0.279, -0.933, 0.000], [0, 0, 0, 0], [ 9E9, 9E9, 9E9, 9E9, 9E9, 9E9] ], v1000, fine, pen\WObj:=platform;
    
    !!-1.5761662348876784, -1.8524999999999996;
    MoveL [ [19.939, -5.960, 44.937], [0.225, -0.183, -0.957, 0.000], [0, 0, 0, 0], [ 9E9, 9E9, 9E9, 9E9, 9E9, 9E9] ], v1000, fine, pen\WObj:=platform;
    MoveL [ [-1.576, -1.852, -0.010], [0.225, -0.183, -0.957, 0.000], [0, 0, 0, 0], [ 9E9, 9E9, 9E9, 9E9, 9E9, 9E9] ], v30, fine, pen\WObj:=platform;
    MoveL [ [19.939, -5.960, 44.937], [0.225, -0.183, -0.957, 0.000], [0, 0, 0, 0], [ 9E9, 9E9, 9E9, 9E9, 9E9, 9E9] ], v1000, fine, pen\WObj:=platform;
    
    !!-1.632457886133667, -1.7549999999999997;
    MoveL [ [19.760, 3.909, 44.826], [0.227, 0.249, -0.941, 0.000], [0, 0, 0, 0], [ 9E9, 9E9, 9E9, 9E9, 9E9, 9E9] ], v1000, fine, pen\WObj:=platform;
    MoveL [ [-1.632, -1.755, -0.010], [0.227, 0.249, -0.941, 0.000], [0, 0, 0, 0], [ 9E9, 9E9, 9E9, 9E9, 9E9, 9E9] ], v30, fine, pen\WObj:=platform;
    MoveL [ [19.760, 3.909, 44.826], [0.227, 0.249, -0.941, 0.000], [0, 0, 0, 0], [ 9E9, 9E9, 9E9, 9E9, 9E9, 9E9] ], v1000, fine, pen\WObj:=platform;
    
    !!-1.6887495373796557, -1.6574999999999995;
    MoveL [ [19.951, 2.551, 44.868], [0.226, 0.186, -0.956, 0.000], [0, 0, 0, 0], [ 9E9, 9E9, 9E9, 9E9, 9E9, 9E9] ], v1000, fine, pen\WObj:=platform;
    MoveL [ [-1.689, -1.657, -0.010], [0.226, 0.186, -0.956, 0.000], [0, 0, 0, 0], [ 9E9, 9E9, 9E9, 9E9, 9E9, 9E9] ], v30, fine, pen\WObj:=platform;
    MoveL [ [19.951, 2.551, 44.868], [0.226, 0.186, -0.956, 0.000], [0, 0, 0, 0], [ 9E9, 9E9, 9E9, 9E9, 9E9, 9E9] ], v1000, fine, pen\WObj:=platform;
    
    !!-1.7450411886256436, -1.5599999999999996;
    MoveL [ [18.207, -15.089, 43.795], [0.249, -0.544, -0.802, 0.000], [0, 0, 0, 0], [ 9E9, 9E9, 9E9, 9E9, 9E9, 9E9] ], v1000, fine, pen\WObj:=platform;
    MoveL [ [-1.745, -1.560, -0.010], [0.249, -0.544, -0.802, 0.000], [0, 0, 0, 0], [ 9E9, 9E9, 9E9, 9E9, 9E9, 9E9] ], v30, fine, pen\WObj:=platform;
    MoveL [ [18.207, -15.089, 43.795], [0.249, -0.544, -0.802, 0.000], [0, 0, 0, 0], [ 9E9, 9E9, 9E9, 9E9, 9E9, 9E9] ], v1000, fine, pen\WObj:=platform;
    
    !!-1.8013328398716324, -1.4625;
    MoveL [ [17.593, -16.926, 43.404], [0.257, -0.603, -0.756, 0.000], [0, 0, 0, 0], [ 9E9, 9E9, 9E9, 9E9, 9E9, 9E9] ], v1000, fine, pen\WObj:=platform;
    MoveL [ [-1.801, -1.462, -0.010], [0.257, -0.603, -0.756, 0.000], [0, 0, 0, 0], [ 9E9, 9E9, 9E9, 9E9, 9E9, 9E9] ], v30, fine, pen\WObj:=platform;
    MoveL [ [17.593, -16.926, 43.404], [0.257, -0.603, -0.756, 0.000], [0, 0, 0, 0], [ 9E9, 9E9, 9E9, 9E9, 9E9, 9E9] ], v1000, fine, pen\WObj:=platform;
    
    !!-1.8576244911176212, -1.3649999999999995;
    MoveL [ [20.253, -1.622, 44.835], [0.227, -0.011, -0.974, 0.000], [0, 0, 0, 0], [ 9E9, 9E9, 9E9, 9E9, 9E9, 9E9] ], v1000, fine, pen\WObj:=platform;
    MoveL [ [-1.858, -1.365, -0.010], [0.227, -0.011, -0.974, 0.000], [0, 0, 0, 0], [ 9E9, 9E9, 9E9, 9E9, 9E9, 9E9] ], v30, fine, pen\WObj:=platform;
    MoveL [ [20.253, -1.622, 44.835], [0.227, -0.011, -0.974, 0.000], [0, 0, 0, 0], [ 9E9, 9E9, 9E9, 9E9, 9E9, 9E9] ], v1000, fine, pen\WObj:=platform;
    
    !!-1.3509996299037244, -2.2424999999999997;
    MoveL [ [18.817, -12.531, 44.570], [0.233, -0.442, -0.866, 0.000], [0, 0, 0, 0], [ 9E9, 9E9, 9E9, 9E9, 9E9, 9E9] ], v1000, fine, pen\WObj:=platform;
    MoveL [ [-1.351, -2.242, -0.010], [0.233, -0.442, -0.866, 0.000], [0, 0, 0, 0], [ 9E9, 9E9, 9E9, 9E9, 9E9, 9E9] ], v30, fine, pen\WObj:=platform;
    MoveL [ [18.817, -12.531, 44.570], [0.233, -0.442, -0.866, 0.000], [0, 0, 0, 0], [ 9E9, 9E9, 9E9, 9E9, 9E9, 9E9] ], v1000, fine, pen\WObj:=platform;
    
    !!-1.294707978657736, -2.34;
    MoveL [ [19.274, -10.193, 44.882], [0.226, -0.347, -0.910, 0.000], [0, 0, 0, 0], [ 9E9, 9E9, 9E9, 9E9, 9E9, 9E9] ], v1000, fine, pen\WObj:=platform;
    MoveL [ [-1.295, -2.340, -0.010], [0.226, -0.347, -0.910, 0.000], [0, 0, 0, 0], [ 9E9, 9E9, 9E9, 9E9, 9E9, 9E9] ], v30, fine, pen\WObj:=platform;
    MoveL [ [19.274, -10.193, 44.882], [0.226, -0.347, -0.910, 0.000], [0, 0, 0, 0], [ 9E9, 9E9, 9E9, 9E9, 9E9, 9E9] ], v1000, fine, pen\WObj:=platform;
    
    !!-0.7880831174438394, -3.2175;
    MoveL [ [19.488, 1.189, 45.482], [0.212, 0.208, -0.955, 0.000], [0, 0, 0, 0], [ 9E9, 9E9, 9E9, 9E9, 9E9, 9E9] ], v1000, fine, pen\WObj:=platform;
    MoveL [ [-0.788, -3.217, -0.010], [0.212, 0.208, -0.955, 0.000], [0, 0, 0, 0], [ 9E9, 9E9, 9E9, 9E9, 9E9, 9E9] ], v30, fine, pen\WObj:=platform;
    MoveL [ [19.488, 1.189, 45.482], [0.212, 0.208, -0.955, 0.000], [0, 0, 0, 0], [ 9E9, 9E9, 9E9, 9E9, 9E9, 9E9] ], v1000, fine, pen\WObj:=platform;
    
    !!-0.731791466197851, -3.3150000000000004;
    MoveL [ [19.302, 2.617, 45.415], [0.214, 0.277, -0.937, 0.000], [0, 0, 0, 0], [ 9E9, 9E9, 9E9, 9E9, 9E9, 9E9] ], v1000, fine, pen\WObj:=platform;
    MoveL [ [-0.732, -3.315, -0.010], [0.214, 0.277, -0.937, 0.000], [0, 0, 0, 0], [ 9E9, 9E9, 9E9, 9E9, 9E9, 9E9] ], v30, fine, pen\WObj:=platform;
    MoveL [ [19.302, 2.617, 45.415], [0.214, 0.277, -0.937, 0.000], [0, 0, 0, 0], [ 9E9, 9E9, 9E9, 9E9, 9E9, 9E9] ], v1000, fine, pen\WObj:=platform;
    
    !!-0.6754998149518622, -3.4125;
    MoveL [ [18.349, -13.606, 45.091], [0.221, -0.461, -0.860, 0.000], [0, 0, 0, 0], [ 9E9, 9E9, 9E9, 9E9, 9E9, 9E9] ], v1000, fine, pen\WObj:=platform;
    MoveL [ [-0.675, -3.413, -0.010], [0.221, -0.461, -0.860, 0.000], [0, 0, 0, 0], [ 9E9, 9E9, 9E9, 9E9, 9E9, 9E9] ], v30, fine, pen\WObj:=platform;
    MoveL [ [18.349, -13.606, 45.091], [0.221, -0.461, -0.860, 0.000], [0, 0, 0, 0], [ 9E9, 9E9, 9E9, 9E9, 9E9, 9E9] ], v1000, fine, pen\WObj:=platform;
    
    !!-0.6192081637058742, -3.51;
    MoveL [ [19.331, -7.540, 45.660], [0.208, -0.194, -0.959, 0.000], [0, 0, 0, 0], [ 9E9, 9E9, 9E9, 9E9, 9E9, 9E9] ], v1000, fine, pen\WObj:=platform;
    MoveL [ [-0.619, -3.510, -0.010], [0.208, -0.194, -0.959, 0.000], [0, 0, 0, 0], [ 9E9, 9E9, 9E9, 9E9, 9E9, 9E9] ], v30, fine, pen\WObj:=platform;
    MoveL [ [19.331, -7.540, 45.660], [0.208, -0.194, -0.959, 0.000], [0, 0, 0, 0], [ 9E9, 9E9, 9E9, 9E9, 9E9, 9E9] ], v1000, fine, pen\WObj:=platform;
    
    !!-0.5629165124598854, -3.6074999999999995;
    MoveL [ [18.500, 6.686, 45.053], [0.222, 0.463, -0.858, 0.000], [0, 0, 0, 0], [ 9E9, 9E9, 9E9, 9E9, 9E9, 9E9] ], v1000, fine, pen\WObj:=platform;
    MoveL [ [-0.563, -3.607, -0.010], [0.222, 0.463, -0.858, 0.000], [0, 0, 0, 0], [ 9E9, 9E9, 9E9, 9E9, 9E9, 9E9] ], v30, fine, pen\WObj:=platform;
    MoveL [ [18.500, 6.686, 45.053], [0.222, 0.463, -0.858, 0.000], [0, 0, 0, 0], [ 9E9, 9E9, 9E9, 9E9, 9E9, 9E9] ], v1000, fine, pen\WObj:=platform;
    
    !!-0.5066248612138966, -3.704999999999999;
    MoveL [ [17.601, 10.038, 44.524], [0.234, 0.588, -0.774, 0.000], [0, 0, 0, 0], [ 9E9, 9E9, 9E9, 9E9, 9E9, 9E9] ], v1000, fine, pen\WObj:=platform;
    MoveL [ [-0.507, -3.705, -0.010], [0.234, 0.588, -0.774, 0.000], [0, 0, 0, 0], [ 9E9, 9E9, 9E9, 9E9, 9E9, 9E9] ], v30, fine, pen\WObj:=platform;
    MoveL [ [17.601, 10.038, 44.524], [0.234, 0.588, -0.774, 0.000], [0, 0, 0, 0], [ 9E9, 9E9, 9E9, 9E9, 9E9, 9E9] ], v1000, fine, pen\WObj:=platform;
    
    !!-0.4503332099679085, -3.8024999999999998;
    MoveL [ [19.367, -5.832, 45.850], [0.203, -0.100, -0.974, 0.000], [0, 0, 0, 0], [ 9E9, 9E9, 9E9, 9E9, 9E9, 9E9] ], v1000, fine, pen\WObj:=platform;
    MoveL [ [-0.450, -3.802, -0.010], [0.203, -0.100, -0.974, 0.000], [0, 0, 0, 0], [ 9E9, 9E9, 9E9, 9E9, 9E9, 9E9] ], v30, fine, pen\WObj:=platform;
    MoveL [ [19.367, -5.832, 45.850], [0.203, -0.100, -0.974, 0.000], [0, 0, 0, 0], [ 9E9, 9E9, 9E9, 9E9, 9E9, 9E9] ], v1000, fine, pen\WObj:=platform;
    
    !!-0.3940415587219197, -3.9000000000000004;
    MoveL [ [18.976, -9.566, 45.736], [0.206, -0.275, -0.939, 0.000], [0, 0, 0, 0], [ 9E9, 9E9, 9E9, 9E9, 9E9, 9E9] ], v1000, fine, pen\WObj:=platform;
    MoveL [ [-0.394, -3.900, -0.010], [0.206, -0.275, -0.939, 0.000], [0, 0, 0, 0], [ 9E9, 9E9, 9E9, 9E9, 9E9, 9E9] ], v30, fine, pen\WObj:=platform;
    MoveL [ [18.976, -9.566, 45.736], [0.206, -0.275, -0.939, 0.000], [0, 0, 0, 0], [ 9E9, 9E9, 9E9, 9E9, 9E9, 9E9] ], v1000, fine, pen\WObj:=platform;
    
    !!-0.33774990747593125, -3.9975;
    MoveL [ [15.756, 14.719, 43.472], [0.255, 0.733, -0.630, 0.000], [0, 0, 0, 0], [ 9E9, 9E9, 9E9, 9E9, 9E9, 9E9] ], v1000, fine, pen\WObj:=platform;
    MoveL [ [-0.338, -3.998, -0.010], [0.255, 0.733, -0.630, 0.000], [0, 0, 0, 0], [ 9E9, 9E9, 9E9, 9E9, 9E9, 9E9] ], v30, fine, pen\WObj:=platform;
    MoveL [ [15.756, 14.719, 43.472], [0.255, 0.733, -0.630, 0.000], [0, 0, 0, 0], [ 9E9, 9E9, 9E9, 9E9, 9E9, 9E9] ], v1000, fine, pen\WObj:=platform;
    
    !!-0.28145825622994286, -4.095;
    MoveL [ [16.623, 12.392, 44.063], [0.243, 0.677, -0.694, 0.000], [0, 0, 0, 0], [ 9E9, 9E9, 9E9, 9E9, 9E9, 9E9] ], v1000, fine, pen\WObj:=platform;
    MoveL [ [-0.281, -4.095, -0.010], [0.243, 0.677, -0.694, 0.000], [0, 0, 0, 0], [ 9E9, 9E9, 9E9, 9E9, 9E9, 9E9] ], v30, fine, pen\WObj:=platform;
    MoveL [ [16.623, 12.392, 44.063], [0.243, 0.677, -0.694, 0.000], [0, 0, 0, 0], [ 9E9, 9E9, 9E9, 9E9, 9E9, 9E9] ], v1000, fine, pen\WObj:=platform;
    
    !!-1.238416327411747, -2.4375;
    MoveL [ [19.141, 6.103, 44.842], [0.227, 0.376, -0.898, 0.000], [0, 0, 0, 0], [ 9E9, 9E9, 9E9, 9E9, 9E9, 9E9] ], v1000, fine, pen\WObj:=platform;
    MoveL [ [-1.238, -2.438, -0.010], [0.227, 0.376, -0.898, 0.000], [0, 0, 0, 0], [ 9E9, 9E9, 9E9, 9E9, 9E9, 9E9] ], v30, fine, pen\WObj:=platform;
    MoveL [ [19.141, 6.103, 44.842], [0.227, 0.376, -0.898, 0.000], [0, 0, 0, 0], [ 9E9, 9E9, 9E9, 9E9, 9E9, 9E9] ], v1000, fine, pen\WObj:=platform;
    
    !!-0.22516660498395405, -4.1925;
    MoveL [ [19.075, -7.908, 45.965], [0.201, -0.185, -0.962, 0.000], [0, 0, 0, 0], [ 9E9, 9E9, 9E9, 9E9, 9E9, 9E9] ], v1000, fine, pen\WObj:=platform;
    MoveL [ [-0.225, -4.192, -0.010], [0.201, -0.185, -0.962, 0.000], [0, 0, 0, 0], [ 9E9, 9E9, 9E9, 9E9, 9E9, 9E9] ], v30, fine, pen\WObj:=platform;
    MoveL [ [19.075, -7.908, 45.965], [0.201, -0.185, -0.962, 0.000], [0, 0, 0, 0], [ 9E9, 9E9, 9E9, 9E9, 9E9, 9E9] ], v1000, fine, pen\WObj:=platform;
    
    !!-0.16887495373796563, -4.289999999999999;
    MoveL [ [18.553, -11.554, 45.780], [0.205, -0.354, -0.912, 0.000], [0, 0, 0, 0], [ 9E9, 9E9, 9E9, 9E9, 9E9, 9E9] ], v1000, fine, pen\WObj:=platform;
    MoveL [ [-0.169, -4.290, -0.010], [0.205, -0.354, -0.912, 0.000], [0, 0, 0, 0], [ 9E9, 9E9, 9E9, 9E9, 9E9, 9E9] ], v30, fine, pen\WObj:=platform;
    MoveL [ [18.553, -11.554, 45.780], [0.205, -0.354, -0.912, 0.000], [0, 0, 0, 0], [ 9E9, 9E9, 9E9, 9E9, 9E9, 9E9] ], v1000, fine, pen\WObj:=platform;
    
    !!-0.1125833024919772, -4.387499999999999;
    MoveL [ [17.278, 9.931, 44.628], [0.232, 0.618, -0.751, 0.000], [0, 0, 0, 0], [ 9E9, 9E9, 9E9, 9E9, 9E9, 9E9] ], v1000, fine, pen\WObj:=platform;
    MoveL [ [-0.113, -4.387, -0.010], [0.232, 0.618, -0.751, 0.000], [0, 0, 0, 0], [ 9E9, 9E9, 9E9, 9E9, 9E9, 9E9] ], v30, fine, pen\WObj:=platform;
    MoveL [ [17.278, 9.931, 44.628], [0.232, 0.618, -0.751, 0.000], [0, 0, 0, 0], [ 9E9, 9E9, 9E9, 9E9, 9E9, 9E9] ], v1000, fine, pen\WObj:=platform;
    
    !!-0.05629165124598878, -4.484999999999999;
    MoveL [ [18.281, 5.668, 45.385], [0.215, 0.473, -0.854, 0.000], [0, 0, 0, 0], [ 9E9, 9E9, 9E9, 9E9, 9E9, 9E9] ], v1000, fine, pen\WObj:=platform;
    MoveL [ [-0.056, -4.485, -0.010], [0.215, 0.473, -0.854, 0.000], [0, 0, 0, 0], [ 9E9, 9E9, 9E9, 9E9, 9E9, 9E9] ], v30, fine, pen\WObj:=platform;
    MoveL [ [18.281, 5.668, 45.385], [0.215, 0.473, -0.854, 0.000], [0, 0, 0, 0], [ 9E9, 9E9, 9E9, 9E9, 9E9, 9E9] ], v1000, fine, pen\WObj:=platform;
    
    !!-1.1821246761657587, -2.535;
    MoveL [ [18.841, 7.372, 44.722], [0.230, 0.432, -0.872, 0.000], [0, 0, 0, 0], [ 9E9, 9E9, 9E9, 9E9, 9E9, 9E9] ], v1000, fine, pen\WObj:=platform;
    MoveL [ [-1.182, -2.535, -0.010], [0.230, 0.432, -0.872, 0.000], [0, 0, 0, 0], [ 9E9, 9E9, 9E9, 9E9, 9E9, 9E9] ], v30, fine, pen\WObj:=platform;
    MoveL [ [18.841, 7.372, 44.722], [0.230, 0.432, -0.872, 0.000], [0, 0, 0, 0], [ 9E9, 9E9, 9E9, 9E9, 9E9, 9E9] ], v1000, fine, pen\WObj:=platform;
    
    !!-1.1258330249197708, -2.6325;
    MoveL [ [18.036, -15.284, 44.406], [0.236, -0.535, -0.811, 0.000], [0, 0, 0, 0], [ 9E9, 9E9, 9E9, 9E9, 9E9, 9E9] ], v1000, fine, pen\WObj:=platform;
    MoveL [ [-1.126, -2.632, -0.010], [0.236, -0.535, -0.811, 0.000], [0, 0, 0, 0], [ 9E9, 9E9, 9E9, 9E9, 9E9, 9E9] ], v30, fine, pen\WObj:=platform;
    MoveL [ [18.036, -15.284, 44.406], [0.236, -0.535, -0.811, 0.000], [0, 0, 0, 0], [ 9E9, 9E9, 9E9, 9E9, 9E9, 9E9] ], v1000, fine, pen\WObj:=platform;
    
    !!-1.0695413736737818, -2.7299999999999995;
    MoveL [ [17.453, -17.086, 44.158], [0.241, -0.594, -0.767, 0.000], [0, 0, 0, 0], [ 9E9, 9E9, 9E9, 9E9, 9E9, 9E9] ], v1000, fine, pen\WObj:=platform;
    MoveL [ [-1.070, -2.730, -0.010], [0.241, -0.594, -0.767, 0.000], [0, 0, 0, 0], [ 9E9, 9E9, 9E9, 9E9, 9E9, 9E9] ], v30, fine, pen\WObj:=platform;
    MoveL [ [17.453, -17.086, 44.158], [0.241, -0.594, -0.767, 0.000], [0, 0, 0, 0], [ 9E9, 9E9, 9E9, 9E9, 9E9, 9E9] ], v1000, fine, pen\WObj:=platform;
    
    !!-1.0132497224277934, -2.8274999999999997;
    MoveL [ [19.757, -0.712, 45.423], [0.214, 0.099, -0.972, 0.000], [0, 0, 0, 0], [ 9E9, 9E9, 9E9, 9E9, 9E9, 9E9] ], v1000, fine, pen\WObj:=platform;
    MoveL [ [-1.013, -2.827, -0.010], [0.214, 0.099, -0.972, 0.000], [0, 0, 0, 0], [ 9E9, 9E9, 9E9, 9E9, 9E9, 9E9] ], v30, fine, pen\WObj:=platform;
    MoveL [ [19.757, -0.712, 45.423], [0.214, 0.099, -0.972, 0.000], [0, 0, 0, 0], [ 9E9, 9E9, 9E9, 9E9, 9E9, 9E9] ], v1000, fine, pen\WObj:=platform;
    
    !!-0.956958071181805, -2.925;
    MoveL [ [17.398, 11.913, 44.069], [0.243, 0.610, -0.754, 0.000], [0, 0, 0, 0], [ 9E9, 9E9, 9E9, 9E9, 9E9, 9E9] ], v1000, fine, pen\WObj:=platform;
    MoveL [ [-0.957, -2.925, -0.010], [0.243, 0.610, -0.754, 0.000], [0, 0, 0, 0], [ 9E9, 9E9, 9E9, 9E9, 9E9, 9E9] ], v30, fine, pen\WObj:=platform;
    MoveL [ [17.398, 11.913, 44.069], [0.243, 0.610, -0.754, 0.000], [0, 0, 0, 0], [ 9E9, 9E9, 9E9, 9E9, 9E9, 9E9] ], v1000, fine, pen\WObj:=platform;
    
    !!-0.9006664199358162, -3.0224999999999995;
    MoveL [ [19.717, -1.717, 45.522], [0.211, 0.062, -0.975, 0.000], [0, 0, 0, 0], [ 9E9, 9E9, 9E9, 9E9, 9E9, 9E9] ], v1000, fine, pen\WObj:=platform;
    MoveL [ [-0.901, -3.022, -0.010], [0.211, 0.062, -0.975, 0.000], [0, 0, 0, 0], [ 9E9, 9E9, 9E9, 9E9, 9E9, 9E9] ], v30, fine, pen\WObj:=platform;
    MoveL [ [19.717, -1.717, 45.522], [0.211, 0.062, -0.975, 0.000], [0, 0, 0, 0], [ 9E9, 9E9, 9E9, 9E9, 9E9, 9E9] ], v1000, fine, pen\WObj:=platform;
    
    !!-0.8443747686898279, -3.12;
    MoveL [ [19.693, -2.881, 45.577], [0.210, 0.011, -0.978, 0.000], [0, 0, 0, 0], [ 9E9, 9E9, 9E9, 9E9, 9E9, 9E9] ], v1000, fine, pen\WObj:=platform;
    MoveL [ [-0.844, -3.120, -0.010], [0.210, 0.011, -0.978, 0.000], [0, 0, 0, 0], [ 9E9, 9E9, 9E9, 9E9, 9E9, 9E9] ], v30, fine, pen\WObj:=platform;
    MoveL [ [19.693, -2.881, 45.577], [0.210, 0.011, -0.978, 0.000], [0, 0, 0, 0], [ 9E9, 9E9, 9E9, 9E9, 9E9, 9E9] ], v1000, fine, pen\WObj:=platform;
    
    !!-1.5198745836416896, -2.1449999999999996;
    MoveL [ [19.121, -11.490, 44.562], [0.233, -0.401, -0.886, 0.000], [0, 0, 0, 0], [ 9E9, 9E9, 9E9, 9E9, 9E9, 9E9] ], v1000, fine, pen\WObj:=platform;
    MoveL [ [-1.520, -2.145, -0.010], [0.233, -0.401, -0.886, 0.000], [0, 0, 0, 0], [ 9E9, 9E9, 9E9, 9E9, 9E9, 9E9] ], v30, fine, pen\WObj:=platform;
    MoveL [ [19.121, -11.490, 44.562], [0.233, -0.401, -0.886, 0.000], [0, 0, 0, 0], [ 9E9, 9E9, 9E9, 9E9, 9E9, 9E9] ], v1000, fine, pen\WObj:=platform;
    
    !!-2.0264994448555864, -1.2674999999999996;
    MoveL [ [20.261, -4.248, 44.648], [0.231, -0.129, -0.964, 0.000], [0, 0, 0, 0], [ 9E9, 9E9, 9E9, 9E9, 9E9, 9E9] ], v1000, fine, pen\WObj:=platform;
    MoveL [ [-2.026, -1.267, -0.010], [0.231, -0.129, -0.964, 0.000], [0, 0, 0, 0], [ 9E9, 9E9, 9E9, 9E9, 9E9, 9E9] ], v30, fine, pen\WObj:=platform;
    MoveL [ [20.261, -4.248, 44.648], [0.231, -0.129, -0.964, 0.000], [0, 0, 0, 0], [ 9E9, 9E9, 9E9, 9E9, 9E9, 9E9] ], v1000, fine, pen\WObj:=platform;
    
    !!-1.5761662348876784, -2.0474999999999994;
    MoveL [ [19.713, -8.133, 44.820], [0.227, -0.268, -0.936, 0.000], [0, 0, 0, 0], [ 9E9, 9E9, 9E9, 9E9, 9E9, 9E9] ], v1000, fine, pen\WObj:=platform;
    MoveL [ [-1.576, -2.047, -0.010], [0.227, -0.268, -0.936, 0.000], [0, 0, 0, 0], [ 9E9, 9E9, 9E9, 9E9, 9E9, 9E9] ], v30, fine, pen\WObj:=platform;
    MoveL [ [19.713, -8.133, 44.820], [0.227, -0.268, -0.936, 0.000], [0, 0, 0, 0], [ 9E9, 9E9, 9E9, 9E9, 9E9, 9E9] ], v1000, fine, pen\WObj:=platform;
    
    !!-1.632457886133667, -1.9499999999999997;
    MoveL [ [19.101, 7.588, 44.478], [0.235, 0.406, -0.883, 0.000], [0, 0, 0, 0], [ 9E9, 9E9, 9E9, 9E9, 9E9, 9E9] ], v1000, fine, pen\WObj:=platform;
    MoveL [ [-1.632, -1.950, -0.010], [0.235, 0.406, -0.883, 0.000], [0, 0, 0, 0], [ 9E9, 9E9, 9E9, 9E9, 9E9, 9E9] ], v30, fine, pen\WObj:=platform;
    MoveL [ [19.101, 7.588, 44.478], [0.235, 0.406, -0.883, 0.000], [0, 0, 0, 0], [ 9E9, 9E9, 9E9, 9E9, 9E9, 9E9] ], v1000, fine, pen\WObj:=platform;
    
    !!-1.688749537379655, -1.8524999999999996;
    MoveL [ [19.766, 4.025, 44.769], [0.228, 0.257, -0.939, 0.000], [0, 0, 0, 0], [ 9E9, 9E9, 9E9, 9E9, 9E9, 9E9] ], v1000, fine, pen\WObj:=platform;
    MoveL [ [-1.689, -1.852, -0.010], [0.228, 0.257, -0.939, 0.000], [0, 0, 0, 0], [ 9E9, 9E9, 9E9, 9E9, 9E9, 9E9] ], v30, fine, pen\WObj:=platform;
    MoveL [ [19.766, 4.025, 44.769], [0.228, 0.257, -0.939, 0.000], [0, 0, 0, 0], [ 9E9, 9E9, 9E9, 9E9, 9E9, 9E9] ], v1000, fine, pen\WObj:=platform;
    
    !!-1.7450411886256436, -1.7549999999999997;
    MoveL [ [19.541, -9.643, 44.540], [0.233, -0.338, -0.912, 0.000], [0, 0, 0, 0], [ 9E9, 9E9, 9E9, 9E9, 9E9, 9E9] ], v1000, fine, pen\WObj:=platform;
    MoveL [ [-1.745, -1.755, -0.010], [0.233, -0.338, -0.912, 0.000], [0, 0, 0, 0], [ 9E9, 9E9, 9E9, 9E9, 9E9, 9E9] ], v30, fine, pen\WObj:=platform;
    MoveL [ [19.541, -9.643, 44.540], [0.233, -0.338, -0.912, 0.000], [0, 0, 0, 0], [ 9E9, 9E9, 9E9, 9E9, 9E9, 9E9] ], v1000, fine, pen\WObj:=platform;
    
    !!-1.8013328398716324, -1.6574999999999995;
    MoveL [ [18.287, -14.968, 43.800], [0.249, -0.535, -0.807, 0.000], [0, 0, 0, 0], [ 9E9, 9E9, 9E9, 9E9, 9E9, 9E9] ], v1000, fine, pen\WObj:=platform;
    MoveL [ [-1.801, -1.657, -0.010], [0.249, -0.535, -0.807, 0.000], [0, 0, 0, 0], [ 9E9, 9E9, 9E9, 9E9, 9E9, 9E9] ], v30, fine, pen\WObj:=platform;
    MoveL [ [18.287, -14.968, 43.800], [0.249, -0.535, -0.807, 0.000], [0, 0, 0, 0], [ 9E9, 9E9, 9E9, 9E9, 9E9, 9E9] ], v1000, fine, pen\WObj:=platform;
    
    !!-1.8576244911176203, -1.5599999999999996;
    MoveL [ [20.219, -0.089, 44.828], [0.227, 0.065, -0.972, 0.000], [0, 0, 0, 0], [ 9E9, 9E9, 9E9, 9E9, 9E9, 9E9] ], v1000, fine, pen\WObj:=platform;
    MoveL [ [-1.858, -1.560, -0.010], [0.227, 0.065, -0.972, 0.000], [0, 0, 0, 0], [ 9E9, 9E9, 9E9, 9E9, 9E9, 9E9] ], v30, fine, pen\WObj:=platform;
    MoveL [ [20.219, -0.089, 44.828], [0.227, 0.065, -0.972, 0.000], [0, 0, 0, 0], [ 9E9, 9E9, 9E9, 9E9, 9E9, 9E9] ], v1000, fine, pen\WObj:=platform;
    
    !!-1.9139161423636093, -1.4625;
    MoveL [ [20.280, -1.483, 44.795], [0.228, -0.001, -0.974, 0.000], [0, 0, 0, 0], [ 9E9, 9E9, 9E9, 9E9, 9E9, 9E9] ], v1000, fine, pen\WObj:=platform;
    MoveL [ [-1.914, -1.462, -0.010], [0.228, -0.001, -0.974, 0.000], [0, 0, 0, 0], [ 9E9, 9E9, 9E9, 9E9, 9E9, 9E9] ], v30, fine, pen\WObj:=platform;
    MoveL [ [20.280, -1.483, 44.795], [0.228, -0.001, -0.974, 0.000], [0, 0, 0, 0], [ 9E9, 9E9, 9E9, 9E9, 9E9, 9E9] ], v1000, fine, pen\WObj:=platform;
    
    !!-1.9702077936095979, -1.3649999999999995;
    MoveL [ [20.163, -5.348, 44.647], [0.231, -0.172, -0.958, 0.000], [0, 0, 0, 0], [ 9E9, 9E9, 9E9, 9E9, 9E9, 9E9] ], v1000, fine, pen\WObj:=platform;
    MoveL [ [-1.970, -1.365, -0.010], [0.231, -0.172, -0.958, 0.000], [0, 0, 0, 0], [ 9E9, 9E9, 9E9, 9E9, 9E9, 9E9] ], v30, fine, pen\WObj:=platform;
    MoveL [ [20.163, -5.348, 44.647], [0.231, -0.172, -0.958, 0.000], [0, 0, 0, 0], [ 9E9, 9E9, 9E9, 9E9, 9E9, 9E9] ], v1000, fine, pen\WObj:=platform;
    
    !!-1.4635829323957013, -2.2424999999999997;
    MoveL [ [17.470, 12.819, 43.747], [0.250, 0.603, -0.758, 0.000], [0, 0, 0, 0], [ 9E9, 9E9, 9E9, 9E9, 9E9, 9E9] ], v1000, fine, pen\WObj:=platform;
    MoveL [ [-1.464, -2.242, -0.010], [0.250, 0.603, -0.758, 0.000], [0, 0, 0, 0], [ 9E9, 9E9, 9E9, 9E9, 9E9, 9E9] ], v30, fine, pen\WObj:=platform;
    MoveL [ [17.470, 12.819, 43.747], [0.250, 0.603, -0.758, 0.000], [0, 0, 0, 0], [ 9E9, 9E9, 9E9, 9E9, 9E9, 9E9] ], v1000, fine, pen\WObj:=platform;
    
    !!-1.4072912811497127, -2.34;
    MoveL [ [18.275, 10.185, 44.214], [0.240, 0.521, -0.819, 0.000], [0, 0, 0, 0], [ 9E9, 9E9, 9E9, 9E9, 9E9, 9E9] ], v1000, fine, pen\WObj:=platform;
    MoveL [ [-1.407, -2.340, -0.010], [0.240, 0.521, -0.819, 0.000], [0, 0, 0, 0], [ 9E9, 9E9, 9E9, 9E9, 9E9, 9E9] ], v30, fine, pen\WObj:=platform;
    MoveL [ [18.275, 10.185, 44.214], [0.240, 0.521, -0.819, 0.000], [0, 0, 0, 0], [ 9E9, 9E9, 9E9, 9E9, 9E9, 9E9] ], v1000, fine, pen\WObj:=platform;
    
    !!-0.9006664199358159, -3.2175;
    MoveL [ [19.728, -2.733, 45.534], [0.211, 0.023, -0.977, 0.000], [0, 0, 0, 0], [ 9E9, 9E9, 9E9, 9E9, 9E9, 9E9] ], v1000, fine, pen\WObj:=platform;
    MoveL [ [-0.901, -3.217, -0.010], [0.211, 0.023, -0.977, 0.000], [0, 0, 0, 0], [ 9E9, 9E9, 9E9, 9E9, 9E9, 9E9] ], v30, fine, pen\WObj:=platform;
    MoveL [ [19.728, -2.733, 45.534], [0.211, 0.023, -0.977, 0.000], [0, 0, 0, 0], [ 9E9, 9E9, 9E9, 9E9, 9E9, 9E9] ], v1000, fine, pen\WObj:=platform;
    
    !!-0.8443747686898279, -3.3150000000000004;
    MoveL [ [17.878, -15.702, 44.667], [0.231, -0.537, -0.811, 0.000], [0, 0, 0, 0], [ 9E9, 9E9, 9E9, 9E9, 9E9, 9E9] ], v1000, fine, pen\WObj:=platform;
    MoveL [ [-0.844, -3.315, -0.010], [0.231, -0.537, -0.811, 0.000], [0, 0, 0, 0], [ 9E9, 9E9, 9E9, 9E9, 9E9, 9E9] ], v30, fine, pen\WObj:=platform;
    MoveL [ [17.878, -15.702, 44.667], [0.231, -0.537, -0.811, 0.000], [0, 0, 0, 0], [ 9E9, 9E9, 9E9, 9E9, 9E9, 9E9] ], v1000, fine, pen\WObj:=platform;
    
    !!-0.7880831174438391, -3.4125;
    MoveL [ [19.315, 2.744, 45.355], [0.215, 0.286, -0.934, 0.000], [0, 0, 0, 0], [ 9E9, 9E9, 9E9, 9E9, 9E9, 9E9] ], v1000, fine, pen\WObj:=platform;
    MoveL [ [-0.788, -3.413, -0.010], [0.215, 0.286, -0.934, 0.000], [0, 0, 0, 0], [ 9E9, 9E9, 9E9, 9E9, 9E9, 9E9] ], v30, fine, pen\WObj:=platform;
    MoveL [ [19.315, 2.744, 45.355], [0.215, 0.286, -0.934, 0.000], [0, 0, 0, 0], [ 9E9, 9E9, 9E9, 9E9, 9E9, 9E9] ], v1000, fine, pen\WObj:=platform;
    
    !!-0.7317914661978503, -3.51;
    MoveL [ [18.879, 5.337, 45.125], [0.221, 0.401, -0.889, 0.000], [0, 0, 0, 0], [ 9E9, 9E9, 9E9, 9E9, 9E9, 9E9] ], v1000, fine, pen\WObj:=platform;
    MoveL [ [-0.732, -3.510, -0.010], [0.221, 0.401, -0.889, 0.000], [0, 0, 0, 0], [ 9E9, 9E9, 9E9, 9E9, 9E9, 9E9] ], v30, fine, pen\WObj:=platform;
    MoveL [ [18.879, 5.337, 45.125], [0.221, 0.401, -0.889, 0.000], [0, 0, 0, 0], [ 9E9, 9E9, 9E9, 9E9, 9E9, 9E9] ], v1000, fine, pen\WObj:=platform;
    
    !!-0.6754998149518622, -3.6074999999999995;
    MoveL [ [19.387, -7.385, 45.632], [0.209, -0.181, -0.961, 0.000], [0, 0, 0, 0], [ 9E9, 9E9, 9E9, 9E9, 9E9, 9E9] ], v1000, fine, pen\WObj:=platform;
    MoveL [ [-0.675, -3.607, -0.010], [0.209, -0.181, -0.961, 0.000], [0, 0, 0, 0], [ 9E9, 9E9, 9E9, 9E9, 9E9, 9E9] ], v30, fine, pen\WObj:=platform;
    MoveL [ [19.387, -7.385, 45.632], [0.209, -0.181, -0.961, 0.000], [0, 0, 0, 0], [ 9E9, 9E9, 9E9, 9E9, 9E9, 9E9] ], v1000, fine, pen\WObj:=platform;
    
    !!-0.6192081637058734, -3.704999999999999;
    MoveL [ [19.553, -3.315, 45.739], [0.206, 0.019, -0.978, 0.000], [0, 0, 0, 0], [ 9E9, 9E9, 9E9, 9E9, 9E9, 9E9] ], v1000, fine, pen\WObj:=platform;
    MoveL [ [-0.619, -3.705, -0.010], [0.206, 0.019, -0.978, 0.000], [0, 0, 0, 0], [ 9E9, 9E9, 9E9, 9E9, 9E9, 9E9] ], v30, fine, pen\WObj:=platform;
    MoveL [ [19.553, -3.315, 45.739], [0.206, 0.019, -0.978, 0.000], [0, 0, 0, 0], [ 9E9, 9E9, 9E9, 9E9, 9E9, 9E9] ], v1000, fine, pen\WObj:=platform;
    
    !!-0.5629165124598849, -3.8024999999999998;
    MoveL [ [17.596, 10.113, 44.449], [0.235, 0.591, -0.771, 0.000], [0, 0, 0, 0], [ 9E9, 9E9, 9E9, 9E9, 9E9, 9E9] ], v1000, fine, pen\WObj:=platform;
    MoveL [ [-0.563, -3.802, -0.010], [0.235, 0.591, -0.771, 0.000], [0, 0, 0, 0], [ 9E9, 9E9, 9E9, 9E9, 9E9, 9E9] ], v30, fine, pen\WObj:=platform;
    MoveL [ [17.596, 10.113, 44.449], [0.235, 0.591, -0.771, 0.000], [0, 0, 0, 0], [ 9E9, 9E9, 9E9, 9E9, 9E9, 9E9] ], v1000, fine, pen\WObj:=platform;
    
    !!-0.5066248612138966, -3.9000000000000004;
    MoveL [ [17.204, 11.199, 44.243], [0.240, 0.630, -0.739, 0.000], [0, 0, 0, 0], [ 9E9, 9E9, 9E9, 9E9, 9E9, 9E9] ], v1000, fine, pen\WObj:=platform;
    MoveL [ [-0.507, -3.900, -0.010], [0.240, 0.630, -0.739, 0.000], [0, 0, 0, 0], [ 9E9, 9E9, 9E9, 9E9, 9E9, 9E9] ], v30, fine, pen\WObj:=platform;
    MoveL [ [17.204, 11.199, 44.243], [0.240, 0.630, -0.739, 0.000], [0, 0, 0, 0], [ 9E9, 9E9, 9E9, 9E9, 9E9, 9E9] ], v1000, fine, pen\WObj:=platform;
    
    !!-0.4503332099679081, -3.9975;
    MoveL [ [19.042, -9.411, 45.715], [0.207, -0.262, -0.943, 0.000], [0, 0, 0, 0], [ 9E9, 9E9, 9E9, 9E9, 9E9, 9E9] ], v1000, fine, pen\WObj:=platform;
    MoveL [ [-0.450, -3.998, -0.010], [0.207, -0.262, -0.943, 0.000], [0, 0, 0, 0], [ 9E9, 9E9, 9E9, 9E9, 9E9, 9E9] ], v30, fine, pen\WObj:=platform;
    MoveL [ [19.042, -9.411, 45.715], [0.207, -0.262, -0.943, 0.000], [0, 0, 0, 0], [ 9E9, 9E9, 9E9, 9E9, 9E9, 9E9] ], v1000, fine, pen\WObj:=platform;
    
    !!-0.3940415587219193, -4.095;
    MoveL [ [18.854, -10.528, 45.686], [0.207, -0.310, -0.928, 0.000], [0, 0, 0, 0], [ 9E9, 9E9, 9E9, 9E9, 9E9, 9E9] ], v1000, fine, pen\WObj:=platform;
    MoveL [ [-0.394, -4.095, -0.010], [0.207, -0.310, -0.928, 0.000], [0, 0, 0, 0], [ 9E9, 9E9, 9E9, 9E9, 9E9, 9E9] ], v30, fine, pen\WObj:=platform;
    MoveL [ [18.854, -10.528, 45.686], [0.207, -0.310, -0.928, 0.000], [0, 0, 0, 0], [ 9E9, 9E9, 9E9, 9E9, 9E9, 9E9] ], v1000, fine, pen\WObj:=platform;
    
    !!-1.350999629903724, -2.4375;
    MoveL [ [19.339, -10.048, 44.868], [0.226, -0.336, -0.914, 0.000], [0, 0, 0, 0], [ 9E9, 9E9, 9E9, 9E9, 9E9, 9E9] ], v1000, fine, pen\WObj:=platform;
    MoveL [ [-1.351, -2.438, -0.010], [0.226, -0.336, -0.914, 0.000], [0, 0, 0, 0], [ 9E9, 9E9, 9E9, 9E9, 9E9, 9E9] ], v30, fine, pen\WObj:=platform;
    MoveL [ [19.339, -10.048, 44.868], [0.226, -0.336, -0.914, 0.000], [0, 0, 0, 0], [ 9E9, 9E9, 9E9, 9E9, 9E9, 9E9] ], v1000, fine, pen\WObj:=platform;
    
    !!-0.33774990747593125, -4.1925;
    MoveL [ [16.616, 12.446, 43.987], [0.245, 0.679, -0.692, 0.000], [0, 0, 0, 0], [ 9E9, 9E9, 9E9, 9E9, 9E9, 9E9] ], v1000, fine, pen\WObj:=platform;
    MoveL [ [-0.338, -4.192, -0.010], [0.245, 0.679, -0.692, 0.000], [0, 0, 0, 0], [ 9E9, 9E9, 9E9, 9E9, 9E9, 9E9] ], v30, fine, pen\WObj:=platform;
    MoveL [ [16.616, 12.446, 43.987], [0.245, 0.679, -0.692, 0.000], [0, 0, 0, 0], [ 9E9, 9E9, 9E9, 9E9, 9E9, 9E9] ], v1000, fine, pen\WObj:=platform;
    
    !!-0.28145825622994247, -4.289999999999999;
    MoveL [ [17.744, 8.718, 44.777], [0.228, 0.570, -0.789, 0.000], [0, 0, 0, 0], [ 9E9, 9E9, 9E9, 9E9, 9E9, 9E9] ], v1000, fine, pen\WObj:=platform;
    MoveL [ [-0.281, -4.290, -0.010], [0.228, 0.570, -0.789, 0.000], [0, 0, 0, 0], [ 9E9, 9E9, 9E9, 9E9, 9E9, 9E9] ], v30, fine, pen\WObj:=platform;
    MoveL [ [17.744, 8.718, 44.777], [0.228, 0.570, -0.789, 0.000], [0, 0, 0, 0], [ 9E9, 9E9, 9E9, 9E9, 9E9, 9E9] ], v1000, fine, pen\WObj:=platform;
    
    !!-0.22516660498395372, -4.387499999999999;
    MoveL [ [18.628, -11.401, 45.765], [0.206, -0.341, -0.917, 0.000], [0, 0, 0, 0], [ 9E9, 9E9, 9E9, 9E9, 9E9, 9E9] ], v1000, fine, pen\WObj:=platform;
    MoveL [ [-0.225, -4.387, -0.010], [0.206, -0.341, -0.917, 0.000], [0, 0, 0, 0], [ 9E9, 9E9, 9E9, 9E9, 9E9, 9E9] ], v30, fine, pen\WObj:=platform;
    MoveL [ [18.628, -11.401, 45.765], [0.206, -0.341, -0.917, 0.000], [0, 0, 0, 0], [ 9E9, 9E9, 9E9, 9E9, 9E9, 9E9] ], v1000, fine, pen\WObj:=platform;
    
    !!-0.16887495373796563, -4.484999999999999;
    MoveL [ [18.168, -13.634, 45.598], [0.210, -0.437, -0.875, 0.000], [0, 0, 0, 0], [ 9E9, 9E9, 9E9, 9E9, 9E9, 9E9] ], v1000, fine, pen\WObj:=platform;
    MoveL [ [-0.169, -4.485, -0.010], [0.210, -0.437, -0.875, 0.000], [0, 0, 0, 0], [ 9E9, 9E9, 9E9, 9E9, 9E9, 9E9] ], v30, fine, pen\WObj:=platform;
    MoveL [ [18.168, -13.634, 45.598], [0.210, -0.437, -0.875, 0.000], [0, 0, 0, 0], [ 9E9, 9E9, 9E9, 9E9, 9E9, 9E9] ], v1000, fine, pen\WObj:=platform;
    
    !!-1.2947079786577356, -2.535;
    MoveL [ [18.649, -13.283, 44.563], [0.233, -0.461, -0.856, 0.000], [0, 0, 0, 0], [ 9E9, 9E9, 9E9, 9E9, 9E9, 9E9] ], v1000, fine, pen\WObj:=platform;
    MoveL [ [-1.295, -2.535, -0.010], [0.233, -0.461, -0.856, 0.000], [0, 0, 0, 0], [ 9E9, 9E9, 9E9, 9E9, 9E9, 9E9] ], v30, fine, pen\WObj:=platform;
    MoveL [ [18.649, -13.283, 44.563], [0.233, -0.461, -0.856, 0.000], [0, 0, 0, 0], [ 9E9, 9E9, 9E9, 9E9, 9E9, 9E9] ], v1000, fine, pen\WObj:=platform;
    
    !!-1.238416327411747, -2.6325;
    MoveL [ [18.838, 7.467, 44.655], [0.231, 0.437, -0.869, 0.000], [0, 0, 0, 0], [ 9E9, 9E9, 9E9, 9E9, 9E9, 9E9] ], v1000, fine, pen\WObj:=platform;
    MoveL [ [-1.238, -2.632, -0.010], [0.231, 0.437, -0.869, 0.000], [0, 0, 0, 0], [ 9E9, 9E9, 9E9, 9E9, 9E9, 9E9] ], v30, fine, pen\WObj:=platform;
    MoveL [ [18.838, 7.467, 44.655], [0.231, 0.437, -0.869, 0.000], [0, 0, 0, 0], [ 9E9, 9E9, 9E9, 9E9, 9E9, 9E9] ], v1000, fine, pen\WObj:=platform;
    
    !!-1.1821246761657587, -2.7299999999999995;
    MoveL [ [19.570, 2.931, 45.127], [0.221, 0.257, -0.941, 0.000], [0, 0, 0, 0], [ 9E9, 9E9, 9E9, 9E9, 9E9, 9E9] ], v1000, fine, pen\WObj:=platform;
    MoveL [ [-1.182, -2.730, -0.010], [0.221, 0.257, -0.941, 0.000], [0, 0, 0, 0], [ 9E9, 9E9, 9E9, 9E9, 9E9, 9E9] ], v30, fine, pen\WObj:=platform;
    MoveL [ [19.570, 2.931, 45.127], [0.221, 0.257, -0.941, 0.000], [0, 0, 0, 0], [ 9E9, 9E9, 9E9, 9E9, 9E9, 9E9] ], v1000, fine, pen\WObj:=platform;
    
    !!-1.1258330249197703, -2.8274999999999997;
    MoveL [ [17.541, -16.970, 44.166], [0.241, -0.586, -0.774, 0.000], [0, 0, 0, 0], [ 9E9, 9E9, 9E9, 9E9, 9E9, 9E9] ], v1000, fine, pen\WObj:=platform;
    MoveL [ [-1.126, -2.827, -0.010], [0.241, -0.586, -0.774, 0.000], [0, 0, 0, 0], [ 9E9, 9E9, 9E9, 9E9, 9E9, 9E9] ], v30, fine, pen\WObj:=platform;
    MoveL [ [17.541, -16.970, 44.166], [0.241, -0.586, -0.774, 0.000], [0, 0, 0, 0], [ 9E9, 9E9, 9E9, 9E9, 9E9, 9E9] ], v1000, fine, pen\WObj:=platform;
    
    !!-1.0695413736737815, -2.925;
    MoveL [ [19.724, -5.755, 45.373], [0.215, -0.132, -0.968, 0.000], [0, 0, 0, 0], [ 9E9, 9E9, 9E9, 9E9, 9E9, 9E9] ], v1000, fine, pen\WObj:=platform;
    MoveL [ [-1.070, -2.925, -0.010], [0.215, -0.132, -0.968, 0.000], [0, 0, 0, 0], [ 9E9, 9E9, 9E9, 9E9, 9E9, 9E9] ], v30, fine, pen\WObj:=platform;
    MoveL [ [19.724, -5.755, 45.373], [0.215, -0.132, -0.968, 0.000], [0, 0, 0, 0], [ 9E9, 9E9, 9E9, 9E9, 9E9, 9E9] ], v1000, fine, pen\WObj:=platform;
    
    !!-1.0132497224277934, -3.0224999999999995;
    MoveL [ [17.388, 11.972, 43.996], [0.245, 0.612, -0.752, 0.000], [0, 0, 0, 0], [ 9E9, 9E9, 9E9, 9E9, 9E9, 9E9] ], v1000, fine, pen\WObj:=platform;
    MoveL [ [-1.013, -3.022, -0.010], [0.245, 0.612, -0.752, 0.000], [0, 0, 0, 0], [ 9E9, 9E9, 9E9, 9E9, 9E9, 9E9] ], v30, fine, pen\WObj:=platform;
    MoveL [ [17.388, 11.972, 43.996], [0.245, 0.612, -0.752, 0.000], [0, 0, 0, 0], [ 9E9, 9E9, 9E9, 9E9, 9E9, 9E9] ], v1000, fine, pen\WObj:=platform;
    
    !!-0.9569580711818046, -3.12;
    MoveL [ [16.989, 12.955, 43.803], [0.249, 0.646, -0.721, 0.000], [0, 0, 0, 0], [ 9E9, 9E9, 9E9, 9E9, 9E9, 9E9] ], v1000, fine, pen\WObj:=platform;
    MoveL [ [-0.957, -3.120, -0.010], [0.249, 0.646, -0.721, 0.000], [0, 0, 0, 0], [ 9E9, 9E9, 9E9, 9E9, 9E9, 9E9] ], v30, fine, pen\WObj:=platform;
    MoveL [ [16.989, 12.955, 43.803], [0.249, 0.646, -0.721, 0.000], [0, 0, 0, 0], [ 9E9, 9E9, 9E9, 9E9, 9E9, 9E9] ], v1000, fine, pen\WObj:=platform;
    
    !!-1.632457886133667, -2.1449999999999996;
    MoveL [ [18.772, 8.869, 44.289], [0.239, 0.461, -0.855, 0.000], [0, 0, 0, 0], [ 9E9, 9E9, 9E9, 9E9, 9E9, 9E9] ], v1000, fine, pen\WObj:=platform;
    MoveL [ [-1.632, -2.145, -0.010], [0.239, 0.461, -0.855, 0.000], [0, 0, 0, 0], [ 9E9, 9E9, 9E9, 9E9, 9E9, 9E9] ], v30, fine, pen\WObj:=platform;
    MoveL [ [18.772, 8.869, 44.289], [0.239, 0.461, -0.855, 0.000], [0, 0, 0, 0], [ 9E9, 9E9, 9E9, 9E9, 9E9, 9E9] ], v1000, fine, pen\WObj:=platform;
    
    !!-1.6887495373796557, -2.0474999999999994;
    MoveL [ [19.095, 7.681, 44.413], [0.236, 0.412, -0.880, 0.000], [0, 0, 0, 0], [ 9E9, 9E9, 9E9, 9E9, 9E9, 9E9] ], v1000, fine, pen\WObj:=platform;
    MoveL [ [-1.689, -2.047, -0.010], [0.236, 0.412, -0.880, 0.000], [0, 0, 0, 0], [ 9E9, 9E9, 9E9, 9E9, 9E9, 9E9] ], v30, fine, pen\WObj:=platform;
    MoveL [ [19.095, 7.681, 44.413], [0.236, 0.412, -0.880, 0.000], [0, 0, 0, 0], [ 9E9, 9E9, 9E9, 9E9, 9E9, 9E9] ], v1000, fine, pen\WObj:=platform;
    
    !!-1.7450411886256436, -1.9499999999999997;
    MoveL [ [20.044, -5.794, 44.828], [0.227, -0.169, -0.959, 0.000], [0, 0, 0, 0], [ 9E9, 9E9, 9E9, 9E9, 9E9, 9E9] ], v1000, fine, pen\WObj:=platform;
    MoveL [ [-1.745, -1.950, -0.010], [0.227, -0.169, -0.959, 0.000], [0, 0, 0, 0], [ 9E9, 9E9, 9E9, 9E9, 9E9, 9E9] ], v30, fine, pen\WObj:=platform;
    MoveL [ [20.044, -5.794, 44.828], [0.227, -0.169, -0.959, 0.000], [0, 0, 0, 0], [ 9E9, 9E9, 9E9, 9E9, 9E9, 9E9] ], v1000, fine, pen\WObj:=platform;
    
    !!-1.8013328398716324, -1.8524999999999996;
    MoveL [ [19.602, -9.500, 44.525], [0.234, -0.327, -0.916, 0.000], [0, 0, 0, 0], [ 9E9, 9E9, 9E9, 9E9, 9E9, 9E9] ], v1000, fine, pen\WObj:=platform;
    MoveL [ [-1.801, -1.852, -0.010], [0.234, -0.327, -0.916, 0.000], [0, 0, 0, 0], [ 9E9, 9E9, 9E9, 9E9, 9E9, 9E9] ], v30, fine, pen\WObj:=platform;
    MoveL [ [19.602, -9.500, 44.525], [0.234, -0.327, -0.916, 0.000], [0, 0, 0, 0], [ 9E9, 9E9, 9E9, 9E9, 9E9, 9E9] ], v1000, fine, pen\WObj:=platform;
    
    !!-1.8576244911176212, -1.7549999999999997;
    MoveL [ [20.018, 2.650, 44.734], [0.229, 0.192, -0.954, 0.000], [0, 0, 0, 0], [ 9E9, 9E9, 9E9, 9E9, 9E9, 9E9] ], v1000, fine, pen\WObj:=platform;
    MoveL [ [-1.858, -1.755, -0.010], [0.229, 0.192, -0.954, 0.000], [0, 0, 0, 0], [ 9E9, 9E9, 9E9, 9E9, 9E9, 9E9] ], v30, fine, pen\WObj:=platform;
    MoveL [ [20.018, 2.650, 44.734], [0.229, 0.192, -0.954, 0.000], [0, 0, 0, 0], [ 9E9, 9E9, 9E9, 9E9, 9E9, 9E9] ], v1000, fine, pen\WObj:=platform;
    
    !!-1.9139161423636093, -1.6574999999999995;
    MoveL [ [20.239, 0.045, 44.782], [0.228, 0.075, -0.971, 0.000], [0, 0, 0, 0], [ 9E9, 9E9, 9E9, 9E9, 9E9, 9E9] ], v1000, fine, pen\WObj:=platform;
    MoveL [ [-1.914, -1.657, -0.010], [0.228, 0.075, -0.971, 0.000], [0, 0, 0, 0], [ 9E9, 9E9, 9E9, 9E9, 9E9, 9E9] ], v30, fine, pen\WObj:=platform;
    MoveL [ [20.239, 0.045, 44.782], [0.228, 0.075, -0.971, 0.000], [0, 0, 0, 0], [ 9E9, 9E9, 9E9, 9E9, 9E9, 9E9] ], v1000, fine, pen\WObj:=platform;
    
    !!-1.9702077936095979, -1.5599999999999996;
    MoveL [ [17.744, -16.759, 43.353], [0.258, -0.590, -0.765, 0.000], [0, 0, 0, 0], [ 9E9, 9E9, 9E9, 9E9, 9E9, 9E9] ], v1000, fine, pen\WObj:=platform;
    MoveL [ [-1.970, -1.560, -0.010], [0.258, -0.590, -0.765, 0.000], [0, 0, 0, 0], [ 9E9, 9E9, 9E9, 9E9, 9E9, 9E9] ], v30, fine, pen\WObj:=platform;
    MoveL [ [17.744, -16.759, 43.353], [0.258, -0.590, -0.765, 0.000], [0, 0, 0, 0], [ 9E9, 9E9, 9E9, 9E9, 9E9, 9E9] ], v1000, fine, pen\WObj:=platform;
    
    !!-2.0264994448555864, -1.4625;
    MoveL [ [20.205, -5.204, 44.619], [0.232, -0.161, -0.959, 0.000], [0, 0, 0, 0], [ 9E9, 9E9, 9E9, 9E9, 9E9, 9E9] ], v1000, fine, pen\WObj:=platform;
    MoveL [ [-2.026, -1.462, -0.010], [0.232, -0.161, -0.959, 0.000], [0, 0, 0, 0], [ 9E9, 9E9, 9E9, 9E9, 9E9, 9E9] ], v30, fine, pen\WObj:=platform;
    MoveL [ [20.205, -5.204, 44.619], [0.232, -0.161, -0.959, 0.000], [0, 0, 0, 0], [ 9E9, 9E9, 9E9, 9E9, 9E9, 9E9] ], v1000, fine, pen\WObj:=platform;
    
    !!-2.082791096101575, -1.3649999999999995;
    MoveL [ [18.570, 10.812, 43.867], [0.247, 0.492, -0.835, 0.000], [0, 0, 0, 0], [ 9E9, 9E9, 9E9, 9E9, 9E9, 9E9] ], v1000, fine, pen\WObj:=platform;
    MoveL [ [-2.083, -1.365, -0.010], [0.247, 0.492, -0.835, 0.000], [0, 0, 0, 0], [ 9E9, 9E9, 9E9, 9E9, 9E9, 9E9] ], v30, fine, pen\WObj:=platform;
    MoveL [ [18.570, 10.812, 43.867], [0.247, 0.492, -0.835, 0.000], [0, 0, 0, 0], [ 9E9, 9E9, 9E9, 9E9, 9E9, 9E9] ], v1000, fine, pen\WObj:=platform;
    
    !!-1.5761662348876784, -2.2424999999999997;
    MoveL [ [19.190, -11.350, 44.553], [0.233, -0.391, -0.891, 0.000], [0, 0, 0, 0], [ 9E9, 9E9, 9E9, 9E9, 9E9, 9E9] ], v1000, fine, pen\WObj:=platform;
    MoveL [ [-1.576, -2.242, -0.010], [0.233, -0.391, -0.891, 0.000], [0, 0, 0, 0], [ 9E9, 9E9, 9E9, 9E9, 9E9, 9E9] ], v30, fine, pen\WObj:=platform;
    MoveL [ [19.190, -11.350, 44.553], [0.233, -0.391, -0.891, 0.000], [0, 0, 0, 0], [ 9E9, 9E9, 9E9, 9E9, 9E9, 9E9] ], v1000, fine, pen\WObj:=platform;
    
    !!-1.5198745836416898, -2.34;
    MoveL [ [18.958, -12.348, 44.493], [0.234, -0.427, -0.873, 0.000], [0, 0, 0, 0], [ 9E9, 9E9, 9E9, 9E9, 9E9, 9E9] ], v1000, fine, pen\WObj:=platform;
    MoveL [ [-1.520, -2.340, -0.010], [0.234, -0.427, -0.873, 0.000], [0, 0, 0, 0], [ 9E9, 9E9, 9E9, 9E9, 9E9, 9E9] ], v30, fine, pen\WObj:=platform;
    MoveL [ [18.958, -12.348, 44.493], [0.234, -0.427, -0.873, 0.000], [0, 0, 0, 0], [ 9E9, 9E9, 9E9, 9E9, 9E9, 9E9] ], v1000, fine, pen\WObj:=platform;
    
    !!-1.0132497224277934, -3.2175;
    MoveL [ [16.978, 13.005, 43.730], [0.250, 0.648, -0.719, 0.000], [0, 0, 0, 0], [ 9E9, 9E9, 9E9, 9E9, 9E9, 9E9] ], v1000, fine, pen\WObj:=platform;
    MoveL [ [-1.013, -3.217, -0.010], [0.250, 0.648, -0.719, 0.000], [0, 0, 0, 0], [ 9E9, 9E9, 9E9, 9E9, 9E9, 9E9] ], v30, fine, pen\WObj:=platform;
    MoveL [ [16.978, 13.005, 43.730], [0.250, 0.648, -0.719, 0.000], [0, 0, 0, 0], [ 9E9, 9E9, 9E9, 9E9, 9E9, 9E9] ], v1000, fine, pen\WObj:=platform;
    
    !!-0.9569580711818046, -3.3150000000000004;
    MoveL [ [19.575, 1.304, 45.345], [0.216, 0.214, -0.953, 0.000], [0, 0, 0, 0], [ 9E9, 9E9, 9E9, 9E9, 9E9, 9E9] ], v1000, fine, pen\WObj:=platform;
    MoveL [ [-0.957, -3.315, -0.010], [0.216, 0.214, -0.953, 0.000], [0, 0, 0, 0], [ 9E9, 9E9, 9E9, 9E9, 9E9, 9E9] ], v30, fine, pen\WObj:=platform;
    MoveL [ [19.575, 1.304, 45.345], [0.216, 0.214, -0.953, 0.000], [0, 0, 0, 0], [ 9E9, 9E9, 9E9, 9E9, 9E9, 9E9] ], v1000, fine, pen\WObj:=platform;
    
    !!-0.9006664199358159, -3.4125;
    MoveL [ [17.963, -15.575, 44.669], [0.231, -0.527, -0.818, 0.000], [0, 0, 0, 0], [ 9E9, 9E9, 9E9, 9E9, 9E9, 9E9] ], v1000, fine, pen\WObj:=platform;
    MoveL [ [-0.901, -3.413, -0.010], [0.231, -0.527, -0.818, 0.000], [0, 0, 0, 0], [ 9E9, 9E9, 9E9, 9E9, 9E9, 9E9] ], v30, fine, pen\WObj:=platform;
    MoveL [ [17.963, -15.575, 44.669], [0.231, -0.527, -0.818, 0.000], [0, 0, 0, 0], [ 9E9, 9E9, 9E9, 9E9, 9E9, 9E9] ], v1000, fine, pen\WObj:=platform;
    
    !!-0.8443747686898279, -3.51;
    MoveL [ [18.507, -13.418, 45.016], [0.223, -0.444, -0.868, 0.000], [0, 0, 0, 0], [ 9E9, 9E9, 9E9, 9E9, 9E9, 9E9] ], v1000, fine, pen\WObj:=platform;
    MoveL [ [-0.844, -3.510, -0.010], [0.223, -0.444, -0.868, 0.000], [0, 0, 0, 0], [ 9E9, 9E9, 9E9, 9E9, 9E9, 9E9] ], v30, fine, pen\WObj:=platform;
    MoveL [ [18.507, -13.418, 45.016], [0.223, -0.444, -0.868, 0.000], [0, 0, 0, 0], [ 9E9, 9E9, 9E9, 9E9, 9E9, 9E9] ], v1000, fine, pen\WObj:=platform;
    
    !!-0.7880831174438391, -3.6074999999999995;
    MoveL [ [18.883, 5.446, 45.057], [0.222, 0.408, -0.886, 0.000], [0, 0, 0, 0], [ 9E9, 9E9, 9E9, 9E9, 9E9, 9E9] ], v1000, fine, pen\WObj:=platform;
    MoveL [ [-0.788, -3.607, -0.010], [0.222, 0.408, -0.886, 0.000], [0, 0, 0, 0], [ 9E9, 9E9, 9E9, 9E9, 9E9, 9E9] ], v30, fine, pen\WObj:=platform;
    MoveL [ [18.883, 5.446, 45.057], [0.222, 0.408, -0.886, 0.000], [0, 0, 0, 0], [ 9E9, 9E9, 9E9, 9E9, 9E9, 9E9] ], v1000, fine, pen\WObj:=platform;
    
    !!-0.731791466197851, -3.704999999999999;
    MoveL [ [18.578, 6.744, 44.912], [0.225, 0.464, -0.857, 0.000], [0, 0, 0, 0], [ 9E9, 9E9, 9E9, 9E9, 9E9, 9E9] ], v1000, fine, pen\WObj:=platform;
    MoveL [ [-0.732, -3.705, -0.010], [0.225, 0.464, -0.857, 0.000], [0, 0, 0, 0], [ 9E9, 9E9, 9E9, 9E9, 9E9, 9E9] ], v30, fine, pen\WObj:=platform;
    MoveL [ [18.578, 6.744, 44.912], [0.225, 0.464, -0.857, 0.000], [0, 0, 0, 0], [ 9E9, 9E9, 9E9, 9E9, 9E9, 9E9] ], v1000, fine, pen\WObj:=platform;
    
    !!-0.6754998149518622, -3.8024999999999998;
