MODULE MainModule
  PERS wobjdata platform := [ FALSE, TRUE, "", [ [800, 0, 600], [1, 0, 0 ,0] ], [ [0, 0, 0], [1, 0, 0 ,0] ] ];
  PERS tooldata pen := [ TRUE, [[0, 0, 100], [1, 0, 0 ,0]], [0.8,[0, 0, 30], [1, 0, 0, 0], 0, 0, 0]];
  PROC main()
    ConfL\Off;
    ConfJ\Off;
    SingArea\Wrist;
    !!-2.927165864791403, 0.05070000000000019;
    MoveL [ [-0.087, -14.379, 47.778], [0.149, -0.970, -0.191, 0.000], [0, 0, 0, 0], [ 9E9, 9E9, 9E9, 9E9, 9E9, 9E9] ], v1000, fine, pen\WObj:=platform;
    MoveL [ [-2.927, 0.051, -0.010], [0.149, -0.970, -0.191, 0.000], [0, 0, 0, 0], [ 9E9, 9E9, 9E9, 9E9, 9E9, 9E9] ], v30, fine, pen\WObj:=platform;
    MoveL [ [-0.087, -14.379, 47.778], [0.149, -0.970, -0.191, 0.000], [0, 0, 0, 0], [ 9E9, 9E9, 9E9, 9E9, 9E9, 9E9] ], v1000, fine, pen\WObj:=platform;
    
    !!-2.8686225474955744, -0.05070000000000019;
    MoveL [ [-0.061, -14.334, 47.824], [0.147, -0.971, -0.191, 0.000], [0, 0, 0, 0], [ 9E9, 9E9, 9E9, 9E9, 9E9, 9E9] ], v1000, fine, pen\WObj:=platform;
    MoveL [ [-2.869, -0.051, -0.010], [0.147, -0.971, -0.191, 0.000], [0, 0, 0, 0], [ 9E9, 9E9, 9E9, 9E9, 9E9, 9E9] ], v30, fine, pen\WObj:=platform;
    MoveL [ [-0.061, -14.334, 47.824], [0.147, -0.971, -0.191, 0.000], [0, 0, 0, 0], [ 9E9, 9E9, 9E9, 9E9, 9E9, 9E9] ], v1000, fine, pen\WObj:=platform;
    
    !!-2.927165864791403, -0.1521;
    MoveL [ [-0.053, -14.268, 47.870], [0.146, -0.969, -0.197, 0.000], [0, 0, 0, 0], [ 9E9, 9E9, 9E9, 9E9, 9E9, 9E9] ], v1000, fine, pen\WObj:=platform;
    MoveL [ [-2.927, -0.152, -0.010], [0.146, -0.969, -0.197, 0.000], [0, 0, 0, 0], [ 9E9, 9E9, 9E9, 9E9, 9E9, 9E9] ], v30, fine, pen\WObj:=platform;
    MoveL [ [-0.053, -14.268, 47.870], [0.146, -0.969, -0.197, 0.000], [0, 0, 0, 0], [ 9E9, 9E9, 9E9, 9E9, 9E9, 9E9] ], v1000, fine, pen\WObj:=platform;
    
    !!-2.8686225474955744, -0.2535000000000004;
    MoveL [ [3.633, -17.090, 46.619], [0.184, -0.917, -0.354, 0.000], [0, 0, 0, 0], [ 9E9, 9E9, 9E9, 9E9, 9E9, 9E9] ], v1000, fine, pen\WObj:=platform;
    MoveL [ [-2.869, -0.254, -0.010], [0.184, -0.917, -0.354, 0.000], [0, 0, 0, 0], [ 9E9, 9E9, 9E9, 9E9, 9E9, 9E9] ], v30, fine, pen\WObj:=platform;
    MoveL [ [3.633, -17.090, 46.619], [0.184, -0.917, -0.354, 0.000], [0, 0, 0, 0], [ 9E9, 9E9, 9E9, 9E9, 9E9, 9E9] ], v1000, fine, pen\WObj:=platform;
    
    !!-2.927165864791403, -0.35489999999999966;
    MoveL [ [-0.018, -14.155, 47.960], [0.142, -0.969, -0.204, 0.000], [0, 0, 0, 0], [ 9E9, 9E9, 9E9, 9E9, 9E9, 9E9] ], v1000, fine, pen\WObj:=platform;
    MoveL [ [-2.927, -0.355, -0.010], [0.142, -0.969, -0.204, 0.000], [0, 0, 0, 0], [ 9E9, 9E9, 9E9, 9E9, 9E9, 9E9] ], v30, fine, pen\WObj:=platform;
    MoveL [ [-0.018, -14.155, 47.960], [0.142, -0.969, -0.204, 0.000], [0, 0, 0, 0], [ 9E9, 9E9, 9E9, 9E9, 9E9, 9E9] ], v1000, fine, pen\WObj:=platform;
    
    !!-2.8686225474955744, -0.45630000000000004;
    MoveL [ [0.008, -14.108, 48.004], [0.141, -0.969, -0.204, 0.000], [0, 0, 0, 0], [ 9E9, 9E9, 9E9, 9E9, 9E9, 9E9] ], v1000, fine, pen\WObj:=platform;
    MoveL [ [-2.869, -0.456, -0.010], [0.141, -0.969, -0.204, 0.000], [0, 0, 0, 0], [ 9E9, 9E9, 9E9, 9E9, 9E9, 9E9] ], v30, fine, pen\WObj:=platform;
    MoveL [ [0.008, -14.108, 48.004], [0.141, -0.969, -0.204, 0.000], [0, 0, 0, 0], [ 9E9, 9E9, 9E9, 9E9, 9E9, 9E9] ], v1000, fine, pen\WObj:=platform;
    
    !!-2.927165864791403, -0.5576999999999999;
    MoveL [ [0.017, -14.040, 48.048], [0.139, -0.967, -0.211, 0.000], [0, 0, 0, 0], [ 9E9, 9E9, 9E9, 9E9, 9E9, 9E9] ], v1000, fine, pen\WObj:=platform;
    MoveL [ [-2.927, -0.558, -0.010], [0.139, -0.967, -0.211, 0.000], [0, 0, 0, 0], [ 9E9, 9E9, 9E9, 9E9, 9E9, 9E9] ], v30, fine, pen\WObj:=platform;
    MoveL [ [0.017, -14.040, 48.048], [0.139, -0.967, -0.211, 0.000], [0, 0, 0, 0], [ 9E9, 9E9, 9E9, 9E9, 9E9, 9E9] ], v1000, fine, pen\WObj:=platform;
    
    !!-2.8686225474955744, -0.6590999999999997;
    MoveL [ [3.757, -16.789, 46.850], [0.177, -0.910, -0.374, 0.000], [0, 0, 0, 0], [ 9E9, 9E9, 9E9, 9E9, 9E9, 9E9] ], v1000, fine, pen\WObj:=platform;
    MoveL [ [-2.869, -0.659, -0.010], [0.177, -0.910, -0.374, 0.000], [0, 0, 0, 0], [ 9E9, 9E9, 9E9, 9E9, 9E9, 9E9] ], v30, fine, pen\WObj:=platform;
    MoveL [ [3.757, -16.789, 46.850], [0.177, -0.910, -0.374, 0.000], [0, 0, 0, 0], [ 9E9, 9E9, 9E9, 9E9, 9E9, 9E9] ], v1000, fine, pen\WObj:=platform;
    
    !!-2.927165864791403, -0.7604999999999997;
    MoveL [ [0.051, -13.923, 48.134], [0.136, -0.966, -0.219, 0.000], [0, 0, 0, 0], [ 9E9, 9E9, 9E9, 9E9, 9E9, 9E9] ], v1000, fine, pen\WObj:=platform;
    MoveL [ [-2.927, -0.760, -0.010], [0.136, -0.966, -0.219, 0.000], [0, 0, 0, 0], [ 9E9, 9E9, 9E9, 9E9, 9E9, 9E9] ], v30, fine, pen\WObj:=platform;
    MoveL [ [0.051, -13.923, 48.134], [0.136, -0.966, -0.219, 0.000], [0, 0, 0, 0], [ 9E9, 9E9, 9E9, 9E9, 9E9, 9E9] ], v1000, fine, pen\WObj:=platform;
    
    !!-2.8686225474955744, -0.8618999999999999;
    MoveL [ [0.078, -13.875, 48.177], [0.135, -0.966, -0.219, 0.000], [0, 0, 0, 0], [ 9E9, 9E9, 9E9, 9E9, 9E9, 9E9] ], v1000, fine, pen\WObj:=platform;
    MoveL [ [-2.869, -0.862, -0.010], [0.135, -0.966, -0.219, 0.000], [0, 0, 0, 0], [ 9E9, 9E9, 9E9, 9E9, 9E9, 9E9] ], v30, fine, pen\WObj:=platform;
    MoveL [ [0.078, -13.875, 48.177], [0.135, -0.966, -0.219, 0.000], [0, 0, 0, 0], [ 9E9, 9E9, 9E9, 9E9, 9E9, 9E9] ], v1000, fine, pen\WObj:=platform;
    
    !!-2.927165864791403, -0.9633;
    MoveL [ [0.087, -13.805, 48.219], [0.133, -0.965, -0.226, 0.000], [0, 0, 0, 0], [ 9E9, 9E9, 9E9, 9E9, 9E9, 9E9] ], v1000, fine, pen\WObj:=platform;
    MoveL [ [-2.927, -0.963, -0.010], [0.133, -0.965, -0.226, 0.000], [0, 0, 0, 0], [ 9E9, 9E9, 9E9, 9E9, 9E9, 9E9] ], v30, fine, pen\WObj:=platform;
    MoveL [ [0.087, -13.805, 48.219], [0.133, -0.965, -0.226, 0.000], [0, 0, 0, 0], [ 9E9, 9E9, 9E9, 9E9, 9E9, 9E9] ], v1000, fine, pen\WObj:=platform;
    
    !!-2.8686225474955744, -1.0647000000000002;
    MoveL [ [3.882, -16.478, 47.074], [0.171, -0.903, -0.395, 0.000], [0, 0, 0, 0], [ 9E9, 9E9, 9E9, 9E9, 9E9, 9E9] ], v1000, fine, pen\WObj:=platform;
    MoveL [ [-2.869, -1.065, -0.010], [0.171, -0.903, -0.395, 0.000], [0, 0, 0, 0], [ 9E9, 9E9, 9E9, 9E9, 9E9, 9E9] ], v30, fine, pen\WObj:=platform;
    MoveL [ [3.882, -16.478, 47.074], [0.171, -0.903, -0.395, 0.000], [0, 0, 0, 0], [ 9E9, 9E9, 9E9, 9E9, 9E9, 9E9] ], v1000, fine, pen\WObj:=platform;
    
    !!-2.927165864791403, -1.1661000000000001;
    MoveL [ [0.122, -13.685, 48.301], [0.130, -0.963, -0.235, 0.000], [0, 0, 0, 0], [ 9E9, 9E9, 9E9, 9E9, 9E9, 9E9] ], v1000, fine, pen\WObj:=platform;
    MoveL [ [-2.927, -1.166, -0.010], [0.130, -0.963, -0.235, 0.000], [0, 0, 0, 0], [ 9E9, 9E9, 9E9, 9E9, 9E9, 9E9] ], v30, fine, pen\WObj:=platform;
    MoveL [ [0.122, -13.685, 48.301], [0.130, -0.963, -0.235, 0.000], [0, 0, 0, 0], [ 9E9, 9E9, 9E9, 9E9, 9E9, 9E9] ], v1000, fine, pen\WObj:=platform;
    
    !!-2.8686225474955744, -1.2675000000000003;
    MoveL [ [0.148, -13.635, 48.342], [0.128, -0.963, -0.235, 0.000], [0, 0, 0, 0], [ 9E9, 9E9, 9E9, 9E9, 9E9, 9E9] ], v1000, fine, pen\WObj:=platform;
    MoveL [ [-2.869, -1.268, -0.010], [0.128, -0.963, -0.235, 0.000], [0, 0, 0, 0], [ 9E9, 9E9, 9E9, 9E9, 9E9, 9E9] ], v30, fine, pen\WObj:=platform;
    MoveL [ [0.148, -13.635, 48.342], [0.128, -0.963, -0.235, 0.000], [0, 0, 0, 0], [ 9E9, 9E9, 9E9, 9E9, 9E9, 9E9] ], v1000, fine, pen\WObj:=platform;
    
    !!-2.927165864791403, -1.3688999999999998;
    MoveL [ [0.157, -13.563, 48.382], [0.127, -0.962, -0.243, 0.000], [0, 0, 0, 0], [ 9E9, 9E9, 9E9, 9E9, 9E9, 9E9] ], v1000, fine, pen\WObj:=platform;
    MoveL [ [-2.927, -1.369, -0.010], [0.127, -0.962, -0.243, 0.000], [0, 0, 0, 0], [ 9E9, 9E9, 9E9, 9E9, 9E9, 9E9] ], v30, fine, pen\WObj:=platform;
    MoveL [ [0.157, -13.563, 48.382], [0.127, -0.962, -0.243, 0.000], [0, 0, 0, 0], [ 9E9, 9E9, 9E9, 9E9, 9E9, 9E9] ], v1000, fine, pen\WObj:=platform;
    
    !!-2.8686225474955744, -1.4703;
    MoveL [ [4.007, -16.155, 47.288], [0.164, -0.893, -0.418, 0.000], [0, 0, 0, 0], [ 9E9, 9E9, 9E9, 9E9, 9E9, 9E9] ], v1000, fine, pen\WObj:=platform;
    MoveL [ [-2.869, -1.470, -0.010], [0.164, -0.893, -0.418, 0.000], [0, 0, 0, 0], [ 9E9, 9E9, 9E9, 9E9, 9E9, 9E9] ], v30, fine, pen\WObj:=platform;
    MoveL [ [4.007, -16.155, 47.288], [0.164, -0.893, -0.418, 0.000], [0, 0, 0, 0], [ 9E9, 9E9, 9E9, 9E9, 9E9, 9E9] ], v1000, fine, pen\WObj:=platform;
    
    !!-2.927165864791403, -1.5717;
    MoveL [ [0.193, -13.440, 48.461], [0.124, -0.960, -0.252, 0.000], [0, 0, 0, 0], [ 9E9, 9E9, 9E9, 9E9, 9E9, 9E9] ], v1000, fine, pen\WObj:=platform;
    MoveL [ [-2.927, -1.572, -0.010], [0.124, -0.960, -0.252, 0.000], [0, 0, 0, 0], [ 9E9, 9E9, 9E9, 9E9, 9E9, 9E9] ], v30, fine, pen\WObj:=platform;
    MoveL [ [0.193, -13.440, 48.461], [0.124, -0.960, -0.252, 0.000], [0, 0, 0, 0], [ 9E9, 9E9, 9E9, 9E9, 9E9, 9E9] ], v1000, fine, pen\WObj:=platform;
    
    !!-2.8686225474955744, -1.6730999999999996;
    MoveL [ [0.220, -13.388, 48.500], [0.122, -0.960, -0.253, 0.000], [0, 0, 0, 0], [ 9E9, 9E9, 9E9, 9E9, 9E9, 9E9] ], v1000, fine, pen\WObj:=platform;
    MoveL [ [-2.869, -1.673, -0.010], [0.122, -0.960, -0.253, 0.000], [0, 0, 0, 0], [ 9E9, 9E9, 9E9, 9E9, 9E9, 9E9] ], v30, fine, pen\WObj:=platform;
    MoveL [ [0.220, -13.388, 48.500], [0.122, -0.960, -0.253, 0.000], [0, 0, 0, 0], [ 9E9, 9E9, 9E9, 9E9, 9E9, 9E9] ], v1000, fine, pen\WObj:=platform;
    
    !!-2.927165864791403, -1.7745;
    MoveL [ [0.229, -13.315, 48.538], [0.121, -0.958, -0.262, 0.000], [0, 0, 0, 0], [ 9E9, 9E9, 9E9, 9E9, 9E9, 9E9] ], v1000, fine, pen\WObj:=platform;
    MoveL [ [-2.927, -1.774, -0.010], [0.121, -0.958, -0.262, 0.000], [0, 0, 0, 0], [ 9E9, 9E9, 9E9, 9E9, 9E9, 9E9] ], v30, fine, pen\WObj:=platform;
    MoveL [ [0.229, -13.315, 48.538], [0.121, -0.958, -0.262, 0.000], [0, 0, 0, 0], [ 9E9, 9E9, 9E9, 9E9, 9E9, 9E9] ], v1000, fine, pen\WObj:=platform;
    
    !!-2.8686225474955744, -1.8758999999999997;
    MoveL [ [4.132, -15.821, 47.493], [0.158, -0.882, -0.443, 0.000], [0, 0, 0, 0], [ 9E9, 9E9, 9E9, 9E9, 9E9, 9E9] ], v1000, fine, pen\WObj:=platform;
    MoveL [ [-2.869, -1.876, -0.010], [0.158, -0.882, -0.443, 0.000], [0, 0, 0, 0], [ 9E9, 9E9, 9E9, 9E9, 9E9, 9E9] ], v30, fine, pen\WObj:=platform;
    MoveL [ [4.132, -15.821, 47.493], [0.158, -0.882, -0.443, 0.000], [0, 0, 0, 0], [ 9E9, 9E9, 9E9, 9E9, 9E9, 9E9] ], v1000, fine, pen\WObj:=platform;
    
    !!-2.927165864791403, -1.9773;
    MoveL [ [0.265, -13.188, 48.612], [0.117, -0.955, -0.272, 0.000], [0, 0, 0, 0], [ 9E9, 9E9, 9E9, 9E9, 9E9, 9E9] ], v1000, fine, pen\WObj:=platform;
    MoveL [ [-2.927, -1.977, -0.010], [0.117, -0.955, -0.272, 0.000], [0, 0, 0, 0], [ 9E9, 9E9, 9E9, 9E9, 9E9, 9E9] ], v30, fine, pen\WObj:=platform;
    MoveL [ [0.265, -13.188, 48.612], [0.117, -0.955, -0.272, 0.000], [0, 0, 0, 0], [ 9E9, 9E9, 9E9, 9E9, 9E9, 9E9] ], v1000, fine, pen\WObj:=platform;
    
    !!-2.8686225474955744, -2.0786999999999995;
    MoveL [ [0.291, -13.135, 48.650], [0.116, -0.955, -0.273, 0.000], [0, 0, 0, 0], [ 9E9, 9E9, 9E9, 9E9, 9E9, 9E9] ], v1000, fine, pen\WObj:=platform;
    MoveL [ [-2.869, -2.079, -0.010], [0.116, -0.955, -0.273, 0.000], [0, 0, 0, 0], [ 9E9, 9E9, 9E9, 9E9, 9E9, 9E9] ], v30, fine, pen\WObj:=platform;
    MoveL [ [0.291, -13.135, 48.650], [0.116, -0.955, -0.273, 0.000], [0, 0, 0, 0], [ 9E9, 9E9, 9E9, 9E9, 9E9, 9E9] ], v1000, fine, pen\WObj:=platform;
    
    !!-2.927165864791403, -2.1801;
    MoveL [ [0.301, -13.060, 48.685], [0.114, -0.952, -0.283, 0.000], [0, 0, 0, 0], [ 9E9, 9E9, 9E9, 9E9, 9E9, 9E9] ], v1000, fine, pen\WObj:=platform;
    MoveL [ [-2.927, -2.180, -0.010], [0.114, -0.952, -0.283, 0.000], [0, 0, 0, 0], [ 9E9, 9E9, 9E9, 9E9, 9E9, 9E9] ], v30, fine, pen\WObj:=platform;
    MoveL [ [0.301, -13.060, 48.685], [0.114, -0.952, -0.283, 0.000], [0, 0, 0, 0], [ 9E9, 9E9, 9E9, 9E9, 9E9, 9E9] ], v1000, fine, pen\WObj:=platform;
    
    !!-2.8686225474955744, -2.2815000000000003;
    MoveL [ [4.257, -15.478, 47.688], [0.152, -0.870, -0.470, 0.000], [0, 0, 0, 0], [ 9E9, 9E9, 9E9, 9E9, 9E9, 9E9] ], v1000, fine, pen\WObj:=platform;
    MoveL [ [-2.869, -2.282, -0.010], [0.152, -0.870, -0.470, 0.000], [0, 0, 0, 0], [ 9E9, 9E9, 9E9, 9E9, 9E9, 9E9] ], v30, fine, pen\WObj:=platform;
    MoveL [ [4.257, -15.478, 47.688], [0.152, -0.870, -0.470, 0.000], [0, 0, 0, 0], [ 9E9, 9E9, 9E9, 9E9, 9E9, 9E9] ], v1000, fine, pen\WObj:=platform;
    
    !!-2.927165864791403, -2.3829000000000002;
    MoveL [ [0.337, -12.931, 48.756], [0.111, -0.949, -0.294, 0.000], [0, 0, 0, 0], [ 9E9, 9E9, 9E9, 9E9, 9E9, 9E9] ], v1000, fine, pen\WObj:=platform;
    MoveL [ [-2.927, -2.383, -0.010], [0.111, -0.949, -0.294, 0.000], [0, 0, 0, 0], [ 9E9, 9E9, 9E9, 9E9, 9E9, 9E9] ], v30, fine, pen\WObj:=platform;
    MoveL [ [0.337, -12.931, 48.756], [0.111, -0.949, -0.294, 0.000], [0, 0, 0, 0], [ 9E9, 9E9, 9E9, 9E9, 9E9, 9E9] ], v1000, fine, pen\WObj:=platform;
    
    !!-2.8686225474955744, -2.4843;
    MoveL [ [0.364, -12.876, 48.791], [0.109, -0.949, -0.295, 0.000], [0, 0, 0, 0], [ 9E9, 9E9, 9E9, 9E9, 9E9, 9E9] ], v1000, fine, pen\WObj:=platform;
    MoveL [ [-2.869, -2.484, -0.010], [0.109, -0.949, -0.295, 0.000], [0, 0, 0, 0], [ 9E9, 9E9, 9E9, 9E9, 9E9, 9E9] ], v30, fine, pen\WObj:=platform;
    MoveL [ [0.364, -12.876, 48.791], [0.109, -0.949, -0.295, 0.000], [0, 0, 0, 0], [ 9E9, 9E9, 9E9, 9E9, 9E9, 9E9] ], v1000, fine, pen\WObj:=platform;
    
    !!-2.927165864791403, -2.5857;
    MoveL [ [0.373, -12.800, 48.824], [0.108, -0.946, -0.306, 0.000], [0, 0, 0, 0], [ 9E9, 9E9, 9E9, 9E9, 9E9, 9E9] ], v1000, fine, pen\WObj:=platform;
    MoveL [ [-2.927, -2.586, -0.010], [0.108, -0.946, -0.306, 0.000], [0, 0, 0, 0], [ 9E9, 9E9, 9E9, 9E9, 9E9, 9E9] ], v30, fine, pen\WObj:=platform;
    MoveL [ [0.373, -12.800, 48.824], [0.108, -0.946, -0.306, 0.000], [0, 0, 0, 0], [ 9E9, 9E9, 9E9, 9E9, 9E9, 9E9] ], v1000, fine, pen\WObj:=platform;
    
    !!-2.8686225474955744, -2.6871;
    MoveL [ [4.381, -15.124, 47.873], [0.146, -0.855, -0.498, 0.000], [0, 0, 0, 0], [ 9E9, 9E9, 9E9, 9E9, 9E9, 9E9] ], v1000, fine, pen\WObj:=platform;
    MoveL [ [-2.869, -2.687, -0.010], [0.146, -0.855, -0.498, 0.000], [0, 0, 0, 0], [ 9E9, 9E9, 9E9, 9E9, 9E9, 9E9] ], v30, fine, pen\WObj:=platform;
    MoveL [ [4.381, -15.124, 47.873], [0.146, -0.855, -0.498, 0.000], [0, 0, 0, 0], [ 9E9, 9E9, 9E9, 9E9, 9E9, 9E9] ], v1000, fine, pen\WObj:=platform;
    
    !!-2.927165864791403, -2.7885;
    MoveL [ [0.410, -12.668, 48.891], [0.105, -0.942, -0.318, 0.000], [0, 0, 0, 0], [ 9E9, 9E9, 9E9, 9E9, 9E9, 9E9] ], v1000, fine, pen\WObj:=platform;
    MoveL [ [-2.927, -2.788, -0.010], [0.105, -0.942, -0.318, 0.000], [0, 0, 0, 0], [ 9E9, 9E9, 9E9, 9E9, 9E9, 9E9] ], v30, fine, pen\WObj:=platform;
    MoveL [ [0.410, -12.668, 48.891], [0.105, -0.942, -0.318, 0.000], [0, 0, 0, 0], [ 9E9, 9E9, 9E9, 9E9, 9E9, 9E9] ], v1000, fine, pen\WObj:=platform;
    
    !!-2.8686225474955744, -2.8899;
    MoveL [ [0.437, -12.612, 48.924], [0.103, -0.942, -0.320, 0.000], [0, 0, 0, 0], [ 9E9, 9E9, 9E9, 9E9, 9E9, 9E9] ], v1000, fine, pen\WObj:=platform;
    MoveL [ [-2.869, -2.890, -0.010], [0.103, -0.942, -0.320, 0.000], [0, 0, 0, 0], [ 9E9, 9E9, 9E9, 9E9, 9E9, 9E9] ], v30, fine, pen\WObj:=platform;
    MoveL [ [0.437, -12.612, 48.924], [0.103, -0.942, -0.320, 0.000], [0, 0, 0, 0], [ 9E9, 9E9, 9E9, 9E9, 9E9, 9E9] ], v1000, fine, pen\WObj:=platform;
    
    !!-2.927165864791403, -2.9913;
    MoveL [ [0.446, -12.534, 48.955], [0.102, -0.938, -0.332, 0.000], [0, 0, 0, 0], [ 9E9, 9E9, 9E9, 9E9, 9E9, 9E9] ], v1000, fine, pen\WObj:=platform;
    MoveL [ [-2.927, -2.991, -0.010], [0.102, -0.938, -0.332, 0.000], [0, 0, 0, 0], [ 9E9, 9E9, 9E9, 9E9, 9E9, 9E9] ], v30, fine, pen\WObj:=platform;
    MoveL [ [0.446, -12.534, 48.955], [0.102, -0.938, -0.332, 0.000], [0, 0, 0, 0], [ 9E9, 9E9, 9E9, 9E9, 9E9, 9E9] ], v1000, fine, pen\WObj:=platform;
    
    !!-2.8686225474955744, -3.0926999999999993;
    MoveL [ [4.505, -14.762, 48.047], [0.139, -0.837, -0.529, 0.000], [0, 0, 0, 0], [ 9E9, 9E9, 9E9, 9E9, 9E9, 9E9] ], v1000, fine, pen\WObj:=platform;
    MoveL [ [-2.869, -3.093, -0.010], [0.139, -0.837, -0.529, 0.000], [0, 0, 0, 0], [ 9E9, 9E9, 9E9, 9E9, 9E9, 9E9] ], v30, fine, pen\WObj:=platform;
    MoveL [ [4.505, -14.762, 48.047], [0.139, -0.837, -0.529, 0.000], [0, 0, 0, 0], [ 9E9, 9E9, 9E9, 9E9, 9E9, 9E9] ], v1000, fine, pen\WObj:=platform;
    
    !!-2.927165864791403, -3.1941;
    MoveL [ [0.483, -12.399, 49.017], [0.099, -0.933, -0.346, 0.000], [0, 0, 0, 0], [ 9E9, 9E9, 9E9, 9E9, 9E9, 9E9] ], v1000, fine, pen\WObj:=platform;
    MoveL [ [-2.927, -3.194, -0.010], [0.099, -0.933, -0.346, 0.000], [0, 0, 0, 0], [ 9E9, 9E9, 9E9, 9E9, 9E9, 9E9] ], v30, fine, pen\WObj:=platform;
    MoveL [ [0.483, -12.399, 49.017], [0.099, -0.933, -0.346, 0.000], [0, 0, 0, 0], [ 9E9, 9E9, 9E9, 9E9, 9E9, 9E9] ], v1000, fine, pen\WObj:=platform;
    
    !!-2.8686225474955744, -3.2955;
    MoveL [ [0.510, -12.342, 49.049], [0.097, -0.932, -0.348, 0.000], [0, 0, 0, 0], [ 9E9, 9E9, 9E9, 9E9, 9E9, 9E9] ], v1000, fine, pen\WObj:=platform;
    MoveL [ [-2.869, -3.296, -0.010], [0.097, -0.932, -0.348, 0.000], [0, 0, 0, 0], [ 9E9, 9E9, 9E9, 9E9, 9E9, 9E9] ], v30, fine, pen\WObj:=platform;
    MoveL [ [0.510, -12.342, 49.049], [0.097, -0.932, -0.348, 0.000], [0, 0, 0, 0], [ 9E9, 9E9, 9E9, 9E9, 9E9, 9E9] ], v1000, fine, pen\WObj:=platform;
    
    !!-2.927165864791403, -3.3969000000000005;
    MoveL [ [0.520, -12.263, 49.077], [0.096, -0.928, -0.361, 0.000], [0, 0, 0, 0], [ 9E9, 9E9, 9E9, 9E9, 9E9, 9E9] ], v1000, fine, pen\WObj:=platform;
    MoveL [ [-2.927, -3.397, -0.010], [0.096, -0.928, -0.361, 0.000], [0, 0, 0, 0], [ 9E9, 9E9, 9E9, 9E9, 9E9, 9E9] ], v30, fine, pen\WObj:=platform;
    MoveL [ [0.520, -12.263, 49.077], [0.096, -0.928, -0.361, 0.000], [0, 0, 0, 0], [ 9E9, 9E9, 9E9, 9E9, 9E9, 9E9] ], v1000, fine, pen\WObj:=platform;
    
    !!-2.8686225474955744, -3.4982999999999995;
    MoveL [ [4.629, -14.390, 48.210], [0.133, -0.816, -0.562, 0.000], [0, 0, 0, 0], [ 9E9, 9E9, 9E9, 9E9, 9E9, 9E9] ], v1000, fine, pen\WObj:=platform;
    MoveL [ [-2.869, -3.498, -0.010], [0.133, -0.816, -0.562, 0.000], [0, 0, 0, 0], [ 9E9, 9E9, 9E9, 9E9, 9E9, 9E9] ], v30, fine, pen\WObj:=platform;
    MoveL [ [4.629, -14.390, 48.210], [0.133, -0.816, -0.562, 0.000], [0, 0, 0, 0], [ 9E9, 9E9, 9E9, 9E9, 9E9, 9E9] ], v1000, fine, pen\WObj:=platform;
    
    !!-2.927165864791403, -3.599700000000001;
    MoveL [ [0.557, -12.125, 49.134], [0.092, -0.922, -0.377, 0.000], [0, 0, 0, 0], [ 9E9, 9E9, 9E9, 9E9, 9E9, 9E9] ], v1000, fine, pen\WObj:=platform;
    MoveL [ [-2.927, -3.600, -0.010], [0.092, -0.922, -0.377, 0.000], [0, 0, 0, 0], [ 9E9, 9E9, 9E9, 9E9, 9E9, 9E9] ], v30, fine, pen\WObj:=platform;
    MoveL [ [0.557, -12.125, 49.134], [0.092, -0.922, -0.377, 0.000], [0, 0, 0, 0], [ 9E9, 9E9, 9E9, 9E9, 9E9, 9E9] ], v1000, fine, pen\WObj:=platform;
    
    !!-2.8686225474955744, -3.7011;
    MoveL [ [0.584, -12.067, 49.164], [0.091, -0.921, -0.380, 0.000], [0, 0, 0, 0], [ 9E9, 9E9, 9E9, 9E9, 9E9, 9E9] ], v1000, fine, pen\WObj:=platform;
    MoveL [ [-2.869, -3.701, -0.010], [0.091, -0.921, -0.380, 0.000], [0, 0, 0, 0], [ 9E9, 9E9, 9E9, 9E9, 9E9, 9E9] ], v30, fine, pen\WObj:=platform;
    MoveL [ [0.584, -12.067, 49.164], [0.091, -0.921, -0.380, 0.000], [0, 0, 0, 0], [ 9E9, 9E9, 9E9, 9E9, 9E9, 9E9] ], v1000, fine, pen\WObj:=platform;
    
    !!-2.927165864791403, -3.8024999999999998;
    MoveL [ [0.594, -11.986, 49.190], [0.089, -0.915, -0.394, 0.000], [0, 0, 0, 0], [ 9E9, 9E9, 9E9, 9E9, 9E9, 9E9] ], v1000, fine, pen\WObj:=platform;
    MoveL [ [-2.927, -3.802, -0.010], [0.089, -0.915, -0.394, 0.000], [0, 0, 0, 0], [ 9E9, 9E9, 9E9, 9E9, 9E9, 9E9] ], v30, fine, pen\WObj:=platform;
    MoveL [ [0.594, -11.986, 49.190], [0.089, -0.915, -0.394, 0.000], [0, 0, 0, 0], [ 9E9, 9E9, 9E9, 9E9, 9E9, 9E9] ], v1000, fine, pen\WObj:=platform;
    
    !!-2.8686225474955744, -3.9039;
    MoveL [ [4.751, -14.009, 48.362], [0.128, -0.792, -0.597, 0.000], [0, 0, 0, 0], [ 9E9, 9E9, 9E9, 9E9, 9E9, 9E9] ], v1000, fine, pen\WObj:=platform;
    MoveL [ [-2.869, -3.904, -0.010], [0.128, -0.792, -0.597, 0.000], [0, 0, 0, 0], [ 9E9, 9E9, 9E9, 9E9, 9E9, 9E9] ], v30, fine, pen\WObj:=platform;
    MoveL [ [4.751, -14.009, 48.362], [0.128, -0.792, -0.597, 0.000], [0, 0, 0, 0], [ 9E9, 9E9, 9E9, 9E9, 9E9, 9E9] ], v1000, fine, pen\WObj:=platform;
    
    !!-2.927165864791403, -4.0053;
    MoveL [ [0.631, -11.846, 49.243], [0.086, -0.907, -0.412, 0.000], [0, 0, 0, 0], [ 9E9, 9E9, 9E9, 9E9, 9E9, 9E9] ], v1000, fine, pen\WObj:=platform;
    MoveL [ [-2.927, -4.005, -0.010], [0.086, -0.907, -0.412, 0.000], [0, 0, 0, 0], [ 9E9, 9E9, 9E9, 9E9, 9E9, 9E9] ], v30, fine, pen\WObj:=platform;
    MoveL [ [0.631, -11.846, 49.243], [0.086, -0.907, -0.412, 0.000], [0, 0, 0, 0], [ 9E9, 9E9, 9E9, 9E9, 9E9, 9E9] ], v1000, fine, pen\WObj:=platform;
    
    !!-2.8686225474955744, -4.1067;
    MoveL [ [0.658, -11.787, 49.271], [0.085, -0.905, -0.416, 0.000], [0, 0, 0, 0], [ 9E9, 9E9, 9E9, 9E9, 9E9, 9E9] ], v1000, fine, pen\WObj:=platform;
    MoveL [ [-2.869, -4.107, -0.010], [0.085, -0.905, -0.416, 0.000], [0, 0, 0, 0], [ 9E9, 9E9, 9E9, 9E9, 9E9, 9E9] ], v30, fine, pen\WObj:=platform;
    MoveL [ [0.658, -11.787, 49.271], [0.085, -0.905, -0.416, 0.000], [0, 0, 0, 0], [ 9E9, 9E9, 9E9, 9E9, 9E9, 9E9] ], v1000, fine, pen\WObj:=platform;
    
    !!-2.927165864791403, -4.2081;
    MoveL [ [0.668, -11.705, 49.294], [0.083, -0.899, -0.431, 0.000], [0, 0, 0, 0], [ 9E9, 9E9, 9E9, 9E9, 9E9, 9E9] ], v1000, fine, pen\WObj:=platform;
    MoveL [ [-2.927, -4.208, -0.010], [0.083, -0.899, -0.431, 0.000], [0, 0, 0, 0], [ 9E9, 9E9, 9E9, 9E9, 9E9, 9E9] ], v30, fine, pen\WObj:=platform;
    MoveL [ [0.668, -11.705, 49.294], [0.083, -0.899, -0.431, 0.000], [0, 0, 0, 0], [ 9E9, 9E9, 9E9, 9E9, 9E9, 9E9] ], v1000, fine, pen\WObj:=platform;
    
    !!-2.8686225474955744, -4.3095;
    MoveL [ [4.873, -13.621, 48.502], [0.122, -0.763, -0.635, 0.000], [0, 0, 0, 0], [ 9E9, 9E9, 9E9, 9E9, 9E9, 9E9] ], v1000, fine, pen\WObj:=platform;
    MoveL [ [-2.869, -4.309, -0.010], [0.122, -0.763, -0.635, 0.000], [0, 0, 0, 0], [ 9E9, 9E9, 9E9, 9E9, 9E9, 9E9] ], v30, fine, pen\WObj:=platform;
    MoveL [ [4.873, -13.621, 48.502], [0.122, -0.763, -0.635, 0.000], [0, 0, 0, 0], [ 9E9, 9E9, 9E9, 9E9, 9E9, 9E9] ], v1000, fine, pen\WObj:=platform;
    
    !!-2.927165864791403, -4.4109;
    MoveL [ [0.705, -11.563, 49.342], [0.080, -0.889, -0.451, 0.000], [0, 0, 0, 0], [ 9E9, 9E9, 9E9, 9E9, 9E9, 9E9] ], v1000, fine, pen\WObj:=platform;
    MoveL [ [-2.927, -4.411, -0.010], [0.080, -0.889, -0.451, 0.000], [0, 0, 0, 0], [ 9E9, 9E9, 9E9, 9E9, 9E9, 9E9] ], v30, fine, pen\WObj:=platform;
    MoveL [ [0.705, -11.563, 49.342], [0.080, -0.889, -0.451, 0.000], [0, 0, 0, 0], [ 9E9, 9E9, 9E9, 9E9, 9E9, 9E9] ], v1000, fine, pen\WObj:=platform;
    
    !!-2.8686225474955744, -4.5123;
    MoveL [ [0.732, -11.503, 49.368], [0.079, -0.886, -0.457, 0.000], [0, 0, 0, 0], [ 9E9, 9E9, 9E9, 9E9, 9E9, 9E9] ], v1000, fine, pen\WObj:=platform;
    MoveL [ [-2.869, -4.512, -0.010], [0.079, -0.886, -0.457, 0.000], [0, 0, 0, 0], [ 9E9, 9E9, 9E9, 9E9, 9E9, 9E9] ], v30, fine, pen\WObj:=platform;
    MoveL [ [0.732, -11.503, 49.368], [0.079, -0.886, -0.457, 0.000], [0, 0, 0, 0], [ 9E9, 9E9, 9E9, 9E9, 9E9, 9E9] ], v1000, fine, pen\WObj:=platform;
    
    !!-2.927165864791403, -4.613700000000001;
    MoveL [ [0.742, -11.420, 49.388], [0.078, -0.878, -0.473, 0.000], [0, 0, 0, 0], [ 9E9, 9E9, 9E9, 9E9, 9E9, 9E9] ], v1000, fine, pen\WObj:=platform;
    MoveL [ [-2.927, -4.614, -0.010], [0.078, -0.878, -0.473, 0.000], [0, 0, 0, 0], [ 9E9, 9E9, 9E9, 9E9, 9E9, 9E9] ], v30, fine, pen\WObj:=platform;
    MoveL [ [0.742, -11.420, 49.388], [0.078, -0.878, -0.473, 0.000], [0, 0, 0, 0], [ 9E9, 9E9, 9E9, 9E9, 9E9, 9E9] ], v1000, fine, pen\WObj:=platform;
    
    !!-2.8686225474955744, -4.715100000000001;
    MoveL [ [4.993, -13.224, 48.629], [0.117, -0.729, -0.674, 0.000], [0, 0, 0, 0], [ 9E9, 9E9, 9E9, 9E9, 9E9, 9E9] ], v1000, fine, pen\WObj:=platform;
    MoveL [ [-2.869, -4.715, -0.010], [0.117, -0.729, -0.674, 0.000], [0, 0, 0, 0], [ 9E9, 9E9, 9E9, 9E9, 9E9, 9E9] ], v30, fine, pen\WObj:=platform;
    MoveL [ [4.993, -13.224, 48.629], [0.117, -0.729, -0.674, 0.000], [0, 0, 0, 0], [ 9E9, 9E9, 9E9, 9E9, 9E9, 9E9] ], v1000, fine, pen\WObj:=platform;
    
    !!-2.927165864791403, -4.8165000000000004;
    MoveL [ [0.779, -11.276, 49.432], [0.075, -0.865, -0.496, 0.000], [0, 0, 0, 0], [ 9E9, 9E9, 9E9, 9E9, 9E9, 9E9] ], v1000, fine, pen\WObj:=platform;
    MoveL [ [-2.927, -4.817, -0.010], [0.075, -0.865, -0.496, 0.000], [0, 0, 0, 0], [ 9E9, 9E9, 9E9, 9E9, 9E9, 9E9] ], v30, fine, pen\WObj:=platform;
    MoveL [ [0.779, -11.276, 49.432], [0.075, -0.865, -0.496, 0.000], [0, 0, 0, 0], [ 9E9, 9E9, 9E9, 9E9, 9E9, 9E9] ], v1000, fine, pen\WObj:=platform;
    
    !!-2.8686225474955744, -4.9179;
    MoveL [ [0.807, -11.214, 49.456], [0.073, -0.861, -0.503, 0.000], [0, 0, 0, 0], [ 9E9, 9E9, 9E9, 9E9, 9E9, 9E9] ], v1000, fine, pen\WObj:=platform;
    MoveL [ [-2.869, -4.918, -0.010], [0.073, -0.861, -0.503, 0.000], [0, 0, 0, 0], [ 9E9, 9E9, 9E9, 9E9, 9E9, 9E9] ], v30, fine, pen\WObj:=platform;
    MoveL [ [0.807, -11.214, 49.456], [0.073, -0.861, -0.503, 0.000], [0, 0, 0, 0], [ 9E9, 9E9, 9E9, 9E9, 9E9, 9E9] ], v1000, fine, pen\WObj:=platform;
    
    !!-2.927165864791403, -5.019299999999999;
    MoveL [ [0.816, -11.131, 49.474], [0.072, -0.851, -0.521, 0.000], [0, 0, 0, 0], [ 9E9, 9E9, 9E9, 9E9, 9E9, 9E9] ], v1000, fine, pen\WObj:=platform;
    MoveL [ [-2.927, -5.019, -0.010], [0.072, -0.851, -0.521, 0.000], [0, 0, 0, 0], [ 9E9, 9E9, 9E9, 9E9, 9E9, 9E9] ], v30, fine, pen\WObj:=platform;
    MoveL [ [0.816, -11.131, 49.474], [0.072, -0.851, -0.521, 0.000], [0, 0, 0, 0], [ 9E9, 9E9, 9E9, 9E9, 9E9, 9E9] ], v1000, fine, pen\WObj:=platform;
    
    !!-2.8686225474955744, -5.1207;
    MoveL [ [5.112, -12.821, 48.745], [0.112, -0.690, -0.715, 0.000], [0, 0, 0, 0], [ 9E9, 9E9, 9E9, 9E9, 9E9, 9E9] ], v1000, fine, pen\WObj:=platform;
    MoveL [ [-2.869, -5.121, -0.010], [0.112, -0.690, -0.715, 0.000], [0, 0, 0, 0], [ 9E9, 9E9, 9E9, 9E9, 9E9, 9E9] ], v30, fine, pen\WObj:=platform;
    MoveL [ [5.112, -12.821, 48.745], [0.112, -0.690, -0.715, 0.000], [0, 0, 0, 0], [ 9E9, 9E9, 9E9, 9E9, 9E9, 9E9] ], v1000, fine, pen\WObj:=platform;
    
    !!-2.927165864791403, -5.222100000000001;
    MoveL [ [0.853, -10.985, 49.513], [0.069, -0.834, -0.547, 0.000], [0, 0, 0, 0], [ 9E9, 9E9, 9E9, 9E9, 9E9, 9E9] ], v1000, fine, pen\WObj:=platform;
    MoveL [ [-2.927, -5.222, -0.010], [0.069, -0.834, -0.547, 0.000], [0, 0, 0, 0], [ 9E9, 9E9, 9E9, 9E9, 9E9, 9E9] ], v30, fine, pen\WObj:=platform;
    MoveL [ [0.853, -10.985, 49.513], [0.069, -0.834, -0.547, 0.000], [0, 0, 0, 0], [ 9E9, 9E9, 9E9, 9E9, 9E9, 9E9] ], v1000, fine, pen\WObj:=platform;
    
    !!-2.8686225474955744, -5.323500000000001;
    MoveL [ [0.881, -10.923, 49.534], [0.068, -0.829, -0.555, 0.000], [0, 0, 0, 0], [ 9E9, 9E9, 9E9, 9E9, 9E9, 9E9] ], v1000, fine, pen\WObj:=platform;
    MoveL [ [-2.869, -5.324, -0.010], [0.068, -0.829, -0.555, 0.000], [0, 0, 0, 0], [ 9E9, 9E9, 9E9, 9E9, 9E9, 9E9] ], v30, fine, pen\WObj:=platform;
    MoveL [ [0.881, -10.923, 49.534], [0.068, -0.829, -0.555, 0.000], [0, 0, 0, 0], [ 9E9, 9E9, 9E9, 9E9, 9E9, 9E9] ], v1000, fine, pen\WObj:=platform;
    
    !!-2.927165864791403, -5.4249;
    MoveL [ [0.891, -10.838, 49.549], [0.066, -0.815, -0.575, 0.000], [0, 0, 0, 0], [ 9E9, 9E9, 9E9, 9E9, 9E9, 9E9] ], v1000, fine, pen\WObj:=platform;
    MoveL [ [-2.927, -5.425, -0.010], [0.066, -0.815, -0.575, 0.000], [0, 0, 0, 0], [ 9E9, 9E9, 9E9, 9E9, 9E9, 9E9] ], v30, fine, pen\WObj:=platform;
    MoveL [ [0.891, -10.838, 49.549], [0.066, -0.815, -0.575, 0.000], [0, 0, 0, 0], [ 9E9, 9E9, 9E9, 9E9, 9E9, 9E9] ], v1000, fine, pen\WObj:=platform;
    
    !!-2.8686225474955744, -5.526299999999999;
    MoveL [ [5.229, -12.412, 48.847], [0.107, -0.644, -0.757, 0.000], [0, 0, 0, 0], [ 9E9, 9E9, 9E9, 9E9, 9E9, 9E9] ], v1000, fine, pen\WObj:=platform;
    MoveL [ [-2.869, -5.526, -0.010], [0.107, -0.644, -0.757, 0.000], [0, 0, 0, 0], [ 9E9, 9E9, 9E9, 9E9, 9E9, 9E9] ], v30, fine, pen\WObj:=platform;
    MoveL [ [5.229, -12.412, 48.847], [0.107, -0.644, -0.757, 0.000], [0, 0, 0, 0], [ 9E9, 9E9, 9E9, 9E9, 9E9, 9E9] ], v1000, fine, pen\WObj:=platform;
    
    !!-2.927165864791403, -5.6277;
    MoveL [ [0.928, -10.691, 49.583], [0.064, -0.794, -0.605, 0.000], [0, 0, 0, 0], [ 9E9, 9E9, 9E9, 9E9, 9E9, 9E9] ], v1000, fine, pen\WObj:=platform;
    MoveL [ [-2.927, -5.628, -0.010], [0.064, -0.794, -0.605, 0.000], [0, 0, 0, 0], [ 9E9, 9E9, 9E9, 9E9, 9E9, 9E9] ], v30, fine, pen\WObj:=platform;
    MoveL [ [0.928, -10.691, 49.583], [0.064, -0.794, -0.605, 0.000], [0, 0, 0, 0], [ 9E9, 9E9, 9E9, 9E9, 9E9, 9E9] ], v1000, fine, pen\WObj:=platform;
    
    !!-2.8686225474955744, -5.729100000000001;
    MoveL [ [0.955, -10.627, 49.602], [0.062, -0.787, -0.614, 0.000], [0, 0, 0, 0], [ 9E9, 9E9, 9E9, 9E9, 9E9, 9E9] ], v1000, fine, pen\WObj:=platform;
    MoveL [ [-2.869, -5.729, -0.010], [0.062, -0.787, -0.614, 0.000], [0, 0, 0, 0], [ 9E9, 9E9, 9E9, 9E9, 9E9, 9E9] ], v30, fine, pen\WObj:=platform;
    MoveL [ [0.955, -10.627, 49.602], [0.062, -0.787, -0.614, 0.000], [0, 0, 0, 0], [ 9E9, 9E9, 9E9, 9E9, 9E9, 9E9] ], v1000, fine, pen\WObj:=platform;
    
    !!-2.927165864791403, -5.830500000000001;
    MoveL [ [0.965, -10.542, 49.615], [0.061, -0.770, -0.636, 0.000], [0, 0, 0, 0], [ 9E9, 9E9, 9E9, 9E9, 9E9, 9E9] ], v1000, fine, pen\WObj:=platform;
    MoveL [ [-2.927, -5.831, -0.010], [0.061, -0.770, -0.636, 0.000], [0, 0, 0, 0], [ 9E9, 9E9, 9E9, 9E9, 9E9, 9E9] ], v30, fine, pen\WObj:=platform;
    MoveL [ [0.965, -10.542, 49.615], [0.061, -0.770, -0.636, 0.000], [0, 0, 0, 0], [ 9E9, 9E9, 9E9, 9E9, 9E9, 9E9] ], v1000, fine, pen\WObj:=platform;
    
    !!-2.8686225474955744, -5.9319;
    MoveL [ [5.345, -11.996, 48.937], [0.103, -0.591, -0.800, 0.000], [0, 0, 0, 0], [ 9E9, 9E9, 9E9, 9E9, 9E9, 9E9] ], v1000, fine, pen\WObj:=platform;
    MoveL [ [-2.869, -5.932, -0.010], [0.103, -0.591, -0.800, 0.000], [0, 0, 0, 0], [ 9E9, 9E9, 9E9, 9E9, 9E9, 9E9] ], v30, fine, pen\WObj:=platform;
    MoveL [ [5.345, -11.996, 48.937], [0.103, -0.591, -0.800, 0.000], [0, 0, 0, 0], [ 9E9, 9E9, 9E9, 9E9, 9E9, 9E9] ], v1000, fine, pen\WObj:=platform;
    
    !!-2.810079230199747, 0.05070000000000019;
    MoveL [ [-0.070, -14.400, 47.778], [0.149, -0.972, -0.184, 0.000], [0, 0, 0, 0], [ 9E9, 9E9, 9E9, 9E9, 9E9, 9E9] ], v1000, fine, pen\WObj:=platform;
    MoveL [ [-2.810, 0.051, -0.010], [0.149, -0.972, -0.184, 0.000], [0, 0, 0, 0], [ 9E9, 9E9, 9E9, 9E9, 9E9, 9E9] ], v30, fine, pen\WObj:=platform;
    MoveL [ [-0.070, -14.400, 47.778], [0.149, -0.972, -0.184, 0.000], [0, 0, 0, 0], [ 9E9, 9E9, 9E9, 9E9, 9E9, 9E9] ], v1000, fine, pen\WObj:=platform;
    
    !!-2.7515359129039183, -0.05070000000000019;
    MoveL [ [-0.044, -14.355, 47.824], [0.147, -0.972, -0.184, 0.000], [0, 0, 0, 0], [ 9E9, 9E9, 9E9, 9E9, 9E9, 9E9] ], v1000, fine, pen\WObj:=platform;
    MoveL [ [-2.752, -0.051, -0.010], [0.147, -0.972, -0.184, 0.000], [0, 0, 0, 0], [ 9E9, 9E9, 9E9, 9E9, 9E9, 9E9] ], v30, fine, pen\WObj:=platform;
    MoveL [ [-0.044, -14.355, 47.824], [0.147, -0.972, -0.184, 0.000], [0, 0, 0, 0], [ 9E9, 9E9, 9E9, 9E9, 9E9, 9E9] ], v1000, fine, pen\WObj:=platform;
    
    !!-2.810079230199747, -0.1521;
    MoveL [ [-0.035, -14.289, 47.870], [0.146, -0.971, -0.191, 0.000], [0, 0, 0, 0], [ 9E9, 9E9, 9E9, 9E9, 9E9, 9E9] ], v1000, fine, pen\WObj:=platform;
    MoveL [ [-2.810, -0.152, -0.010], [0.146, -0.971, -0.191, 0.000], [0, 0, 0, 0], [ 9E9, 9E9, 9E9, 9E9, 9E9, 9E9] ], v30, fine, pen\WObj:=platform;
    MoveL [ [-0.035, -14.289, 47.870], [0.146, -0.971, -0.191, 0.000], [0, 0, 0, 0], [ 9E9, 9E9, 9E9, 9E9, 9E9, 9E9] ], v1000, fine, pen\WObj:=platform;
    
    !!-2.7515359129039183, -0.2535000000000004;
    MoveL [ [-0.009, -14.243, 47.915], [0.144, -0.971, -0.190, 0.000], [0, 0, 0, 0], [ 9E9, 9E9, 9E9, 9E9, 9E9, 9E9] ], v1000, fine, pen\WObj:=platform;
    MoveL [ [-2.752, -0.254, -0.010], [0.144, -0.971, -0.190, 0.000], [0, 0, 0, 0], [ 9E9, 9E9, 9E9, 9E9, 9E9, 9E9] ], v30, fine, pen\WObj:=platform;
    MoveL [ [-0.009, -14.243, 47.915], [0.144, -0.971, -0.190, 0.000], [0, 0, 0, 0], [ 9E9, 9E9, 9E9, 9E9, 9E9, 9E9] ], v1000, fine, pen\WObj:=platform;
    
    !!-2.810079230199747, -0.35489999999999966;
    MoveL [ [-0.001, -14.176, 47.960], [0.142, -0.970, -0.197, 0.000], [0, 0, 0, 0], [ 9E9, 9E9, 9E9, 9E9, 9E9, 9E9] ], v1000, fine, pen\WObj:=platform;
    MoveL [ [-2.810, -0.355, -0.010], [0.142, -0.970, -0.197, 0.000], [0, 0, 0, 0], [ 9E9, 9E9, 9E9, 9E9, 9E9, 9E9] ], v30, fine, pen\WObj:=platform;
    MoveL [ [-0.001, -14.176, 47.960], [0.142, -0.970, -0.197, 0.000], [0, 0, 0, 0], [ 9E9, 9E9, 9E9, 9E9, 9E9, 9E9] ], v1000, fine, pen\WObj:=platform;
    
    !!-2.7515359129039183, -0.45630000000000004;
    MoveL [ [0.025, -14.129, 48.004], [0.141, -0.970, -0.197, 0.000], [0, 0, 0, 0], [ 9E9, 9E9, 9E9, 9E9, 9E9, 9E9] ], v1000, fine, pen\WObj:=platform;
    MoveL [ [-2.752, -0.456, -0.010], [0.141, -0.970, -0.197, 0.000], [0, 0, 0, 0], [ 9E9, 9E9, 9E9, 9E9, 9E9, 9E9] ], v30, fine, pen\WObj:=platform;
    MoveL [ [0.025, -14.129, 48.004], [0.141, -0.970, -0.197, 0.000], [0, 0, 0, 0], [ 9E9, 9E9, 9E9, 9E9, 9E9, 9E9] ], v1000, fine, pen\WObj:=platform;
    
    !!-2.810079230199747, -0.5576999999999999;
    MoveL [ [0.034, -14.061, 48.048], [0.139, -0.969, -0.204, 0.000], [0, 0, 0, 0], [ 9E9, 9E9, 9E9, 9E9, 9E9, 9E9] ], v1000, fine, pen\WObj:=platform;
    MoveL [ [-2.810, -0.558, -0.010], [0.139, -0.969, -0.204, 0.000], [0, 0, 0, 0], [ 9E9, 9E9, 9E9, 9E9, 9E9, 9E9] ], v30, fine, pen\WObj:=platform;
    MoveL [ [0.034, -14.061, 48.048], [0.139, -0.969, -0.204, 0.000], [0, 0, 0, 0], [ 9E9, 9E9, 9E9, 9E9, 9E9, 9E9] ], v1000, fine, pen\WObj:=platform;
    
    !!-2.7515359129039183, -0.6590999999999997;
    MoveL [ [0.060, -14.014, 48.091], [0.138, -0.969, -0.204, 0.000], [0, 0, 0, 0], [ 9E9, 9E9, 9E9, 9E9, 9E9, 9E9] ], v1000, fine, pen\WObj:=platform;
    MoveL [ [-2.752, -0.659, -0.010], [0.138, -0.969, -0.204, 0.000], [0, 0, 0, 0], [ 9E9, 9E9, 9E9, 9E9, 9E9, 9E9] ], v30, fine, pen\WObj:=platform;
    MoveL [ [0.060, -14.014, 48.091], [0.138, -0.969, -0.204, 0.000], [0, 0, 0, 0], [ 9E9, 9E9, 9E9, 9E9, 9E9, 9E9] ], v1000, fine, pen\WObj:=platform;
    
    !!-2.810079230199747, -0.7604999999999997;
    MoveL [ [0.069, -13.945, 48.135], [0.136, -0.968, -0.211, 0.000], [0, 0, 0, 0], [ 9E9, 9E9, 9E9, 9E9, 9E9, 9E9] ], v1000, fine, pen\WObj:=platform;
    MoveL [ [-2.810, -0.760, -0.010], [0.136, -0.968, -0.211, 0.000], [0, 0, 0, 0], [ 9E9, 9E9, 9E9, 9E9, 9E9, 9E9] ], v30, fine, pen\WObj:=platform;
    MoveL [ [0.069, -13.945, 48.135], [0.136, -0.968, -0.211, 0.000], [0, 0, 0, 0], [ 9E9, 9E9, 9E9, 9E9, 9E9, 9E9] ], v1000, fine, pen\WObj:=platform;
    
    !!-2.7515359129039183, -0.8618999999999999;
    MoveL [ [0.095, -13.896, 48.177], [0.135, -0.968, -0.211, 0.000], [0, 0, 0, 0], [ 9E9, 9E9, 9E9, 9E9, 9E9, 9E9] ], v1000, fine, pen\WObj:=platform;
    MoveL [ [-2.752, -0.862, -0.010], [0.135, -0.968, -0.211, 0.000], [0, 0, 0, 0], [ 9E9, 9E9, 9E9, 9E9, 9E9, 9E9] ], v30, fine, pen\WObj:=platform;
    MoveL [ [0.095, -13.896, 48.177], [0.135, -0.968, -0.211, 0.000], [0, 0, 0, 0], [ 9E9, 9E9, 9E9, 9E9, 9E9, 9E9] ], v1000, fine, pen\WObj:=platform;
    
    !!-2.810079230199747, -0.9633;
    MoveL [ [0.104, -13.826, 48.219], [0.133, -0.967, -0.219, 0.000], [0, 0, 0, 0], [ 9E9, 9E9, 9E9, 9E9, 9E9, 9E9] ], v1000, fine, pen\WObj:=platform;
    MoveL [ [-2.810, -0.963, -0.010], [0.133, -0.967, -0.219, 0.000], [0, 0, 0, 0], [ 9E9, 9E9, 9E9, 9E9, 9E9, 9E9] ], v30, fine, pen\WObj:=platform;
    MoveL [ [0.104, -13.826, 48.219], [0.133, -0.967, -0.219, 0.000], [0, 0, 0, 0], [ 9E9, 9E9, 9E9, 9E9, 9E9, 9E9] ], v1000, fine, pen\WObj:=platform;
    
    !!-2.7515359129039183, -1.0647000000000002;
    MoveL [ [0.130, -13.777, 48.261], [0.131, -0.967, -0.219, 0.000], [0, 0, 0, 0], [ 9E9, 9E9, 9E9, 9E9, 9E9, 9E9] ], v1000, fine, pen\WObj:=platform;
    MoveL [ [-2.752, -1.065, -0.010], [0.131, -0.967, -0.219, 0.000], [0, 0, 0, 0], [ 9E9, 9E9, 9E9, 9E9, 9E9, 9E9] ], v30, fine, pen\WObj:=platform;
    MoveL [ [0.130, -13.777, 48.261], [0.131, -0.967, -0.219, 0.000], [0, 0, 0, 0], [ 9E9, 9E9, 9E9, 9E9, 9E9, 9E9] ], v1000, fine, pen\WObj:=platform;
    
    !!-2.810079230199747, -1.1661000000000001;
    MoveL [ [0.139, -13.706, 48.302], [0.130, -0.965, -0.227, 0.000], [0, 0, 0, 0], [ 9E9, 9E9, 9E9, 9E9, 9E9, 9E9] ], v1000, fine, pen\WObj:=platform;
    MoveL [ [-2.810, -1.166, -0.010], [0.130, -0.965, -0.227, 0.000], [0, 0, 0, 0], [ 9E9, 9E9, 9E9, 9E9, 9E9, 9E9] ], v30, fine, pen\WObj:=platform;
    MoveL [ [0.139, -13.706, 48.302], [0.130, -0.965, -0.227, 0.000], [0, 0, 0, 0], [ 9E9, 9E9, 9E9, 9E9, 9E9, 9E9] ], v1000, fine, pen\WObj:=platform;
    
    !!-2.7515359129039183, -1.2675000000000003;
    MoveL [ [0.166, -13.656, 48.343], [0.128, -0.965, -0.227, 0.000], [0, 0, 0, 0], [ 9E9, 9E9, 9E9, 9E9, 9E9, 9E9] ], v1000, fine, pen\WObj:=platform;
    MoveL [ [-2.752, -1.268, -0.010], [0.128, -0.965, -0.227, 0.000], [0, 0, 0, 0], [ 9E9, 9E9, 9E9, 9E9, 9E9, 9E9] ], v30, fine, pen\WObj:=platform;
    MoveL [ [0.166, -13.656, 48.343], [0.128, -0.965, -0.227, 0.000], [0, 0, 0, 0], [ 9E9, 9E9, 9E9, 9E9, 9E9, 9E9] ], v1000, fine, pen\WObj:=platform;
    
    !!-2.810079230199747, -1.3688999999999998;
    MoveL [ [0.175, -13.585, 48.383], [0.127, -0.964, -0.235, 0.000], [0, 0, 0, 0], [ 9E9, 9E9, 9E9, 9E9, 9E9, 9E9] ], v1000, fine, pen\WObj:=platform;
    MoveL [ [-2.810, -1.369, -0.010], [0.127, -0.964, -0.235, 0.000], [0, 0, 0, 0], [ 9E9, 9E9, 9E9, 9E9, 9E9, 9E9] ], v30, fine, pen\WObj:=platform;
    MoveL [ [0.175, -13.585, 48.383], [0.127, -0.964, -0.235, 0.000], [0, 0, 0, 0], [ 9E9, 9E9, 9E9, 9E9, 9E9, 9E9] ], v1000, fine, pen\WObj:=platform;
    
    !!-2.7515359129039183, -1.4703;
    MoveL [ [0.201, -13.534, 48.423], [0.125, -0.964, -0.236, 0.000], [0, 0, 0, 0], [ 9E9, 9E9, 9E9, 9E9, 9E9, 9E9] ], v1000, fine, pen\WObj:=platform;
    MoveL [ [-2.752, -1.470, -0.010], [0.125, -0.964, -0.236, 0.000], [0, 0, 0, 0], [ 9E9, 9E9, 9E9, 9E9, 9E9, 9E9] ], v30, fine, pen\WObj:=platform;
    MoveL [ [0.201, -13.534, 48.423], [0.125, -0.964, -0.236, 0.000], [0, 0, 0, 0], [ 9E9, 9E9, 9E9, 9E9, 9E9, 9E9] ], v1000, fine, pen\WObj:=platform;
    
    !!-2.810079230199747, -1.5717;
    MoveL [ [0.210, -13.461, 48.462], [0.124, -0.962, -0.244, 0.000], [0, 0, 0, 0], [ 9E9, 9E9, 9E9, 9E9, 9E9, 9E9] ], v1000, fine, pen\WObj:=platform;
    MoveL [ [-2.810, -1.572, -0.010], [0.124, -0.962, -0.244, 0.000], [0, 0, 0, 0], [ 9E9, 9E9, 9E9, 9E9, 9E9, 9E9] ], v30, fine, pen\WObj:=platform;
    MoveL [ [0.210, -13.461, 48.462], [0.124, -0.962, -0.244, 0.000], [0, 0, 0, 0], [ 9E9, 9E9, 9E9, 9E9, 9E9, 9E9] ], v1000, fine, pen\WObj:=platform;
    
    !!-2.7515359129039183, -1.6730999999999996;
    MoveL [ [0.237, -13.410, 48.501], [0.122, -0.962, -0.245, 0.000], [0, 0, 0, 0], [ 9E9, 9E9, 9E9, 9E9, 9E9, 9E9] ], v1000, fine, pen\WObj:=platform;
    MoveL [ [-2.752, -1.673, -0.010], [0.122, -0.962, -0.245, 0.000], [0, 0, 0, 0], [ 9E9, 9E9, 9E9, 9E9, 9E9, 9E9] ], v30, fine, pen\WObj:=platform;
    MoveL [ [0.237, -13.410, 48.501], [0.122, -0.962, -0.245, 0.000], [0, 0, 0, 0], [ 9E9, 9E9, 9E9, 9E9, 9E9, 9E9] ], v1000, fine, pen\WObj:=platform;
    
    !!-2.810079230199747, -1.7745;
    MoveL [ [0.246, -13.336, 48.539], [0.120, -0.960, -0.254, 0.000], [0, 0, 0, 0], [ 9E9, 9E9, 9E9, 9E9, 9E9, 9E9] ], v1000, fine, pen\WObj:=platform;
    MoveL [ [-2.810, -1.774, -0.010], [0.120, -0.960, -0.254, 0.000], [0, 0, 0, 0], [ 9E9, 9E9, 9E9, 9E9, 9E9, 9E9] ], v30, fine, pen\WObj:=platform;
    MoveL [ [0.246, -13.336, 48.539], [0.120, -0.960, -0.254, 0.000], [0, 0, 0, 0], [ 9E9, 9E9, 9E9, 9E9, 9E9, 9E9] ], v1000, fine, pen\WObj:=platform;
    
    !!-2.7515359129039183, -1.8758999999999997;
    MoveL [ [0.273, -13.284, 48.577], [0.119, -0.960, -0.254, 0.000], [0, 0, 0, 0], [ 9E9, 9E9, 9E9, 9E9, 9E9, 9E9] ], v1000, fine, pen\WObj:=platform;
    MoveL [ [-2.752, -1.876, -0.010], [0.119, -0.960, -0.254, 0.000], [0, 0, 0, 0], [ 9E9, 9E9, 9E9, 9E9, 9E9, 9E9] ], v30, fine, pen\WObj:=platform;
    MoveL [ [0.273, -13.284, 48.577], [0.119, -0.960, -0.254, 0.000], [0, 0, 0, 0], [ 9E9, 9E9, 9E9, 9E9, 9E9, 9E9] ], v1000, fine, pen\WObj:=platform;
    
    !!-2.810079230199747, -1.9773;
    MoveL [ [0.282, -13.210, 48.614], [0.117, -0.957, -0.264, 0.000], [0, 0, 0, 0], [ 9E9, 9E9, 9E9, 9E9, 9E9, 9E9] ], v1000, fine, pen\WObj:=platform;
    MoveL [ [-2.810, -1.977, -0.010], [0.117, -0.957, -0.264, 0.000], [0, 0, 0, 0], [ 9E9, 9E9, 9E9, 9E9, 9E9, 9E9] ], v30, fine, pen\WObj:=platform;
    MoveL [ [0.282, -13.210, 48.614], [0.117, -0.957, -0.264, 0.000], [0, 0, 0, 0], [ 9E9, 9E9, 9E9, 9E9, 9E9, 9E9] ], v1000, fine, pen\WObj:=platform;
    
    !!-2.7515359129039183, -2.0786999999999995;
    MoveL [ [0.309, -13.157, 48.651], [0.116, -0.957, -0.265, 0.000], [0, 0, 0, 0], [ 9E9, 9E9, 9E9, 9E9, 9E9, 9E9] ], v1000, fine, pen\WObj:=platform;
    MoveL [ [-2.752, -2.079, -0.010], [0.116, -0.957, -0.265, 0.000], [0, 0, 0, 0], [ 9E9, 9E9, 9E9, 9E9, 9E9, 9E9] ], v30, fine, pen\WObj:=platform;
    MoveL [ [0.309, -13.157, 48.651], [0.116, -0.957, -0.265, 0.000], [0, 0, 0, 0], [ 9E9, 9E9, 9E9, 9E9, 9E9, 9E9] ], v1000, fine, pen\WObj:=platform;
    
    !!-2.810079230199747, -2.1801;
    MoveL [ [0.318, -13.082, 48.687], [0.114, -0.955, -0.274, 0.000], [0, 0, 0, 0], [ 9E9, 9E9, 9E9, 9E9, 9E9, 9E9] ], v1000, fine, pen\WObj:=platform;
    MoveL [ [-2.810, -2.180, -0.010], [0.114, -0.955, -0.274, 0.000], [0, 0, 0, 0], [ 9E9, 9E9, 9E9, 9E9, 9E9, 9E9] ], v30, fine, pen\WObj:=platform;
    MoveL [ [0.318, -13.082, 48.687], [0.114, -0.955, -0.274, 0.000], [0, 0, 0, 0], [ 9E9, 9E9, 9E9, 9E9, 9E9, 9E9] ], v1000, fine, pen\WObj:=platform;
    
    !!-2.7515359129039183, -2.2815000000000003;
    MoveL [ [0.345, -13.028, 48.723], [0.113, -0.955, -0.275, 0.000], [0, 0, 0, 0], [ 9E9, 9E9, 9E9, 9E9, 9E9, 9E9] ], v1000, fine, pen\WObj:=platform;
    MoveL [ [-2.752, -2.282, -0.010], [0.113, -0.955, -0.275, 0.000], [0, 0, 0, 0], [ 9E9, 9E9, 9E9, 9E9, 9E9, 9E9] ], v30, fine, pen\WObj:=platform;
    MoveL [ [0.345, -13.028, 48.723], [0.113, -0.955, -0.275, 0.000], [0, 0, 0, 0], [ 9E9, 9E9, 9E9, 9E9, 9E9, 9E9] ], v1000, fine, pen\WObj:=platform;
    
    !!-2.810079230199747, -2.3829000000000002;
    MoveL [ [0.355, -12.953, 48.757], [0.111, -0.952, -0.285, 0.000], [0, 0, 0, 0], [ 9E9, 9E9, 9E9, 9E9, 9E9, 9E9] ], v1000, fine, pen\WObj:=platform;
    MoveL [ [-2.810, -2.383, -0.010], [0.111, -0.952, -0.285, 0.000], [0, 0, 0, 0], [ 9E9, 9E9, 9E9, 9E9, 9E9, 9E9] ], v30, fine, pen\WObj:=platform;
    MoveL [ [0.355, -12.953, 48.757], [0.111, -0.952, -0.285, 0.000], [0, 0, 0, 0], [ 9E9, 9E9, 9E9, 9E9, 9E9, 9E9] ], v1000, fine, pen\WObj:=platform;
    
    !!-2.7515359129039183, -2.4843;
    MoveL [ [0.382, -12.898, 48.793], [0.109, -0.952, -0.286, 0.000], [0, 0, 0, 0], [ 9E9, 9E9, 9E9, 9E9, 9E9, 9E9] ], v1000, fine, pen\WObj:=platform;
    MoveL [ [-2.752, -2.484, -0.010], [0.109, -0.952, -0.286, 0.000], [0, 0, 0, 0], [ 9E9, 9E9, 9E9, 9E9, 9E9, 9E9] ], v30, fine, pen\WObj:=platform;
    MoveL [ [0.382, -12.898, 48.793], [0.109, -0.952, -0.286, 0.000], [0, 0, 0, 0], [ 9E9, 9E9, 9E9, 9E9, 9E9, 9E9] ], v1000, fine, pen\WObj:=platform;
    
    !!-2.810079230199747, -2.5857;
    MoveL [ [0.391, -12.822, 48.826], [0.108, -0.949, -0.297, 0.000], [0, 0, 0, 0], [ 9E9, 9E9, 9E9, 9E9, 9E9, 9E9] ], v1000, fine, pen\WObj:=platform;
    MoveL [ [-2.810, -2.586, -0.010], [0.108, -0.949, -0.297, 0.000], [0, 0, 0, 0], [ 9E9, 9E9, 9E9, 9E9, 9E9, 9E9] ], v30, fine, pen\WObj:=platform;
    MoveL [ [0.391, -12.822, 48.826], [0.108, -0.949, -0.297, 0.000], [0, 0, 0, 0], [ 9E9, 9E9, 9E9, 9E9, 9E9, 9E9] ], v1000, fine, pen\WObj:=platform;
    
    !!-2.7515359129039183, -2.6871;
    MoveL [ [0.418, -12.767, 48.861], [0.106, -0.949, -0.298, 0.000], [0, 0, 0, 0], [ 9E9, 9E9, 9E9, 9E9, 9E9, 9E9] ], v1000, fine, pen\WObj:=platform;
    MoveL [ [-2.752, -2.687, -0.010], [0.106, -0.949, -0.298, 0.000], [0, 0, 0, 0], [ 9E9, 9E9, 9E9, 9E9, 9E9, 9E9] ], v30, fine, pen\WObj:=platform;
    MoveL [ [0.418, -12.767, 48.861], [0.106, -0.949, -0.298, 0.000], [0, 0, 0, 0], [ 9E9, 9E9, 9E9, 9E9, 9E9, 9E9] ], v1000, fine, pen\WObj:=platform;
    
    !!-2.810079230199747, -2.7885;
    MoveL [ [0.427, -12.689, 48.893], [0.105, -0.945, -0.309, 0.000], [0, 0, 0, 0], [ 9E9, 9E9, 9E9, 9E9, 9E9, 9E9] ], v1000, fine, pen\WObj:=platform;
    MoveL [ [-2.810, -2.788, -0.010], [0.105, -0.945, -0.309, 0.000], [0, 0, 0, 0], [ 9E9, 9E9, 9E9, 9E9, 9E9, 9E9] ], v30, fine, pen\WObj:=platform;
    MoveL [ [0.427, -12.689, 48.893], [0.105, -0.945, -0.309, 0.000], [0, 0, 0, 0], [ 9E9, 9E9, 9E9, 9E9, 9E9, 9E9] ], v1000, fine, pen\WObj:=platform;
    
    !!-2.7515359129039183, -2.8899;
    MoveL [ [0.455, -12.634, 48.927], [0.103, -0.945, -0.311, 0.000], [0, 0, 0, 0], [ 9E9, 9E9, 9E9, 9E9, 9E9, 9E9] ], v1000, fine, pen\WObj:=platform;
    MoveL [ [-2.752, -2.890, -0.010], [0.103, -0.945, -0.311, 0.000], [0, 0, 0, 0], [ 9E9, 9E9, 9E9, 9E9, 9E9, 9E9] ], v30, fine, pen\WObj:=platform;
    MoveL [ [0.455, -12.634, 48.927], [0.103, -0.945, -0.311, 0.000], [0, 0, 0, 0], [ 9E9, 9E9, 9E9, 9E9, 9E9, 9E9] ], v1000, fine, pen\WObj:=platform;
    
    !!-2.810079230199747, -2.9913;
    MoveL [ [0.464, -12.556, 48.957], [0.102, -0.941, -0.322, 0.000], [0, 0, 0, 0], [ 9E9, 9E9, 9E9, 9E9, 9E9, 9E9] ], v1000, fine, pen\WObj:=platform;
    MoveL [ [-2.810, -2.991, -0.010], [0.102, -0.941, -0.322, 0.000], [0, 0, 0, 0], [ 9E9, 9E9, 9E9, 9E9, 9E9, 9E9] ], v30, fine, pen\WObj:=platform;
    MoveL [ [0.464, -12.556, 48.957], [0.102, -0.941, -0.322, 0.000], [0, 0, 0, 0], [ 9E9, 9E9, 9E9, 9E9, 9E9, 9E9] ], v1000, fine, pen\WObj:=platform;
    
    !!-2.7515359129039183, -3.0926999999999993;
    MoveL [ [0.491, -12.499, 48.990], [0.100, -0.941, -0.324, 0.000], [0, 0, 0, 0], [ 9E9, 9E9, 9E9, 9E9, 9E9, 9E9] ], v1000, fine, pen\WObj:=platform;
    MoveL [ [-2.752, -3.093, -0.010], [0.100, -0.941, -0.324, 0.000], [0, 0, 0, 0], [ 9E9, 9E9, 9E9, 9E9, 9E9, 9E9] ], v30, fine, pen\WObj:=platform;
    MoveL [ [0.491, -12.499, 48.990], [0.100, -0.941, -0.324, 0.000], [0, 0, 0, 0], [ 9E9, 9E9, 9E9, 9E9, 9E9, 9E9] ], v1000, fine, pen\WObj:=platform;
    
    !!-2.810079230199747, -3.1941;
    MoveL [ [0.501, -12.421, 49.020], [0.099, -0.937, -0.336, 0.000], [0, 0, 0, 0], [ 9E9, 9E9, 9E9, 9E9, 9E9, 9E9] ], v1000, fine, pen\WObj:=platform;
    MoveL [ [-2.810, -3.194, -0.010], [0.099, -0.937, -0.336, 0.000], [0, 0, 0, 0], [ 9E9, 9E9, 9E9, 9E9, 9E9, 9E9] ], v30, fine, pen\WObj:=platform;
    MoveL [ [0.501, -12.421, 49.020], [0.099, -0.937, -0.336, 0.000], [0, 0, 0, 0], [ 9E9, 9E9, 9E9, 9E9, 9E9, 9E9] ], v1000, fine, pen\WObj:=platform;
    
    !!-2.7515359129039183, -3.2955;
    MoveL [ [0.528, -12.364, 49.051], [0.097, -0.936, -0.338, 0.000], [0, 0, 0, 0], [ 9E9, 9E9, 9E9, 9E9, 9E9, 9E9] ], v1000, fine, pen\WObj:=platform;
    MoveL [ [-2.752, -3.296, -0.010], [0.097, -0.936, -0.338, 0.000], [0, 0, 0, 0], [ 9E9, 9E9, 9E9, 9E9, 9E9, 9E9] ], v30, fine, pen\WObj:=platform;
    MoveL [ [0.528, -12.364, 49.051], [0.097, -0.936, -0.338, 0.000], [0, 0, 0, 0], [ 9E9, 9E9, 9E9, 9E9, 9E9, 9E9] ], v1000, fine, pen\WObj:=platform;
    
    !!-2.810079230199747, -3.3969000000000005;
    MoveL [ [0.538, -12.284, 49.080], [0.095, -0.932, -0.351, 0.000], [0, 0, 0, 0], [ 9E9, 9E9, 9E9, 9E9, 9E9, 9E9] ], v1000, fine, pen\WObj:=platform;
    MoveL [ [-2.810, -3.397, -0.010], [0.095, -0.932, -0.351, 0.000], [0, 0, 0, 0], [ 9E9, 9E9, 9E9, 9E9, 9E9, 9E9] ], v30, fine, pen\WObj:=platform;
    MoveL [ [0.538, -12.284, 49.080], [0.095, -0.932, -0.351, 0.000], [0, 0, 0, 0], [ 9E9, 9E9, 9E9, 9E9, 9E9, 9E9] ], v1000, fine, pen\WObj:=platform;
    
    !!-2.7515359129039183, -3.4982999999999995;
    MoveL [ [0.565, -12.227, 49.110], [0.094, -0.931, -0.354, 0.000], [0, 0, 0, 0], [ 9E9, 9E9, 9E9, 9E9, 9E9, 9E9] ], v1000, fine, pen\WObj:=platform;
    MoveL [ [-2.752, -3.498, -0.010], [0.094, -0.931, -0.354, 0.000], [0, 0, 0, 0], [ 9E9, 9E9, 9E9, 9E9, 9E9, 9E9] ], v30, fine, pen\WObj:=platform;
    MoveL [ [0.565, -12.227, 49.110], [0.094, -0.931, -0.354, 0.000], [0, 0, 0, 0], [ 9E9, 9E9, 9E9, 9E9, 9E9, 9E9] ], v1000, fine, pen\WObj:=platform;
    
    !!-2.810079230199747, -3.599700000000001;
    MoveL [ [0.574, -12.147, 49.138], [0.092, -0.926, -0.367, 0.000], [0, 0, 0, 0], [ 9E9, 9E9, 9E9, 9E9, 9E9, 9E9] ], v1000, fine, pen\WObj:=platform;
    MoveL [ [-2.810, -3.600, -0.010], [0.092, -0.926, -0.367, 0.000], [0, 0, 0, 0], [ 9E9, 9E9, 9E9, 9E9, 9E9, 9E9] ], v30, fine, pen\WObj:=platform;
    MoveL [ [0.574, -12.147, 49.138], [0.092, -0.926, -0.367, 0.000], [0, 0, 0, 0], [ 9E9, 9E9, 9E9, 9E9, 9E9, 9E9] ], v1000, fine, pen\WObj:=platform;
    
    !!-2.7515359129039183, -3.7011;
    MoveL [ [0.602, -12.088, 49.167], [0.091, -0.925, -0.370, 0.000], [0, 0, 0, 0], [ 9E9, 9E9, 9E9, 9E9, 9E9, 9E9] ], v1000, fine, pen\WObj:=platform;
    MoveL [ [-2.752, -3.701, -0.010], [0.091, -0.925, -0.370, 0.000], [0, 0, 0, 0], [ 9E9, 9E9, 9E9, 9E9, 9E9, 9E9] ], v30, fine, pen\WObj:=platform;
    MoveL [ [0.602, -12.088, 49.167], [0.091, -0.925, -0.370, 0.000], [0, 0, 0, 0], [ 9E9, 9E9, 9E9, 9E9, 9E9, 9E9] ], v1000, fine, pen\WObj:=platform;
    
    !!-2.810079230199747, -3.8024999999999998;
    MoveL [ [0.611, -12.008, 49.193], [0.089, -0.919, -0.383, 0.000], [0, 0, 0, 0], [ 9E9, 9E9, 9E9, 9E9, 9E9, 9E9] ], v1000, fine, pen\WObj:=platform;
    MoveL [ [-2.810, -3.802, -0.010], [0.089, -0.919, -0.383, 0.000], [0, 0, 0, 0], [ 9E9, 9E9, 9E9, 9E9, 9E9, 9E9] ], v30, fine, pen\WObj:=platform;
    MoveL [ [0.611, -12.008, 49.193], [0.089, -0.919, -0.383, 0.000], [0, 0, 0, 0], [ 9E9, 9E9, 9E9, 9E9, 9E9, 9E9] ], v1000, fine, pen\WObj:=platform;
    
    !!-2.7515359129039183, -3.9039;
    MoveL [ [0.639, -11.949, 49.222], [0.088, -0.918, -0.387, 0.000], [0, 0, 0, 0], [ 9E9, 9E9, 9E9, 9E9, 9E9, 9E9] ], v1000, fine, pen\WObj:=platform;
    MoveL [ [-2.752, -3.904, -0.010], [0.088, -0.918, -0.387, 0.000], [0, 0, 0, 0], [ 9E9, 9E9, 9E9, 9E9, 9E9, 9E9] ], v30, fine, pen\WObj:=platform;
    MoveL [ [0.639, -11.949, 49.222], [0.088, -0.918, -0.387, 0.000], [0, 0, 0, 0], [ 9E9, 9E9, 9E9, 9E9, 9E9, 9E9] ], v1000, fine, pen\WObj:=platform;
    
    !!-2.810079230199747, -4.0053;
    MoveL [ [0.648, -11.868, 49.247], [0.086, -0.912, -0.401, 0.000], [0, 0, 0, 0], [ 9E9, 9E9, 9E9, 9E9, 9E9, 9E9] ], v1000, fine, pen\WObj:=platform;
    MoveL [ [-2.810, -4.005, -0.010], [0.086, -0.912, -0.401, 0.000], [0, 0, 0, 0], [ 9E9, 9E9, 9E9, 9E9, 9E9, 9E9] ], v30, fine, pen\WObj:=platform;
    MoveL [ [0.648, -11.868, 49.247], [0.086, -0.912, -0.401, 0.000], [0, 0, 0, 0], [ 9E9, 9E9, 9E9, 9E9, 9E9, 9E9] ], v1000, fine, pen\WObj:=platform;
    
    !!-2.7515359129039183, -4.1067;
    MoveL [ [0.676, -11.809, 49.274], [0.085, -0.910, -0.405, 0.000], [0, 0, 0, 0], [ 9E9, 9E9, 9E9, 9E9, 9E9, 9E9] ], v1000, fine, pen\WObj:=platform;
    MoveL [ [-2.752, -4.107, -0.010], [0.085, -0.910, -0.405, 0.000], [0, 0, 0, 0], [ 9E9, 9E9, 9E9, 9E9, 9E9, 9E9] ], v30, fine, pen\WObj:=platform;
    MoveL [ [0.676, -11.809, 49.274], [0.085, -0.910, -0.405, 0.000], [0, 0, 0, 0], [ 9E9, 9E9, 9E9, 9E9, 9E9, 9E9] ], v1000, fine, pen\WObj:=platform;
    
    !!-2.810079230199747, -4.2081;
    MoveL [ [0.686, -11.727, 49.298], [0.083, -0.904, -0.420, 0.000], [0, 0, 0, 0], [ 9E9, 9E9, 9E9, 9E9, 9E9, 9E9] ], v1000, fine, pen\WObj:=platform;
    MoveL [ [-2.810, -4.208, -0.010], [0.083, -0.904, -0.420, 0.000], [0, 0, 0, 0], [ 9E9, 9E9, 9E9, 9E9, 9E9, 9E9] ], v30, fine, pen\WObj:=platform;
    MoveL [ [0.686, -11.727, 49.298], [0.083, -0.904, -0.420, 0.000], [0, 0, 0, 0], [ 9E9, 9E9, 9E9, 9E9, 9E9, 9E9] ], v1000, fine, pen\WObj:=platform;
    
    !!-2.7515359129039183, -4.3095;
    MoveL [ [0.713, -11.667, 49.324], [0.082, -0.902, -0.425, 0.000], [0, 0, 0, 0], [ 9E9, 9E9, 9E9, 9E9, 9E9, 9E9] ], v1000, fine, pen\WObj:=platform;
    MoveL [ [-2.752, -4.309, -0.010], [0.082, -0.902, -0.425, 0.000], [0, 0, 0, 0], [ 9E9, 9E9, 9E9, 9E9, 9E9, 9E9] ], v30, fine, pen\WObj:=platform;
    MoveL [ [0.713, -11.667, 49.324], [0.082, -0.902, -0.425, 0.000], [0, 0, 0, 0], [ 9E9, 9E9, 9E9, 9E9, 9E9, 9E9] ], v1000, fine, pen\WObj:=platform;
    
    !!-2.810079230199747, -4.4109;
    MoveL [ [0.723, -11.585, 49.346], [0.080, -0.894, -0.440, 0.000], [0, 0, 0, 0], [ 9E9, 9E9, 9E9, 9E9, 9E9, 9E9] ], v1000, fine, pen\WObj:=platform;
    MoveL [ [-2.810, -4.411, -0.010], [0.080, -0.894, -0.440, 0.000], [0, 0, 0, 0], [ 9E9, 9E9, 9E9, 9E9, 9E9, 9E9] ], v30, fine, pen\WObj:=platform;
    MoveL [ [0.723, -11.585, 49.346], [0.080, -0.894, -0.440, 0.000], [0, 0, 0, 0], [ 9E9, 9E9, 9E9, 9E9, 9E9, 9E9] ], v1000, fine, pen\WObj:=platform;
    
    !!-2.7515359129039183, -4.5123;
    MoveL [ [0.750, -11.524, 49.372], [0.079, -0.892, -0.445, 0.000], [0, 0, 0, 0], [ 9E9, 9E9, 9E9, 9E9, 9E9, 9E9] ], v1000, fine, pen\WObj:=platform;
    MoveL [ [-2.752, -4.512, -0.010], [0.079, -0.892, -0.445, 0.000], [0, 0, 0, 0], [ 9E9, 9E9, 9E9, 9E9, 9E9, 9E9] ], v30, fine, pen\WObj:=platform;
    MoveL [ [0.750, -11.524, 49.372], [0.079, -0.892, -0.445, 0.000], [0, 0, 0, 0], [ 9E9, 9E9, 9E9, 9E9, 9E9, 9E9] ], v1000, fine, pen\WObj:=platform;
    
    !!-2.810079230199747, -4.613700000000001;
    MoveL [ [0.760, -11.442, 49.393], [0.077, -0.884, -0.462, 0.000], [0, 0, 0, 0], [ 9E9, 9E9, 9E9, 9E9, 9E9, 9E9] ], v1000, fine, pen\WObj:=platform;
    MoveL [ [-2.810, -4.614, -0.010], [0.077, -0.884, -0.462, 0.000], [0, 0, 0, 0], [ 9E9, 9E9, 9E9, 9E9, 9E9, 9E9] ], v30, fine, pen\WObj:=platform;
    MoveL [ [0.760, -11.442, 49.393], [0.077, -0.884, -0.462, 0.000], [0, 0, 0, 0], [ 9E9, 9E9, 9E9, 9E9, 9E9, 9E9] ], v1000, fine, pen\WObj:=platform;
    
    !!-2.7515359129039183, -4.715100000000001;
    MoveL [ [0.787, -11.381, 49.417], [0.076, -0.881, -0.468, 0.000], [0, 0, 0, 0], [ 9E9, 9E9, 9E9, 9E9, 9E9, 9E9] ], v1000, fine, pen\WObj:=platform;
    MoveL [ [-2.752, -4.715, -0.010], [0.076, -0.881, -0.468, 0.000], [0, 0, 0, 0], [ 9E9, 9E9, 9E9, 9E9, 9E9, 9E9] ], v30, fine, pen\WObj:=platform;
    MoveL [ [0.787, -11.381, 49.417], [0.076, -0.881, -0.468, 0.000], [0, 0, 0, 0], [ 9E9, 9E9, 9E9, 9E9, 9E9, 9E9] ], v1000, fine, pen\WObj:=platform;
    
    !!-2.810079230199747, -4.8165000000000004;
    MoveL [ [0.797, -11.298, 49.437], [0.074, -0.871, -0.485, 0.000], [0, 0, 0, 0], [ 9E9, 9E9, 9E9, 9E9, 9E9, 9E9] ], v1000, fine, pen\WObj:=platform;
    MoveL [ [-2.810, -4.817, -0.010], [0.074, -0.871, -0.485, 0.000], [0, 0, 0, 0], [ 9E9, 9E9, 9E9, 9E9, 9E9, 9E9] ], v30, fine, pen\WObj:=platform;
    MoveL [ [0.797, -11.298, 49.437], [0.074, -0.871, -0.485, 0.000], [0, 0, 0, 0], [ 9E9, 9E9, 9E9, 9E9, 9E9, 9E9] ], v1000, fine, pen\WObj:=platform;
    
    !!-2.7515359129039183, -4.9179;
    MoveL [ [0.824, -11.236, 49.460], [0.073, -0.868, -0.491, 0.000], [0, 0, 0, 0], [ 9E9, 9E9, 9E9, 9E9, 9E9, 9E9] ], v1000, fine, pen\WObj:=platform;
    MoveL [ [-2.752, -4.918, -0.010], [0.073, -0.868, -0.491, 0.000], [0, 0, 0, 0], [ 9E9, 9E9, 9E9, 9E9, 9E9, 9E9] ], v30, fine, pen\WObj:=platform;
    MoveL [ [0.824, -11.236, 49.460], [0.073, -0.868, -0.491, 0.000], [0, 0, 0, 0], [ 9E9, 9E9, 9E9, 9E9, 9E9, 9E9] ], v1000, fine, pen\WObj:=platform;
    
    !!-2.810079230199747, -5.019299999999999;
    MoveL [ [0.834, -11.153, 49.478], [0.072, -0.857, -0.509, 0.000], [0, 0, 0, 0], [ 9E9, 9E9, 9E9, 9E9, 9E9, 9E9] ], v1000, fine, pen\WObj:=platform;
    MoveL [ [-2.810, -5.019, -0.010], [0.072, -0.857, -0.509, 0.000], [0, 0, 0, 0], [ 9E9, 9E9, 9E9, 9E9, 9E9, 9E9] ], v30, fine, pen\WObj:=platform;
    MoveL [ [0.834, -11.153, 49.478], [0.072, -0.857, -0.509, 0.000], [0, 0, 0, 0], [ 9E9, 9E9, 9E9, 9E9, 9E9, 9E9] ], v1000, fine, pen\WObj:=platform;
    
    !!-2.7515359129039183, -5.1207;
    MoveL [ [0.862, -11.091, 49.501], [0.070, -0.853, -0.517, 0.000], [0, 0, 0, 0], [ 9E9, 9E9, 9E9, 9E9, 9E9, 9E9] ], v1000, fine, pen\WObj:=platform;
    MoveL [ [-2.752, -5.121, -0.010], [0.070, -0.853, -0.517, 0.000], [0, 0, 0, 0], [ 9E9, 9E9, 9E9, 9E9, 9E9, 9E9] ], v30, fine, pen\WObj:=platform;
    MoveL [ [0.862, -11.091, 49.501], [0.070, -0.853, -0.517, 0.000], [0, 0, 0, 0], [ 9E9, 9E9, 9E9, 9E9, 9E9, 9E9] ], v1000, fine, pen\WObj:=platform;
    
    !!-2.810079230199747, -5.222100000000001;
    MoveL [ [0.871, -11.007, 49.518], [0.069, -0.842, -0.536, 0.000], [0, 0, 0, 0], [ 9E9, 9E9, 9E9, 9E9, 9E9, 9E9] ], v1000, fine, pen\WObj:=platform;
    MoveL [ [-2.810, -5.222, -0.010], [0.069, -0.842, -0.536, 0.000], [0, 0, 0, 0], [ 9E9, 9E9, 9E9, 9E9, 9E9, 9E9] ], v30, fine, pen\WObj:=platform;
    MoveL [ [0.871, -11.007, 49.518], [0.069, -0.842, -0.536, 0.000], [0, 0, 0, 0], [ 9E9, 9E9, 9E9, 9E9, 9E9, 9E9] ], v1000, fine, pen\WObj:=platform;
    
    !!-2.7515359129039183, -5.323500000000001;
    MoveL [ [0.899, -10.944, 49.539], [0.067, -0.837, -0.543, 0.000], [0, 0, 0, 0], [ 9E9, 9E9, 9E9, 9E9, 9E9, 9E9] ], v1000, fine, pen\WObj:=platform;
    MoveL [ [-2.752, -5.324, -0.010], [0.067, -0.837, -0.543, 0.000], [0, 0, 0, 0], [ 9E9, 9E9, 9E9, 9E9, 9E9, 9E9] ], v30, fine, pen\WObj:=platform;
    MoveL [ [0.899, -10.944, 49.539], [0.067, -0.837, -0.543, 0.000], [0, 0, 0, 0], [ 9E9, 9E9, 9E9, 9E9, 9E9, 9E9] ], v1000, fine, pen\WObj:=platform;
    
    !!-2.810079230199747, -5.4249;
    MoveL [ [0.908, -10.860, 49.554], [0.066, -0.824, -0.563, 0.000], [0, 0, 0, 0], [ 9E9, 9E9, 9E9, 9E9, 9E9, 9E9] ], v1000, fine, pen\WObj:=platform;
    MoveL [ [-2.810, -5.425, -0.010], [0.066, -0.824, -0.563, 0.000], [0, 0, 0, 0], [ 9E9, 9E9, 9E9, 9E9, 9E9, 9E9] ], v30, fine, pen\WObj:=platform;
    MoveL [ [0.908, -10.860, 49.554], [0.066, -0.824, -0.563, 0.000], [0, 0, 0, 0], [ 9E9, 9E9, 9E9, 9E9, 9E9, 9E9] ], v1000, fine, pen\WObj:=platform;
    
    !!-2.7515359129039183, -5.526299999999999;
    MoveL [ [0.936, -10.797, 49.574], [0.064, -0.818, -0.572, 0.000], [0, 0, 0, 0], [ 9E9, 9E9, 9E9, 9E9, 9E9, 9E9] ], v1000, fine, pen\WObj:=platform;
    MoveL [ [-2.752, -5.526, -0.010], [0.064, -0.818, -0.572, 0.000], [0, 0, 0, 0], [ 9E9, 9E9, 9E9, 9E9, 9E9, 9E9] ], v30, fine, pen\WObj:=platform;
    MoveL [ [0.936, -10.797, 49.574], [0.064, -0.818, -0.572, 0.000], [0, 0, 0, 0], [ 9E9, 9E9, 9E9, 9E9, 9E9, 9E9] ], v1000, fine, pen\WObj:=platform;
    
    !!-2.810079230199747, -5.6277;
    MoveL [ [0.946, -10.712, 49.589], [0.063, -0.803, -0.593, 0.000], [0, 0, 0, 0], [ 9E9, 9E9, 9E9, 9E9, 9E9, 9E9] ], v1000, fine, pen\WObj:=platform;
    MoveL [ [-2.810, -5.628, -0.010], [0.063, -0.803, -0.593, 0.000], [0, 0, 0, 0], [ 9E9, 9E9, 9E9, 9E9, 9E9, 9E9] ], v30, fine, pen\WObj:=platform;
    MoveL [ [0.946, -10.712, 49.589], [0.063, -0.803, -0.593, 0.000], [0, 0, 0, 0], [ 9E9, 9E9, 9E9, 9E9, 9E9, 9E9] ], v1000, fine, pen\WObj:=platform;
    
    !!-2.7515359129039183, -5.729100000000001;
    MoveL [ [0.973, -10.649, 49.608], [0.062, -0.796, -0.602, 0.000], [0, 0, 0, 0], [ 9E9, 9E9, 9E9, 9E9, 9E9, 9E9] ], v1000, fine, pen\WObj:=platform;
    MoveL [ [-2.752, -5.729, -0.010], [0.062, -0.796, -0.602, 0.000], [0, 0, 0, 0], [ 9E9, 9E9, 9E9, 9E9, 9E9, 9E9] ], v30, fine, pen\WObj:=platform;
    MoveL [ [0.973, -10.649, 49.608], [0.062, -0.796, -0.602, 0.000], [0, 0, 0, 0], [ 9E9, 9E9, 9E9, 9E9, 9E9, 9E9] ], v1000, fine, pen\WObj:=platform;
    
    !!-2.810079230199747, -5.830500000000001;
    MoveL [ [0.983, -10.564, 49.621], [0.061, -0.779, -0.624, 0.000], [0, 0, 0, 0], [ 9E9, 9E9, 9E9, 9E9, 9E9, 9E9] ], v1000, fine, pen\WObj:=platform;
    MoveL [ [-2.810, -5.831, -0.010], [0.061, -0.779, -0.624, 0.000], [0, 0, 0, 0], [ 9E9, 9E9, 9E9, 9E9, 9E9, 9E9] ], v30, fine, pen\WObj:=platform;
    MoveL [ [0.983, -10.564, 49.621], [0.061, -0.779, -0.624, 0.000], [0, 0, 0, 0], [ 9E9, 9E9, 9E9, 9E9, 9E9, 9E9] ], v1000, fine, pen\WObj:=platform;
    
    !!-2.7515359129039183, -5.9319;
    MoveL [ [1.010, -10.500, 49.639], [0.059, -0.771, -0.635, 0.000], [0, 0, 0, 0], [ 9E9, 9E9, 9E9, 9E9, 9E9, 9E9] ], v1000, fine, pen\WObj:=platform;
    MoveL [ [-2.752, -5.932, -0.010], [0.059, -0.771, -0.635, 0.000], [0, 0, 0, 0], [ 9E9, 9E9, 9E9, 9E9, 9E9, 9E9] ], v30, fine, pen\WObj:=platform;
    MoveL [ [1.010, -10.500, 49.639], [0.059, -0.771, -0.635, 0.000], [0, 0, 0, 0], [ 9E9, 9E9, 9E9, 9E9, 9E9, 9E9] ], v1000, fine, pen\WObj:=platform;
    
    !!-2.6929925956080907, 0.05070000000000019;
    MoveL [ [-0.052, -14.421, 47.777], [0.149, -0.973, -0.178, 0.000], [0, 0, 0, 0], [ 9E9, 9E9, 9E9, 9E9, 9E9, 9E9] ], v1000, fine, pen\WObj:=platform;
    MoveL [ [-2.693, 0.051, -0.010], [0.149, -0.973, -0.178, 0.000], [0, 0, 0, 0], [ 9E9, 9E9, 9E9, 9E9, 9E9, 9E9] ], v30, fine, pen\WObj:=platform;
    MoveL [ [-0.052, -14.421, 47.777], [0.149, -0.973, -0.178, 0.000], [0, 0, 0, 0], [ 9E9, 9E9, 9E9, 9E9, 9E9, 9E9] ], v1000, fine, pen\WObj:=platform;
    
    !!-2.6344492783122626, -0.05070000000000019;
    MoveL [ [3.609, -17.307, 46.501], [0.187, -0.924, -0.334, 0.000], [0, 0, 0, 0], [ 9E9, 9E9, 9E9, 9E9, 9E9, 9E9] ], v1000, fine, pen\WObj:=platform;
    MoveL [ [-2.634, -0.051, -0.010], [0.187, -0.924, -0.334, 0.000], [0, 0, 0, 0], [ 9E9, 9E9, 9E9, 9E9, 9E9, 9E9] ], v30, fine, pen\WObj:=platform;
    MoveL [ [3.609, -17.307, 46.501], [0.187, -0.924, -0.334, 0.000], [0, 0, 0, 0], [ 9E9, 9E9, 9E9, 9E9, 9E9, 9E9] ], v1000, fine, pen\WObj:=platform;
    
    !!-2.6929925956080907, -0.1521;
    MoveL [ [-0.018, -14.310, 47.869], [0.146, -0.972, -0.184, 0.000], [0, 0, 0, 0], [ 9E9, 9E9, 9E9, 9E9, 9E9, 9E9] ], v1000, fine, pen\WObj:=platform;
    MoveL [ [-2.693, -0.152, -0.010], [0.146, -0.972, -0.184, 0.000], [0, 0, 0, 0], [ 9E9, 9E9, 9E9, 9E9, 9E9, 9E9] ], v30, fine, pen\WObj:=platform;
    MoveL [ [-0.018, -14.310, 47.869], [0.146, -0.972, -0.184, 0.000], [0, 0, 0, 0], [ 9E9, 9E9, 9E9, 9E9, 9E9, 9E9] ], v1000, fine, pen\WObj:=platform;
    
    !!-2.6344492783122626, -0.2535000000000004;
    MoveL [ [0.008, -14.264, 47.914], [0.144, -0.972, -0.183, 0.000], [0, 0, 0, 0], [ 9E9, 9E9, 9E9, 9E9, 9E9, 9E9] ], v1000, fine, pen\WObj:=platform;
    MoveL [ [-2.634, -0.254, -0.010], [0.144, -0.972, -0.183, 0.000], [0, 0, 0, 0], [ 9E9, 9E9, 9E9, 9E9, 9E9, 9E9] ], v30, fine, pen\WObj:=platform;
    MoveL [ [0.008, -14.264, 47.914], [0.144, -0.972, -0.183, 0.000], [0, 0, 0, 0], [ 9E9, 9E9, 9E9, 9E9, 9E9, 9E9] ], v1000, fine, pen\WObj:=platform;
    
    !!-2.6929925956080907, -0.35489999999999966;
    MoveL [ [0.017, -14.197, 47.959], [0.143, -0.971, -0.190, 0.000], [0, 0, 0, 0], [ 9E9, 9E9, 9E9, 9E9, 9E9, 9E9] ], v1000, fine, pen\WObj:=platform;
    MoveL [ [-2.693, -0.355, -0.010], [0.143, -0.971, -0.190, 0.000], [0, 0, 0, 0], [ 9E9, 9E9, 9E9, 9E9, 9E9, 9E9] ], v30, fine, pen\WObj:=platform;
    MoveL [ [0.017, -14.197, 47.959], [0.143, -0.971, -0.190, 0.000], [0, 0, 0, 0], [ 9E9, 9E9, 9E9, 9E9, 9E9, 9E9] ], v1000, fine, pen\WObj:=platform;
    
    !!-2.6344492783122626, -0.45630000000000004;
    MoveL [ [3.734, -17.012, 46.738], [0.180, -0.918, -0.353, 0.000], [0, 0, 0, 0], [ 9E9, 9E9, 9E9, 9E9, 9E9, 9E9] ], v1000, fine, pen\WObj:=platform;
    MoveL [ [-2.634, -0.456, -0.010], [0.180, -0.918, -0.353, 0.000], [0, 0, 0, 0], [ 9E9, 9E9, 9E9, 9E9, 9E9, 9E9] ], v30, fine, pen\WObj:=platform;
    MoveL [ [3.734, -17.012, 46.738], [0.180, -0.918, -0.353, 0.000], [0, 0, 0, 0], [ 9E9, 9E9, 9E9, 9E9, 9E9, 9E9] ], v1000, fine, pen\WObj:=platform;
    
    !!-2.6929925956080907, -0.5576999999999999;
    MoveL [ [0.051, -14.082, 48.048], [0.139, -0.970, -0.197, 0.000], [0, 0, 0, 0], [ 9E9, 9E9, 9E9, 9E9, 9E9, 9E9] ], v1000, fine, pen\WObj:=platform;
    MoveL [ [-2.693, -0.558, -0.010], [0.139, -0.970, -0.197, 0.000], [0, 0, 0, 0], [ 9E9, 9E9, 9E9, 9E9, 9E9, 9E9] ], v30, fine, pen\WObj:=platform;
    MoveL [ [0.051, -14.082, 48.048], [0.139, -0.970, -0.197, 0.000], [0, 0, 0, 0], [ 9E9, 9E9, 9E9, 9E9, 9E9, 9E9] ], v1000, fine, pen\WObj:=platform;
    
    !!-2.6344492783122626, -0.6590999999999997;
    MoveL [ [0.077, -14.035, 48.091], [0.138, -0.971, -0.197, 0.000], [0, 0, 0, 0], [ 9E9, 9E9, 9E9, 9E9, 9E9, 9E9] ], v1000, fine, pen\WObj:=platform;
    MoveL [ [-2.634, -0.659, -0.010], [0.138, -0.971, -0.197, 0.000], [0, 0, 0, 0], [ 9E9, 9E9, 9E9, 9E9, 9E9, 9E9] ], v30, fine, pen\WObj:=platform;
    MoveL [ [0.077, -14.035, 48.091], [0.138, -0.971, -0.197, 0.000], [0, 0, 0, 0], [ 9E9, 9E9, 9E9, 9E9, 9E9, 9E9] ], v1000, fine, pen\WObj:=platform;
    
    !!-2.6929925956080907, -0.7604999999999997;
    MoveL [ [0.086, -13.966, 48.135], [0.136, -0.969, -0.204, 0.000], [0, 0, 0, 0], [ 9E9, 9E9, 9E9, 9E9, 9E9, 9E9] ], v1000, fine, pen\WObj:=platform;
    MoveL [ [-2.693, -0.760, -0.010], [0.136, -0.969, -0.204, 0.000], [0, 0, 0, 0], [ 9E9, 9E9, 9E9, 9E9, 9E9, 9E9] ], v30, fine, pen\WObj:=platform;
    MoveL [ [0.086, -13.966, 48.135], [0.136, -0.969, -0.204, 0.000], [0, 0, 0, 0], [ 9E9, 9E9, 9E9, 9E9, 9E9, 9E9] ], v1000, fine, pen\WObj:=platform;
    
    !!-2.6344492783122626, -0.8618999999999999;
    MoveL [ [3.859, -16.706, 46.967], [0.174, -0.911, -0.373, 0.000], [0, 0, 0, 0], [ 9E9, 9E9, 9E9, 9E9, 9E9, 9E9] ], v1000, fine, pen\WObj:=platform;
    MoveL [ [-2.634, -0.862, -0.010], [0.174, -0.911, -0.373, 0.000], [0, 0, 0, 0], [ 9E9, 9E9, 9E9, 9E9, 9E9, 9E9] ], v30, fine, pen\WObj:=platform;
    MoveL [ [3.859, -16.706, 46.967], [0.174, -0.911, -0.373, 0.000], [0, 0, 0, 0], [ 9E9, 9E9, 9E9, 9E9, 9E9, 9E9] ], v1000, fine, pen\WObj:=platform;
    
    !!-2.6929925956080907, -0.9633;
    MoveL [ [0.121, -13.847, 48.219], [0.133, -0.968, -0.212, 0.000], [0, 0, 0, 0], [ 9E9, 9E9, 9E9, 9E9, 9E9, 9E9] ], v1000, fine, pen\WObj:=platform;
    MoveL [ [-2.693, -0.963, -0.010], [0.133, -0.968, -0.212, 0.000], [0, 0, 0, 0], [ 9E9, 9E9, 9E9, 9E9, 9E9, 9E9] ], v30, fine, pen\WObj:=platform;
    MoveL [ [0.121, -13.847, 48.219], [0.133, -0.968, -0.212, 0.000], [0, 0, 0, 0], [ 9E9, 9E9, 9E9, 9E9, 9E9, 9E9] ], v1000, fine, pen\WObj:=platform;
    
    !!-2.6344492783122626, -1.0647000000000002;
    MoveL [ [0.148, -13.798, 48.261], [0.131, -0.968, -0.212, 0.000], [0, 0, 0, 0], [ 9E9, 9E9, 9E9, 9E9, 9E9, 9E9] ], v1000, fine, pen\WObj:=platform;
    MoveL [ [-2.634, -1.065, -0.010], [0.131, -0.968, -0.212, 0.000], [0, 0, 0, 0], [ 9E9, 9E9, 9E9, 9E9, 9E9, 9E9] ], v30, fine, pen\WObj:=platform;
    MoveL [ [0.148, -13.798, 48.261], [0.131, -0.968, -0.212, 0.000], [0, 0, 0, 0], [ 9E9, 9E9, 9E9, 9E9, 9E9, 9E9] ], v1000, fine, pen\WObj:=platform;
    
    !!-2.6929925956080907, -1.1661000000000001;
    MoveL [ [0.157, -13.728, 48.302], [0.130, -0.967, -0.219, 0.000], [0, 0, 0, 0], [ 9E9, 9E9, 9E9, 9E9, 9E9, 9E9] ], v1000, fine, pen\WObj:=platform;
    MoveL [ [-2.693, -1.166, -0.010], [0.130, -0.967, -0.219, 0.000], [0, 0, 0, 0], [ 9E9, 9E9, 9E9, 9E9, 9E9, 9E9] ], v30, fine, pen\WObj:=platform;
    MoveL [ [0.157, -13.728, 48.302], [0.130, -0.967, -0.219, 0.000], [0, 0, 0, 0], [ 9E9, 9E9, 9E9, 9E9, 9E9, 9E9] ], v1000, fine, pen\WObj:=platform;
    
    !!-2.6344492783122626, -1.2675000000000003;
    MoveL [ [3.984, -16.389, 47.187], [0.167, -0.903, -0.395, 0.000], [0, 0, 0, 0], [ 9E9, 9E9, 9E9, 9E9, 9E9, 9E9] ], v1000, fine, pen\WObj:=platform;
    MoveL [ [-2.634, -1.268, -0.010], [0.167, -0.903, -0.395, 0.000], [0, 0, 0, 0], [ 9E9, 9E9, 9E9, 9E9, 9E9, 9E9] ], v30, fine, pen\WObj:=platform;
    MoveL [ [3.984, -16.389, 47.187], [0.167, -0.903, -0.395, 0.000], [0, 0, 0, 0], [ 9E9, 9E9, 9E9, 9E9, 9E9, 9E9] ], v1000, fine, pen\WObj:=platform;
    
    !!-2.6929925956080907, -1.3688999999999998;
    MoveL [ [0.192, -13.606, 48.384], [0.127, -0.965, -0.228, 0.000], [0, 0, 0, 0], [ 9E9, 9E9, 9E9, 9E9, 9E9, 9E9] ], v1000, fine, pen\WObj:=platform;
    MoveL [ [-2.693, -1.369, -0.010], [0.127, -0.965, -0.228, 0.000], [0, 0, 0, 0], [ 9E9, 9E9, 9E9, 9E9, 9E9, 9E9] ], v30, fine, pen\WObj:=platform;
    MoveL [ [0.192, -13.606, 48.384], [0.127, -0.965, -0.228, 0.000], [0, 0, 0, 0], [ 9E9, 9E9, 9E9, 9E9, 9E9, 9E9] ], v1000, fine, pen\WObj:=platform;
    
    !!-2.6344492783122626, -1.4703;
    MoveL [ [0.219, -13.555, 48.424], [0.125, -0.966, -0.228, 0.000], [0, 0, 0, 0], [ 9E9, 9E9, 9E9, 9E9, 9E9, 9E9] ], v1000, fine, pen\WObj:=platform;
    MoveL [ [-2.634, -1.470, -0.010], [0.125, -0.966, -0.228, 0.000], [0, 0, 0, 0], [ 9E9, 9E9, 9E9, 9E9, 9E9, 9E9] ], v30, fine, pen\WObj:=platform;
    MoveL [ [0.219, -13.555, 48.424], [0.125, -0.966, -0.228, 0.000], [0, 0, 0, 0], [ 9E9, 9E9, 9E9, 9E9, 9E9, 9E9] ], v1000, fine, pen\WObj:=platform;
    
    !!-2.6929925956080907, -1.5717;
    MoveL [ [0.228, -13.483, 48.463], [0.124, -0.964, -0.236, 0.000], [0, 0, 0, 0], [ 9E9, 9E9, 9E9, 9E9, 9E9, 9E9] ], v1000, fine, pen\WObj:=platform;
    MoveL [ [-2.693, -1.572, -0.010], [0.124, -0.964, -0.236, 0.000], [0, 0, 0, 0], [ 9E9, 9E9, 9E9, 9E9, 9E9, 9E9] ], v30, fine, pen\WObj:=platform;
    MoveL [ [0.228, -13.483, 48.463], [0.124, -0.964, -0.236, 0.000], [0, 0, 0, 0], [ 9E9, 9E9, 9E9, 9E9, 9E9, 9E9] ], v1000, fine, pen\WObj:=platform;
    
    !!-2.6344492783122626, -1.6730999999999996;
    MoveL [ [4.110, -16.060, 47.398], [0.161, -0.894, -0.419, 0.000], [0, 0, 0, 0], [ 9E9, 9E9, 9E9, 9E9, 9E9, 9E9] ], v1000, fine, pen\WObj:=platform;
    MoveL [ [-2.634, -1.673, -0.010], [0.161, -0.894, -0.419, 0.000], [0, 0, 0, 0], [ 9E9, 9E9, 9E9, 9E9, 9E9, 9E9] ], v30, fine, pen\WObj:=platform;
    MoveL [ [4.110, -16.060, 47.398], [0.161, -0.894, -0.419, 0.000], [0, 0, 0, 0], [ 9E9, 9E9, 9E9, 9E9, 9E9, 9E9] ], v1000, fine, pen\WObj:=platform;
    
    !!-2.6929925956080907, -1.7745;
    MoveL [ [0.264, -13.358, 48.540], [0.120, -0.962, -0.246, 0.000], [0, 0, 0, 0], [ 9E9, 9E9, 9E9, 9E9, 9E9, 9E9] ], v1000, fine, pen\WObj:=platform;
    MoveL [ [-2.693, -1.774, -0.010], [0.120, -0.962, -0.246, 0.000], [0, 0, 0, 0], [ 9E9, 9E9, 9E9, 9E9, 9E9, 9E9] ], v30, fine, pen\WObj:=platform;
    MoveL [ [0.264, -13.358, 48.540], [0.120, -0.962, -0.246, 0.000], [0, 0, 0, 0], [ 9E9, 9E9, 9E9, 9E9, 9E9, 9E9] ], v1000, fine, pen\WObj:=platform;
    
    !!-2.6344492783122626, -1.8758999999999997;
    MoveL [ [0.290, -13.306, 48.578], [0.119, -0.962, -0.246, 0.000], [0, 0, 0, 0], [ 9E9, 9E9, 9E9, 9E9, 9E9, 9E9] ], v1000, fine, pen\WObj:=platform;
    MoveL [ [-2.634, -1.876, -0.010], [0.119, -0.962, -0.246, 0.000], [0, 0, 0, 0], [ 9E9, 9E9, 9E9, 9E9, 9E9, 9E9] ], v30, fine, pen\WObj:=platform;
    MoveL [ [0.290, -13.306, 48.578], [0.119, -0.962, -0.246, 0.000], [0, 0, 0, 0], [ 9E9, 9E9, 9E9, 9E9, 9E9, 9E9] ], v1000, fine, pen\WObj:=platform;
    
    !!-2.6929925956080907, -1.9773;
    MoveL [ [0.300, -13.231, 48.615], [0.117, -0.960, -0.255, 0.000], [0, 0, 0, 0], [ 9E9, 9E9, 9E9, 9E9, 9E9, 9E9] ], v1000, fine, pen\WObj:=platform;
    MoveL [ [-2.693, -1.977, -0.010], [0.117, -0.960, -0.255, 0.000], [0, 0, 0, 0], [ 9E9, 9E9, 9E9, 9E9, 9E9, 9E9] ], v30, fine, pen\WObj:=platform;
    MoveL [ [0.300, -13.231, 48.615], [0.117, -0.960, -0.255, 0.000], [0, 0, 0, 0], [ 9E9, 9E9, 9E9, 9E9, 9E9, 9E9] ], v1000, fine, pen\WObj:=platform;
    
    !!-2.6344492783122626, -2.0786999999999995;
    MoveL [ [4.235, -15.722, 47.600], [0.155, -0.882, -0.444, 0.000], [0, 0, 0, 0], [ 9E9, 9E9, 9E9, 9E9, 9E9, 9E9] ], v1000, fine, pen\WObj:=platform;
    MoveL [ [-2.634, -2.079, -0.010], [0.155, -0.882, -0.444, 0.000], [0, 0, 0, 0], [ 9E9, 9E9, 9E9, 9E9, 9E9, 9E9] ], v30, fine, pen\WObj:=platform;
    MoveL [ [4.235, -15.722, 47.600], [0.155, -0.882, -0.444, 0.000], [0, 0, 0, 0], [ 9E9, 9E9, 9E9, 9E9, 9E9, 9E9] ], v1000, fine, pen\WObj:=platform;
    
    !!-2.6929925956080907, -2.1801;
    MoveL [ [0.336, -13.104, 48.688], [0.114, -0.957, -0.265, 0.000], [0, 0, 0, 0], [ 9E9, 9E9, 9E9, 9E9, 9E9, 9E9] ], v1000, fine, pen\WObj:=platform;
    MoveL [ [-2.693, -2.180, -0.010], [0.114, -0.957, -0.265, 0.000], [0, 0, 0, 0], [ 9E9, 9E9, 9E9, 9E9, 9E9, 9E9] ], v30, fine, pen\WObj:=platform;
    MoveL [ [0.336, -13.104, 48.688], [0.114, -0.957, -0.265, 0.000], [0, 0, 0, 0], [ 9E9, 9E9, 9E9, 9E9, 9E9, 9E9] ], v1000, fine, pen\WObj:=platform;
    
    !!-2.6344492783122626, -2.2815000000000003;
    MoveL [ [0.363, -13.050, 48.725], [0.112, -0.957, -0.266, 0.000], [0, 0, 0, 0], [ 9E9, 9E9, 9E9, 9E9, 9E9, 9E9] ], v1000, fine, pen\WObj:=platform;
    MoveL [ [-2.634, -2.282, -0.010], [0.112, -0.957, -0.266, 0.000], [0, 0, 0, 0], [ 9E9, 9E9, 9E9, 9E9, 9E9, 9E9] ], v30, fine, pen\WObj:=platform;
    MoveL [ [0.363, -13.050, 48.725], [0.112, -0.957, -0.266, 0.000], [0, 0, 0, 0], [ 9E9, 9E9, 9E9, 9E9, 9E9, 9E9] ], v1000, fine, pen\WObj:=platform;
    
    !!-2.6929925956080907, -2.3829000000000002;
    MoveL [ [0.372, -12.974, 48.759], [0.111, -0.955, -0.276, 0.000], [0, 0, 0, 0], [ 9E9, 9E9, 9E9, 9E9, 9E9, 9E9] ], v1000, fine, pen\WObj:=platform;
    MoveL [ [-2.693, -2.383, -0.010], [0.111, -0.955, -0.276, 0.000], [0, 0, 0, 0], [ 9E9, 9E9, 9E9, 9E9, 9E9, 9E9] ], v30, fine, pen\WObj:=platform;
    MoveL [ [0.372, -12.974, 48.759], [0.111, -0.955, -0.276, 0.000], [0, 0, 0, 0], [ 9E9, 9E9, 9E9, 9E9, 9E9, 9E9] ], v1000, fine, pen\WObj:=platform;
    
    !!-2.6344492783122626, -2.4843;
    MoveL [ [4.360, -15.373, 47.791], [0.148, -0.869, -0.472, 0.000], [0, 0, 0, 0], [ 9E9, 9E9, 9E9, 9E9, 9E9, 9E9] ], v1000, fine, pen\WObj:=platform;
    MoveL [ [-2.634, -2.484, -0.010], [0.148, -0.869, -0.472, 0.000], [0, 0, 0, 0], [ 9E9, 9E9, 9E9, 9E9, 9E9, 9E9] ], v30, fine, pen\WObj:=platform;
    MoveL [ [4.360, -15.373, 47.791], [0.148, -0.869, -0.472, 0.000], [0, 0, 0, 0], [ 9E9, 9E9, 9E9, 9E9, 9E9, 9E9] ], v1000, fine, pen\WObj:=platform;
    
    !!-2.6929925956080907, -2.5857;
    MoveL [ [0.409, -12.843, 48.828], [0.108, -0.952, -0.288, 0.000], [0, 0, 0, 0], [ 9E9, 9E9, 9E9, 9E9, 9E9, 9E9] ], v1000, fine, pen\WObj:=platform;
    MoveL [ [-2.693, -2.586, -0.010], [0.108, -0.952, -0.288, 0.000], [0, 0, 0, 0], [ 9E9, 9E9, 9E9, 9E9, 9E9, 9E9] ], v30, fine, pen\WObj:=platform;
    MoveL [ [0.409, -12.843, 48.828], [0.108, -0.952, -0.288, 0.000], [0, 0, 0, 0], [ 9E9, 9E9, 9E9, 9E9, 9E9, 9E9] ], v1000, fine, pen\WObj:=platform;
    
    !!-2.6344492783122626, -2.6871;
    MoveL [ [0.436, -12.788, 48.863], [0.106, -0.951, -0.289, 0.000], [0, 0, 0, 0], [ 9E9, 9E9, 9E9, 9E9, 9E9, 9E9] ], v1000, fine, pen\WObj:=platform;
    MoveL [ [-2.634, -2.687, -0.010], [0.106, -0.951, -0.289, 0.000], [0, 0, 0, 0], [ 9E9, 9E9, 9E9, 9E9, 9E9, 9E9] ], v30, fine, pen\WObj:=platform;
    MoveL [ [0.436, -12.788, 48.863], [0.106, -0.951, -0.289, 0.000], [0, 0, 0, 0], [ 9E9, 9E9, 9E9, 9E9, 9E9, 9E9] ], v1000, fine, pen\WObj:=platform;
    
    !!-2.6929925956080907, -2.7885;
    MoveL [ [0.445, -12.711, 48.895], [0.105, -0.948, -0.300, 0.000], [0, 0, 0, 0], [ 9E9, 9E9, 9E9, 9E9, 9E9, 9E9] ], v1000, fine, pen\WObj:=platform;
    MoveL [ [-2.693, -2.788, -0.010], [0.105, -0.948, -0.300, 0.000], [0, 0, 0, 0], [ 9E9, 9E9, 9E9, 9E9, 9E9, 9E9] ], v30, fine, pen\WObj:=platform;
    MoveL [ [0.445, -12.711, 48.895], [0.105, -0.948, -0.300, 0.000], [0, 0, 0, 0], [ 9E9, 9E9, 9E9, 9E9, 9E9, 9E9] ], v1000, fine, pen\WObj:=platform;
    
    !!-2.6344492783122626, -2.8899;
    MoveL [ [4.485, -15.015, 47.972], [0.142, -0.854, -0.501, 0.000], [0, 0, 0, 0], [ 9E9, 9E9, 9E9, 9E9, 9E9, 9E9] ], v1000, fine, pen\WObj:=platform;
    MoveL [ [-2.634, -2.890, -0.010], [0.142, -0.854, -0.501, 0.000], [0, 0, 0, 0], [ 9E9, 9E9, 9E9, 9E9, 9E9, 9E9] ], v30, fine, pen\WObj:=platform;
    MoveL [ [4.485, -15.015, 47.972], [0.142, -0.854, -0.501, 0.000], [0, 0, 0, 0], [ 9E9, 9E9, 9E9, 9E9, 9E9, 9E9] ], v1000, fine, pen\WObj:=platform;
    
    !!-2.6929925956080907, -2.9913;
    MoveL [ [0.482, -12.577, 48.960], [0.102, -0.944, -0.313, 0.000], [0, 0, 0, 0], [ 9E9, 9E9, 9E9, 9E9, 9E9, 9E9] ], v1000, fine, pen\WObj:=platform;
    MoveL [ [-2.693, -2.991, -0.010], [0.102, -0.944, -0.313, 0.000], [0, 0, 0, 0], [ 9E9, 9E9, 9E9, 9E9, 9E9, 9E9] ], v30, fine, pen\WObj:=platform;
    MoveL [ [0.482, -12.577, 48.960], [0.102, -0.944, -0.313, 0.000], [0, 0, 0, 0], [ 9E9, 9E9, 9E9, 9E9, 9E9, 9E9] ], v1000, fine, pen\WObj:=platform;
    
    !!-2.6344492783122626, -3.0926999999999993;
    MoveL [ [0.509, -12.521, 48.992], [0.100, -0.944, -0.315, 0.000], [0, 0, 0, 0], [ 9E9, 9E9, 9E9, 9E9, 9E9, 9E9] ], v1000, fine, pen\WObj:=platform;
    MoveL [ [-2.634, -3.093, -0.010], [0.100, -0.944, -0.315, 0.000], [0, 0, 0, 0], [ 9E9, 9E9, 9E9, 9E9, 9E9, 9E9] ], v30, fine, pen\WObj:=platform;
    MoveL [ [0.509, -12.521, 48.992], [0.100, -0.944, -0.315, 0.000], [0, 0, 0, 0], [ 9E9, 9E9, 9E9, 9E9, 9E9, 9E9] ], v1000, fine, pen\WObj:=platform;
    
    !!-2.6929925956080907, -3.1941;
    MoveL [ [0.518, -12.442, 49.022], [0.098, -0.940, -0.326, 0.000], [0, 0, 0, 0], [ 9E9, 9E9, 9E9, 9E9, 9E9, 9E9] ], v1000, fine, pen\WObj:=platform;
    MoveL [ [-2.693, -3.194, -0.010], [0.098, -0.940, -0.326, 0.000], [0, 0, 0, 0], [ 9E9, 9E9, 9E9, 9E9, 9E9, 9E9] ], v30, fine, pen\WObj:=platform;
    MoveL [ [0.518, -12.442, 49.022], [0.098, -0.940, -0.326, 0.000], [0, 0, 0, 0], [ 9E9, 9E9, 9E9, 9E9, 9E9, 9E9] ], v1000, fine, pen\WObj:=platform;
    
    !!-2.6344492783122626, -3.2955;
    MoveL [ [4.610, -14.647, 48.143], [0.136, -0.835, -0.533, 0.000], [0, 0, 0, 0], [ 9E9, 9E9, 9E9, 9E9, 9E9, 9E9] ], v1000, fine, pen\WObj:=platform;
    MoveL [ [-2.634, -3.296, -0.010], [0.136, -0.835, -0.533, 0.000], [0, 0, 0, 0], [ 9E9, 9E9, 9E9, 9E9, 9E9, 9E9] ], v30, fine, pen\WObj:=platform;
    MoveL [ [4.610, -14.647, 48.143], [0.136, -0.835, -0.533, 0.000], [0, 0, 0, 0], [ 9E9, 9E9, 9E9, 9E9, 9E9, 9E9] ], v1000, fine, pen\WObj:=platform;
    
    !!-2.6929925956080907, -3.3969000000000005;
    MoveL [ [0.555, -12.306, 49.083], [0.095, -0.935, -0.341, 0.000], [0, 0, 0, 0], [ 9E9, 9E9, 9E9, 9E9, 9E9, 9E9] ], v1000, fine, pen\WObj:=platform;
    MoveL [ [-2.693, -3.397, -0.010], [0.095, -0.935, -0.341, 0.000], [0, 0, 0, 0], [ 9E9, 9E9, 9E9, 9E9, 9E9, 9E9] ], v30, fine, pen\WObj:=platform;
    MoveL [ [0.555, -12.306, 49.083], [0.095, -0.935, -0.341, 0.000], [0, 0, 0, 0], [ 9E9, 9E9, 9E9, 9E9, 9E9, 9E9] ], v1000, fine, pen\WObj:=platform;
    
    !!-2.6344492783122626, -3.4982999999999995;
    MoveL [ [0.583, -12.248, 49.113], [0.094, -0.934, -0.344, 0.000], [0, 0, 0, 0], [ 9E9, 9E9, 9E9, 9E9, 9E9, 9E9] ], v1000, fine, pen\WObj:=platform;
    MoveL [ [-2.634, -3.498, -0.010], [0.094, -0.934, -0.344, 0.000], [0, 0, 0, 0], [ 9E9, 9E9, 9E9, 9E9, 9E9, 9E9] ], v30, fine, pen\WObj:=platform;
    MoveL [ [0.583, -12.248, 49.113], [0.094, -0.934, -0.344, 0.000], [0, 0, 0, 0], [ 9E9, 9E9, 9E9, 9E9, 9E9, 9E9] ], v1000, fine, pen\WObj:=platform;
    
    !!-2.6929925956080907, -3.599700000000001;
    MoveL [ [0.592, -12.169, 49.141], [0.092, -0.930, -0.356, 0.000], [0, 0, 0, 0], [ 9E9, 9E9, 9E9, 9E9, 9E9, 9E9] ], v1000, fine, pen\WObj:=platform;
    MoveL [ [-2.693, -3.600, -0.010], [0.092, -0.930, -0.356, 0.000], [0, 0, 0, 0], [ 9E9, 9E9, 9E9, 9E9, 9E9, 9E9] ], v30, fine, pen\WObj:=platform;
    MoveL [ [0.592, -12.169, 49.141], [0.092, -0.930, -0.356, 0.000], [0, 0, 0, 0], [ 9E9, 9E9, 9E9, 9E9, 9E9, 9E9] ], v1000, fine, pen\WObj:=platform;
    
    !!-2.6344492783122626, -3.7011;
    MoveL [ [4.733, -14.270, 48.302], [0.130, -0.813, -0.567, 0.000], [0, 0, 0, 0], [ 9E9, 9E9, 9E9, 9E9, 9E9, 9E9] ], v1000, fine, pen\WObj:=platform;
    MoveL [ [-2.634, -3.701, -0.010], [0.130, -0.813, -0.567, 0.000], [0, 0, 0, 0], [ 9E9, 9E9, 9E9, 9E9, 9E9, 9E9] ], v30, fine, pen\WObj:=platform;
    MoveL [ [4.733, -14.270, 48.302], [0.130, -0.813, -0.567, 0.000], [0, 0, 0, 0], [ 9E9, 9E9, 9E9, 9E9, 9E9, 9E9] ], v1000, fine, pen\WObj:=platform;
    
    !!-2.6929925956080907, -3.8024999999999998;
    MoveL [ [0.629, -12.030, 49.196], [0.089, -0.924, -0.373, 0.000], [0, 0, 0, 0], [ 9E9, 9E9, 9E9, 9E9, 9E9, 9E9] ], v1000, fine, pen\WObj:=platform;
    MoveL [ [-2.693, -3.802, -0.010], [0.089, -0.924, -0.373, 0.000], [0, 0, 0, 0], [ 9E9, 9E9, 9E9, 9E9, 9E9, 9E9] ], v30, fine, pen\WObj:=platform;
    MoveL [ [0.629, -12.030, 49.196], [0.089, -0.924, -0.373, 0.000], [0, 0, 0, 0], [ 9E9, 9E9, 9E9, 9E9, 9E9, 9E9] ], v1000, fine, pen\WObj:=platform;
    
    !!-2.6344492783122626, -3.9039;
    MoveL [ [0.657, -11.971, 49.225], [0.087, -0.922, -0.376, 0.000], [0, 0, 0, 0], [ 9E9, 9E9, 9E9, 9E9, 9E9, 9E9] ], v1000, fine, pen\WObj:=platform;
    MoveL [ [-2.634, -3.904, -0.010], [0.087, -0.922, -0.376, 0.000], [0, 0, 0, 0], [ 9E9, 9E9, 9E9, 9E9, 9E9, 9E9] ], v30, fine, pen\WObj:=platform;
    MoveL [ [0.657, -11.971, 49.225], [0.087, -0.922, -0.376, 0.000], [0, 0, 0, 0], [ 9E9, 9E9, 9E9, 9E9, 9E9, 9E9] ], v1000, fine, pen\WObj:=platform;
    
    !!-2.6929925956080907, -4.0053;
    MoveL [ [0.666, -11.890, 49.250], [0.086, -0.917, -0.390, 0.000], [0, 0, 0, 0], [ 9E9, 9E9, 9E9, 9E9, 9E9, 9E9] ], v1000, fine, pen\WObj:=platform;
    MoveL [ [-2.693, -4.005, -0.010], [0.086, -0.917, -0.390, 0.000], [0, 0, 0, 0], [ 9E9, 9E9, 9E9, 9E9, 9E9, 9E9] ], v30, fine, pen\WObj:=platform;
    MoveL [ [0.666, -11.890, 49.250], [0.086, -0.917, -0.390, 0.000], [0, 0, 0, 0], [ 9E9, 9E9, 9E9, 9E9, 9E9, 9E9] ], v1000, fine, pen\WObj:=platform;
    
    !!-2.6344492783122626, -4.1067;
    MoveL [ [4.856, -13.885, 48.449], [0.124, -0.788, -0.603, 0.000], [0, 0, 0, 0], [ 9E9, 9E9, 9E9, 9E9, 9E9, 9E9] ], v1000, fine, pen\WObj:=platform;
    MoveL [ [-2.634, -4.107, -0.010], [0.124, -0.788, -0.603, 0.000], [0, 0, 0, 0], [ 9E9, 9E9, 9E9, 9E9, 9E9, 9E9] ], v30, fine, pen\WObj:=platform;
    MoveL [ [4.856, -13.885, 48.449], [0.124, -0.788, -0.603, 0.000], [0, 0, 0, 0], [ 9E9, 9E9, 9E9, 9E9, 9E9, 9E9] ], v1000, fine, pen\WObj:=platform;
    
    !!-2.6929925956080907, -4.2081;
    MoveL [ [0.703, -11.749, 49.301], [0.083, -0.909, -0.409, 0.000], [0, 0, 0, 0], [ 9E9, 9E9, 9E9, 9E9, 9E9, 9E9] ], v1000, fine, pen\WObj:=platform;
    MoveL [ [-2.693, -4.208, -0.010], [0.083, -0.909, -0.409, 0.000], [0, 0, 0, 0], [ 9E9, 9E9, 9E9, 9E9, 9E9, 9E9] ], v30, fine, pen\WObj:=platform;
    MoveL [ [0.703, -11.749, 49.301], [0.083, -0.909, -0.409, 0.000], [0, 0, 0, 0], [ 9E9, 9E9, 9E9, 9E9, 9E9, 9E9] ], v1000, fine, pen\WObj:=platform;
    
    !!-2.6344492783122626, -4.3095;
    MoveL [ [0.731, -11.689, 49.328], [0.081, -0.907, -0.414, 0.000], [0, 0, 0, 0], [ 9E9, 9E9, 9E9, 9E9, 9E9, 9E9] ], v1000, fine, pen\WObj:=platform;
    MoveL [ [-2.634, -4.309, -0.010], [0.081, -0.907, -0.414, 0.000], [0, 0, 0, 0], [ 9E9, 9E9, 9E9, 9E9, 9E9, 9E9] ], v30, fine, pen\WObj:=platform;
    MoveL [ [0.731, -11.689, 49.328], [0.081, -0.907, -0.414, 0.000], [0, 0, 0, 0], [ 9E9, 9E9, 9E9, 9E9, 9E9, 9E9] ], v1000, fine, pen\WObj:=platform;
    
    !!-2.6929925956080907, -4.4109;
    MoveL [ [0.740, -11.607, 49.350], [0.080, -0.900, -0.429, 0.000], [0, 0, 0, 0], [ 9E9, 9E9, 9E9, 9E9, 9E9, 9E9] ], v1000, fine, pen\WObj:=platform;
    MoveL [ [-2.693, -4.411, -0.010], [0.080, -0.900, -0.429, 0.000], [0, 0, 0, 0], [ 9E9, 9E9, 9E9, 9E9, 9E9, 9E9] ], v30, fine, pen\WObj:=platform;
    MoveL [ [0.740, -11.607, 49.350], [0.080, -0.900, -0.429, 0.000], [0, 0, 0, 0], [ 9E9, 9E9, 9E9, 9E9, 9E9, 9E9] ], v1000, fine, pen\WObj:=platform;
    
    !!-2.6344492783122626, -4.5123;
    MoveL [ [4.977, -13.492, 48.584], [0.119, -0.757, -0.642, 0.000], [0, 0, 0, 0], [ 9E9, 9E9, 9E9, 9E9, 9E9, 9E9] ], v1000, fine, pen\WObj:=platform;
    MoveL [ [-2.634, -4.512, -0.010], [0.119, -0.757, -0.642, 0.000], [0, 0, 0, 0], [ 9E9, 9E9, 9E9, 9E9, 9E9, 9E9] ], v30, fine, pen\WObj:=platform;
    MoveL [ [4.977, -13.492, 48.584], [0.119, -0.757, -0.642, 0.000], [0, 0, 0, 0], [ 9E9, 9E9, 9E9, 9E9, 9E9, 9E9] ], v1000, fine, pen\WObj:=platform;
    
    !!-2.6929925956080907, -4.613700000000001;
    MoveL [ [0.778, -11.464, 49.397], [0.077, -0.889, -0.451, 0.000], [0, 0, 0, 0], [ 9E9, 9E9, 9E9, 9E9, 9E9, 9E9] ], v1000, fine, pen\WObj:=platform;
    MoveL [ [-2.693, -4.614, -0.010], [0.077, -0.889, -0.451, 0.000], [0, 0, 0, 0], [ 9E9, 9E9, 9E9, 9E9, 9E9, 9E9] ], v30, fine, pen\WObj:=platform;
    MoveL [ [0.778, -11.464, 49.397], [0.077, -0.889, -0.451, 0.000], [0, 0, 0, 0], [ 9E9, 9E9, 9E9, 9E9, 9E9, 9E9] ], v1000, fine, pen\WObj:=platform;
    
    !!-2.6344492783122626, -4.715100000000001;
    MoveL [ [0.805, -11.403, 49.421], [0.075, -0.887, -0.456, 0.000], [0, 0, 0, 0], [ 9E9, 9E9, 9E9, 9E9, 9E9, 9E9] ], v1000, fine, pen\WObj:=platform;
    MoveL [ [-2.634, -4.715, -0.010], [0.075, -0.887, -0.456, 0.000], [0, 0, 0, 0], [ 9E9, 9E9, 9E9, 9E9, 9E9, 9E9] ], v30, fine, pen\WObj:=platform;
    MoveL [ [0.805, -11.403, 49.421], [0.075, -0.887, -0.456, 0.000], [0, 0, 0, 0], [ 9E9, 9E9, 9E9, 9E9, 9E9, 9E9] ], v1000, fine, pen\WObj:=platform;
    
    !!-2.6929925956080907, -4.8165000000000004;
    MoveL [ [0.815, -11.319, 49.441], [0.074, -0.878, -0.473, 0.000], [0, 0, 0, 0], [ 9E9, 9E9, 9E9, 9E9, 9E9, 9E9] ], v1000, fine, pen\WObj:=platform;
    MoveL [ [-2.693, -4.817, -0.010], [0.074, -0.878, -0.473, 0.000], [0, 0, 0, 0], [ 9E9, 9E9, 9E9, 9E9, 9E9, 9E9] ], v30, fine, pen\WObj:=platform;
    MoveL [ [0.815, -11.319, 49.441], [0.074, -0.878, -0.473, 0.000], [0, 0, 0, 0], [ 9E9, 9E9, 9E9, 9E9, 9E9, 9E9] ], v1000, fine, pen\WObj:=platform;
    
    !!-2.6344492783122626, -4.9179;
    MoveL [ [5.098, -13.092, 48.708], [0.113, -0.722, -0.683, 0.000], [0, 0, 0, 0], [ 9E9, 9E9, 9E9, 9E9, 9E9, 9E9] ], v1000, fine, pen\WObj:=platform;
    MoveL [ [-2.634, -4.918, -0.010], [0.113, -0.722, -0.683, 0.000], [0, 0, 0, 0], [ 9E9, 9E9, 9E9, 9E9, 9E9, 9E9] ], v30, fine, pen\WObj:=platform;
    MoveL [ [5.098, -13.092, 48.708], [0.113, -0.722, -0.683, 0.000], [0, 0, 0, 0], [ 9E9, 9E9, 9E9, 9E9, 9E9, 9E9] ], v1000, fine, pen\WObj:=platform;
    
    !!-2.6929925956080907, -5.019299999999999;
    MoveL [ [0.852, -11.174, 49.483], [0.071, -0.864, -0.498, 0.000], [0, 0, 0, 0], [ 9E9, 9E9, 9E9, 9E9, 9E9, 9E9] ], v1000, fine, pen\WObj:=platform;
    MoveL [ [-2.693, -5.019, -0.010], [0.071, -0.864, -0.498, 0.000], [0, 0, 0, 0], [ 9E9, 9E9, 9E9, 9E9, 9E9, 9E9] ], v30, fine, pen\WObj:=platform;
    MoveL [ [0.852, -11.174, 49.483], [0.071, -0.864, -0.498, 0.000], [0, 0, 0, 0], [ 9E9, 9E9, 9E9, 9E9, 9E9, 9E9] ], v1000, fine, pen\WObj:=platform;
    
    !!-2.6344492783122626, -5.1207;
    MoveL [ [0.880, -11.112, 49.505], [0.070, -0.860, -0.505, 0.000], [0, 0, 0, 0], [ 9E9, 9E9, 9E9, 9E9, 9E9, 9E9] ], v1000, fine, pen\WObj:=platform;
    MoveL [ [-2.634, -5.121, -0.010], [0.070, -0.860, -0.505, 0.000], [0, 0, 0, 0], [ 9E9, 9E9, 9E9, 9E9, 9E9, 9E9] ], v30, fine, pen\WObj:=platform;
    MoveL [ [0.880, -11.112, 49.505], [0.070, -0.860, -0.505, 0.000], [0, 0, 0, 0], [ 9E9, 9E9, 9E9, 9E9, 9E9, 9E9] ], v1000, fine, pen\WObj:=platform;
    
    !!-2.6929925956080907, -5.222100000000001;
    MoveL [ [0.889, -11.028, 49.522], [0.068, -0.849, -0.524, 0.000], [0, 0, 0, 0], [ 9E9, 9E9, 9E9, 9E9, 9E9, 9E9] ], v1000, fine, pen\WObj:=platform;
    MoveL [ [-2.693, -5.222, -0.010], [0.068, -0.849, -0.524, 0.000], [0, 0, 0, 0], [ 9E9, 9E9, 9E9, 9E9, 9E9, 9E9] ], v30, fine, pen\WObj:=platform;
    MoveL [ [0.889, -11.028, 49.522], [0.068, -0.849, -0.524, 0.000], [0, 0, 0, 0], [ 9E9, 9E9, 9E9, 9E9, 9E9, 9E9] ], v1000, fine, pen\WObj:=platform;
    
    !!-2.6344492783122626, -5.323500000000001;
    MoveL [ [5.216, -12.684, 48.818], [0.108, -0.680, -0.725, 0.000], [0, 0, 0, 0], [ 9E9, 9E9, 9E9, 9E9, 9E9, 9E9] ], v1000, fine, pen\WObj:=platform;
    MoveL [ [-2.634, -5.324, -0.010], [0.108, -0.680, -0.725, 0.000], [0, 0, 0, 0], [ 9E9, 9E9, 9E9, 9E9, 9E9, 9E9] ], v30, fine, pen\WObj:=platform;
    MoveL [ [5.216, -12.684, 48.818], [0.108, -0.680, -0.725, 0.000], [0, 0, 0, 0], [ 9E9, 9E9, 9E9, 9E9, 9E9, 9E9] ], v1000, fine, pen\WObj:=platform;
    
    !!-2.6929925956080907, -5.4249;
    MoveL [ [0.926, -10.882, 49.559], [0.066, -0.832, -0.552, 0.000], [0, 0, 0, 0], [ 9E9, 9E9, 9E9, 9E9, 9E9, 9E9] ], v1000, fine, pen\WObj:=platform;
    MoveL [ [-2.693, -5.425, -0.010], [0.066, -0.832, -0.552, 0.000], [0, 0, 0, 0], [ 9E9, 9E9, 9E9, 9E9, 9E9, 9E9] ], v30, fine, pen\WObj:=platform;
    MoveL [ [0.926, -10.882, 49.559], [0.066, -0.832, -0.552, 0.000], [0, 0, 0, 0], [ 9E9, 9E9, 9E9, 9E9, 9E9, 9E9] ], v1000, fine, pen\WObj:=platform;
    
    !!-2.6344492783122626, -5.526299999999999;
    MoveL [ [0.954, -10.819, 49.579], [0.064, -0.826, -0.560, 0.000], [0, 0, 0, 0], [ 9E9, 9E9, 9E9, 9E9, 9E9, 9E9] ], v1000, fine, pen\WObj:=platform;
    MoveL [ [-2.634, -5.526, -0.010], [0.064, -0.826, -0.560, 0.000], [0, 0, 0, 0], [ 9E9, 9E9, 9E9, 9E9, 9E9, 9E9] ], v30, fine, pen\WObj:=platform;
    MoveL [ [0.954, -10.819, 49.579], [0.064, -0.826, -0.560, 0.000], [0, 0, 0, 0], [ 9E9, 9E9, 9E9, 9E9, 9E9, 9E9] ], v1000, fine, pen\WObj:=platform;
    
    !!-2.6929925956080907, -5.6277;
    MoveL [ [0.964, -10.734, 49.594], [0.063, -0.811, -0.581, 0.000], [0, 0, 0, 0], [ 9E9, 9E9, 9E9, 9E9, 9E9, 9E9] ], v1000, fine, pen\WObj:=platform;
    MoveL [ [-2.693, -5.628, -0.010], [0.063, -0.811, -0.581, 0.000], [0, 0, 0, 0], [ 9E9, 9E9, 9E9, 9E9, 9E9, 9E9] ], v30, fine, pen\WObj:=platform;
    MoveL [ [0.964, -10.734, 49.594], [0.063, -0.811, -0.581, 0.000], [0, 0, 0, 0], [ 9E9, 9E9, 9E9, 9E9, 9E9, 9E9] ], v1000, fine, pen\WObj:=platform;
    
    !!-2.6344492783122626, -5.729100000000001;
    MoveL [ [5.333, -12.271, 48.916], [0.104, -0.631, -0.769, 0.000], [0, 0, 0, 0], [ 9E9, 9E9, 9E9, 9E9, 9E9, 9E9] ], v1000, fine, pen\WObj:=platform;
    MoveL [ [-2.634, -5.729, -0.010], [0.104, -0.631, -0.769, 0.000], [0, 0, 0, 0], [ 9E9, 9E9, 9E9, 9E9, 9E9, 9E9] ], v30, fine, pen\WObj:=platform;
    MoveL [ [5.333, -12.271, 48.916], [0.104, -0.631, -0.769, 0.000], [0, 0, 0, 0], [ 9E9, 9E9, 9E9, 9E9, 9E9, 9E9] ], v1000, fine, pen\WObj:=platform;
    
    !!-2.6929925956080907, -5.830500000000001;
    MoveL [ [1.001, -10.586, 49.626], [0.060, -0.788, -0.612, 0.000], [0, 0, 0, 0], [ 9E9, 9E9, 9E9, 9E9, 9E9, 9E9] ], v1000, fine, pen\WObj:=platform;
    MoveL [ [-2.693, -5.831, -0.010], [0.060, -0.788, -0.612, 0.000], [0, 0, 0, 0], [ 9E9, 9E9, 9E9, 9E9, 9E9, 9E9] ], v30, fine, pen\WObj:=platform;
    MoveL [ [1.001, -10.586, 49.626], [0.060, -0.788, -0.612, 0.000], [0, 0, 0, 0], [ 9E9, 9E9, 9E9, 9E9, 9E9, 9E9] ], v1000, fine, pen\WObj:=platform;
    
    !!-2.6344492783122626, -5.9319;
    MoveL [ [1.028, -10.522, 49.644], [0.059, -0.780, -0.623, 0.000], [0, 0, 0, 0], [ 9E9, 9E9, 9E9, 9E9, 9E9, 9E9] ], v1000, fine, pen\WObj:=platform;
    MoveL [ [-2.634, -5.932, -0.010], [0.059, -0.780, -0.623, 0.000], [0, 0, 0, 0], [ 9E9, 9E9, 9E9, 9E9, 9E9, 9E9] ], v30, fine, pen\WObj:=platform;
    MoveL [ [1.028, -10.522, 49.644], [0.059, -0.780, -0.623, 0.000], [0, 0, 0, 0], [ 9E9, 9E9, 9E9, 9E9, 9E9, 9E9] ], v1000, fine, pen\WObj:=platform;
    
    !!-2.575905961016435, 0.05070000000000019;
    MoveL [ [-0.035, -14.442, 47.776], [0.149, -0.974, -0.171, 0.000], [0, 0, 0, 0], [ 9E9, 9E9, 9E9, 9E9, 9E9, 9E9] ], v1000, fine, pen\WObj:=platform;
    MoveL [ [-2.576, 0.051, -0.010], [0.149, -0.974, -0.171, 0.000], [0, 0, 0, 0], [ 9E9, 9E9, 9E9, 9E9, 9E9, 9E9] ], v30, fine, pen\WObj:=platform;
    MoveL [ [-0.035, -14.442, 47.776], [0.149, -0.974, -0.171, 0.000], [0, 0, 0, 0], [ 9E9, 9E9, 9E9, 9E9, 9E9, 9E9] ], v1000, fine, pen\WObj:=platform;
    
    !!-2.5173626437206065, -0.05070000000000019;
    MoveL [ [-0.009, -14.397, 47.822], [0.147, -0.974, -0.170, 0.000], [0, 0, 0, 0], [ 9E9, 9E9, 9E9, 9E9, 9E9, 9E9] ], v1000, fine, pen\WObj:=platform;
    MoveL [ [-2.517, -0.051, -0.010], [0.147, -0.974, -0.170, 0.000], [0, 0, 0, 0], [ 9E9, 9E9, 9E9, 9E9, 9E9, 9E9] ], v30, fine, pen\WObj:=platform;
    MoveL [ [-0.009, -14.397, 47.822], [0.147, -0.974, -0.170, 0.000], [0, 0, 0, 0], [ 9E9, 9E9, 9E9, 9E9, 9E9, 9E9] ], v1000, fine, pen\WObj:=platform;
    
    !!-2.575905961016435, -0.1521;
    MoveL [ [-0.001, -14.331, 47.868], [0.146, -0.973, -0.177, 0.000], [0, 0, 0, 0], [ 9E9, 9E9, 9E9, 9E9, 9E9, 9E9] ], v1000, fine, pen\WObj:=platform;
    MoveL [ [-2.576, -0.152, -0.010], [0.146, -0.973, -0.177, 0.000], [0, 0, 0, 0], [ 9E9, 9E9, 9E9, 9E9, 9E9, 9E9] ], v30, fine, pen\WObj:=platform;
    MoveL [ [-0.001, -14.331, 47.868], [0.146, -0.973, -0.177, 0.000], [0, 0, 0, 0], [ 9E9, 9E9, 9E9, 9E9, 9E9, 9E9] ], v1000, fine, pen\WObj:=platform;
    
    !!-2.5173626437206065, -0.2535000000000004;
    MoveL [ [0.025, -14.285, 47.913], [0.144, -0.974, -0.176, 0.000], [0, 0, 0, 0], [ 9E9, 9E9, 9E9, 9E9, 9E9, 9E9] ], v1000, fine, pen\WObj:=platform;
    MoveL [ [-2.517, -0.254, -0.010], [0.144, -0.974, -0.176, 0.000], [0, 0, 0, 0], [ 9E9, 9E9, 9E9, 9E9, 9E9, 9E9] ], v30, fine, pen\WObj:=platform;
    MoveL [ [0.025, -14.285, 47.913], [0.144, -0.974, -0.176, 0.000], [0, 0, 0, 0], [ 9E9, 9E9, 9E9, 9E9, 9E9, 9E9] ], v1000, fine, pen\WObj:=platform;
    
    !!-2.575905961016435, -0.35489999999999966;
    MoveL [ [0.034, -14.218, 47.959], [0.143, -0.973, -0.183, 0.000], [0, 0, 0, 0], [ 9E9, 9E9, 9E9, 9E9, 9E9, 9E9] ], v1000, fine, pen\WObj:=platform;
    MoveL [ [-2.576, -0.355, -0.010], [0.143, -0.973, -0.183, 0.000], [0, 0, 0, 0], [ 9E9, 9E9, 9E9, 9E9, 9E9, 9E9] ], v30, fine, pen\WObj:=platform;
    MoveL [ [0.034, -14.218, 47.959], [0.143, -0.973, -0.183, 0.000], [0, 0, 0, 0], [ 9E9, 9E9, 9E9, 9E9, 9E9, 9E9] ], v1000, fine, pen\WObj:=platform;
    
    !!-2.5173626437206065, -0.45630000000000004;
    MoveL [ [0.060, -14.171, 48.003], [0.141, -0.973, -0.183, 0.000], [0, 0, 0, 0], [ 9E9, 9E9, 9E9, 9E9, 9E9, 9E9] ], v1000, fine, pen\WObj:=platform;
    MoveL [ [-2.517, -0.456, -0.010], [0.141, -0.973, -0.183, 0.000], [0, 0, 0, 0], [ 9E9, 9E9, 9E9, 9E9, 9E9, 9E9] ], v30, fine, pen\WObj:=platform;
    MoveL [ [0.060, -14.171, 48.003], [0.141, -0.973, -0.183, 0.000], [0, 0, 0, 0], [ 9E9, 9E9, 9E9, 9E9, 9E9, 9E9] ], v1000, fine, pen\WObj:=platform;
    
    !!-2.575905961016435, -0.5576999999999999;
    MoveL [ [0.069, -14.103, 48.048], [0.139, -0.972, -0.190, 0.000], [0, 0, 0, 0], [ 9E9, 9E9, 9E9, 9E9, 9E9, 9E9] ], v1000, fine, pen\WObj:=platform;
    MoveL [ [-2.576, -0.558, -0.010], [0.139, -0.972, -0.190, 0.000], [0, 0, 0, 0], [ 9E9, 9E9, 9E9, 9E9, 9E9, 9E9] ], v30, fine, pen\WObj:=platform;
    MoveL [ [0.069, -14.103, 48.048], [0.139, -0.972, -0.190, 0.000], [0, 0, 0, 0], [ 9E9, 9E9, 9E9, 9E9, 9E9, 9E9] ], v1000, fine, pen\WObj:=platform;
    
    !!-2.5173626437206065, -0.6590999999999997;
    MoveL [ [0.095, -14.056, 48.091], [0.138, -0.972, -0.190, 0.000], [0, 0, 0, 0], [ 9E9, 9E9, 9E9, 9E9, 9E9, 9E9] ], v1000, fine, pen\WObj:=platform;
    MoveL [ [-2.517, -0.659, -0.010], [0.138, -0.972, -0.190, 0.000], [0, 0, 0, 0], [ 9E9, 9E9, 9E9, 9E9, 9E9, 9E9] ], v30, fine, pen\WObj:=platform;
    MoveL [ [0.095, -14.056, 48.091], [0.138, -0.972, -0.190, 0.000], [0, 0, 0, 0], [ 9E9, 9E9, 9E9, 9E9, 9E9, 9E9] ], v1000, fine, pen\WObj:=platform;
    
    !!-2.575905961016435, -0.7604999999999997;
    MoveL [ [0.104, -13.987, 48.134], [0.136, -0.971, -0.197, 0.000], [0, 0, 0, 0], [ 9E9, 9E9, 9E9, 9E9, 9E9, 9E9] ], v1000, fine, pen\WObj:=platform;
    MoveL [ [-2.576, -0.760, -0.010], [0.136, -0.971, -0.197, 0.000], [0, 0, 0, 0], [ 9E9, 9E9, 9E9, 9E9, 9E9, 9E9] ], v30, fine, pen\WObj:=platform;
    MoveL [ [0.104, -13.987, 48.134], [0.136, -0.971, -0.197, 0.000], [0, 0, 0, 0], [ 9E9, 9E9, 9E9, 9E9, 9E9, 9E9] ], v1000, fine, pen\WObj:=platform;
    
    !!-2.5173626437206065, -0.8618999999999999;
    MoveL [ [0.130, -13.939, 48.177], [0.135, -0.971, -0.197, 0.000], [0, 0, 0, 0], [ 9E9, 9E9, 9E9, 9E9, 9E9, 9E9] ], v1000, fine, pen\WObj:=platform;
    MoveL [ [-2.517, -0.862, -0.010], [0.135, -0.971, -0.197, 0.000], [0, 0, 0, 0], [ 9E9, 9E9, 9E9, 9E9, 9E9, 9E9] ], v30, fine, pen\WObj:=platform;
    MoveL [ [0.130, -13.939, 48.177], [0.135, -0.971, -0.197, 0.000], [0, 0, 0, 0], [ 9E9, 9E9, 9E9, 9E9, 9E9, 9E9] ], v1000, fine, pen\WObj:=platform;
    
    !!-2.575905961016435, -0.9633;
    MoveL [ [0.139, -13.869, 48.219], [0.133, -0.970, -0.204, 0.000], [0, 0, 0, 0], [ 9E9, 9E9, 9E9, 9E9, 9E9, 9E9] ], v1000, fine, pen\WObj:=platform;
    MoveL [ [-2.576, -0.963, -0.010], [0.133, -0.970, -0.204, 0.000], [0, 0, 0, 0], [ 9E9, 9E9, 9E9, 9E9, 9E9, 9E9] ], v30, fine, pen\WObj:=platform;
    MoveL [ [0.139, -13.869, 48.219], [0.133, -0.970, -0.204, 0.000], [0, 0, 0, 0], [ 9E9, 9E9, 9E9, 9E9, 9E9, 9E9] ], v1000, fine, pen\WObj:=platform;
    
    !!-2.5173626437206065, -1.0647000000000002;
    MoveL [ [0.165, -13.820, 48.261], [0.131, -0.970, -0.204, 0.000], [0, 0, 0, 0], [ 9E9, 9E9, 9E9, 9E9, 9E9, 9E9] ], v1000, fine, pen\WObj:=platform;
    MoveL [ [-2.517, -1.065, -0.010], [0.131, -0.970, -0.204, 0.000], [0, 0, 0, 0], [ 9E9, 9E9, 9E9, 9E9, 9E9, 9E9] ], v30, fine, pen\WObj:=platform;
    MoveL [ [0.165, -13.820, 48.261], [0.131, -0.970, -0.204, 0.000], [0, 0, 0, 0], [ 9E9, 9E9, 9E9, 9E9, 9E9, 9E9] ], v1000, fine, pen\WObj:=platform;
    
    !!-2.575905961016435, -1.1661000000000001;
    MoveL [ [0.174, -13.749, 48.303], [0.130, -0.969, -0.212, 0.000], [0, 0, 0, 0], [ 9E9, 9E9, 9E9, 9E9, 9E9, 9E9] ], v1000, fine, pen\WObj:=platform;
    MoveL [ [-2.576, -1.166, -0.010], [0.130, -0.969, -0.212, 0.000], [0, 0, 0, 0], [ 9E9, 9E9, 9E9, 9E9, 9E9, 9E9] ], v30, fine, pen\WObj:=platform;
    MoveL [ [0.174, -13.749, 48.303], [0.130, -0.969, -0.212, 0.000], [0, 0, 0, 0], [ 9E9, 9E9, 9E9, 9E9, 9E9, 9E9] ], v1000, fine, pen\WObj:=platform;
    
    !!-2.5173626437206065, -1.2675000000000003;
    MoveL [ [0.201, -13.699, 48.344], [0.128, -0.969, -0.212, 0.000], [0, 0, 0, 0], [ 9E9, 9E9, 9E9, 9E9, 9E9, 9E9] ], v1000, fine, pen\WObj:=platform;
    MoveL [ [-2.517, -1.268, -0.010], [0.128, -0.969, -0.212, 0.000], [0, 0, 0, 0], [ 9E9, 9E9, 9E9, 9E9, 9E9, 9E9] ], v30, fine, pen\WObj:=platform;
    MoveL [ [0.201, -13.699, 48.344], [0.128, -0.969, -0.212, 0.000], [0, 0, 0, 0], [ 9E9, 9E9, 9E9, 9E9, 9E9, 9E9] ], v1000, fine, pen\WObj:=platform;
    
    !!-2.575905961016435, -1.3688999999999998;
    MoveL [ [0.210, -13.627, 48.384], [0.127, -0.967, -0.220, 0.000], [0, 0, 0, 0], [ 9E9, 9E9, 9E9, 9E9, 9E9, 9E9] ], v1000, fine, pen\WObj:=platform;
    MoveL [ [-2.576, -1.369, -0.010], [0.127, -0.967, -0.220, 0.000], [0, 0, 0, 0], [ 9E9, 9E9, 9E9, 9E9, 9E9, 9E9] ], v30, fine, pen\WObj:=platform;
    MoveL [ [0.210, -13.627, 48.384], [0.127, -0.967, -0.220, 0.000], [0, 0, 0, 0], [ 9E9, 9E9, 9E9, 9E9, 9E9, 9E9] ], v1000, fine, pen\WObj:=platform;
    
    !!-2.5173626437206065, -1.4703;
    MoveL [ [0.236, -13.577, 48.424], [0.125, -0.967, -0.220, 0.000], [0, 0, 0, 0], [ 9E9, 9E9, 9E9, 9E9, 9E9, 9E9] ], v1000, fine, pen\WObj:=platform;
    MoveL [ [-2.517, -1.470, -0.010], [0.125, -0.967, -0.220, 0.000], [0, 0, 0, 0], [ 9E9, 9E9, 9E9, 9E9, 9E9, 9E9] ], v30, fine, pen\WObj:=platform;
    MoveL [ [0.236, -13.577, 48.424], [0.125, -0.967, -0.220, 0.000], [0, 0, 0, 0], [ 9E9, 9E9, 9E9, 9E9, 9E9, 9E9] ], v1000, fine, pen\WObj:=platform;
    
    !!-2.575905961016435, -1.5717;
    MoveL [ [0.245, -13.504, 48.463], [0.124, -0.966, -0.228, 0.000], [0, 0, 0, 0], [ 9E9, 9E9, 9E9, 9E9, 9E9, 9E9] ], v1000, fine, pen\WObj:=platform;
    MoveL [ [-2.576, -1.572, -0.010], [0.124, -0.966, -0.228, 0.000], [0, 0, 0, 0], [ 9E9, 9E9, 9E9, 9E9, 9E9, 9E9] ], v30, fine, pen\WObj:=platform;
    MoveL [ [0.245, -13.504, 48.463], [0.124, -0.966, -0.228, 0.000], [0, 0, 0, 0], [ 9E9, 9E9, 9E9, 9E9, 9E9, 9E9] ], v1000, fine, pen\WObj:=platform;
    
    !!-2.5173626437206065, -1.6730999999999996;
    MoveL [ [0.272, -13.453, 48.503], [0.122, -0.966, -0.229, 0.000], [0, 0, 0, 0], [ 9E9, 9E9, 9E9, 9E9, 9E9, 9E9] ], v1000, fine, pen\WObj:=platform;
    MoveL [ [-2.517, -1.673, -0.010], [0.122, -0.966, -0.229, 0.000], [0, 0, 0, 0], [ 9E9, 9E9, 9E9, 9E9, 9E9, 9E9] ], v30, fine, pen\WObj:=platform;
    MoveL [ [0.272, -13.453, 48.503], [0.122, -0.966, -0.229, 0.000], [0, 0, 0, 0], [ 9E9, 9E9, 9E9, 9E9, 9E9, 9E9] ], v1000, fine, pen\WObj:=platform;
    
    !!-2.575905961016435, -1.7745;
    MoveL [ [0.281, -13.379, 48.541], [0.120, -0.964, -0.237, 0.000], [0, 0, 0, 0], [ 9E9, 9E9, 9E9, 9E9, 9E9, 9E9] ], v1000, fine, pen\WObj:=platform;
    MoveL [ [-2.576, -1.774, -0.010], [0.120, -0.964, -0.237, 0.000], [0, 0, 0, 0], [ 9E9, 9E9, 9E9, 9E9, 9E9, 9E9] ], v30, fine, pen\WObj:=platform;
