MODULE MainModule
  PERS wobjdata platform := [ FALSE, TRUE, "", [ [800, 0, 600], [1, 0, 0 ,0] ], [ [0, 0, 0], [1, 0, 0 ,0] ] ];
  PERS tooldata pen := [ TRUE, [[0, 0, 100], [1, 0, 0 ,0]], [0.8,[0, 0, 30], [1, 0, 0, 0], 0, 0, 0]];
  PROC main()
    ConfL\Off;
    ConfJ\Off;
    SingArea\Wrist;
    !!-0.16887495373796527, -3.9000000000000004;
    MoveL [ [18.757, -10.753, 45.760], [0.206, -0.333, -0.920, 0.000], [0, 0, 0, 0], [ 9E9, 9E9, 9E9, 9E9, 9E9, 9E9] ], v1000, fine, pen\WObj:=platform;
    MoveL [ [-0.169, -3.900, -0.010], [0.206, -0.333, -0.920, 0.000], [0, 0, 0, 0], [ 9E9, 9E9, 9E9, 9E9, 9E9, 9E9] ], v30, fine, pen\WObj:=platform;
    MoveL [ [18.757, -10.753, 45.760], [0.206, -0.333, -0.920, 0.000], [0, 0, 0, 0], [ 9E9, 9E9, 9E9, 9E9, 9E9, 9E9] ], v1000, fine, pen\WObj:=platform;
    
    !!-0.6754998149518625, -3.022500000000001;
    MoveL [ [17.565, 10.127, 44.648], [0.231, 0.569, -0.789, 0.000], [0, 0, 0, 0], [ 9E9, 9E9, 9E9, 9E9, 9E9, 9E9] ], v1000, fine, pen\WObj:=platform;
    MoveL [ [-0.675, -3.023, -0.010], [0.231, 0.569, -0.789, 0.000], [0, 0, 0, 0], [ 9E9, 9E9, 9E9, 9E9, 9E9, 9E9] ], v30, fine, pen\WObj:=platform;
    MoveL [ [17.565, 10.127, 44.648], [0.231, 0.569, -0.789, 0.000], [0, 0, 0, 0], [ 9E9, 9E9, 9E9, 9E9, 9E9, 9E9] ], v1000, fine, pen\WObj:=platform;
    
    !!-0.7317914661978507, -2.9250000000000003;
    MoveL [ [17.653, 10.003, 44.654], [0.231, 0.560, -0.796, 0.000], [0, 0, 0, 0], [ 9E9, 9E9, 9E9, 9E9, 9E9, 9E9] ], v1000, fine, pen\WObj:=platform;
    MoveL [ [-0.732, -2.925, -0.010], [0.231, 0.560, -0.796, 0.000], [0, 0, 0, 0], [ 9E9, 9E9, 9E9, 9E9, 9E9, 9E9] ], v30, fine, pen\WObj:=platform;
    MoveL [ [17.653, 10.003, 44.654], [0.231, 0.560, -0.796, 0.000], [0, 0, 0, 0], [ 9E9, 9E9, 9E9, 9E9, 9E9, 9E9] ], v1000, fine, pen\WObj:=platform;
    
    !!-0.7880831174438395, -2.8275000000000006;
    MoveL [ [17.740, 9.878, 44.658], [0.231, 0.550, -0.802, 0.000], [0, 0, 0, 0], [ 9E9, 9E9, 9E9, 9E9, 9E9, 9E9] ], v1000, fine, pen\WObj:=platform;
    MoveL [ [-0.788, -2.828, -0.010], [0.231, 0.550, -0.802, 0.000], [0, 0, 0, 0], [ 9E9, 9E9, 9E9, 9E9, 9E9, 9E9] ], v30, fine, pen\WObj:=platform;
    MoveL [ [17.740, 9.878, 44.658], [0.231, 0.550, -0.802, 0.000], [0, 0, 0, 0], [ 9E9, 9E9, 9E9, 9E9, 9E9, 9E9] ], v1000, fine, pen\WObj:=platform;
    
    !!-0.8443747686898277, -2.7300000000000004;
    MoveL [ [17.827, 9.752, 44.662], [0.231, 0.541, -0.809, 0.000], [0, 0, 0, 0], [ 9E9, 9E9, 9E9, 9E9, 9E9, 9E9] ], v1000, fine, pen\WObj:=platform;
    MoveL [ [-0.844, -2.730, -0.010], [0.231, 0.541, -0.809, 0.000], [0, 0, 0, 0], [ 9E9, 9E9, 9E9, 9E9, 9E9, 9E9] ], v30, fine, pen\WObj:=platform;
    MoveL [ [17.827, 9.752, 44.662], [0.231, 0.541, -0.809, 0.000], [0, 0, 0, 0], [ 9E9, 9E9, 9E9, 9E9, 9E9, 9E9] ], v1000, fine, pen\WObj:=platform;
    
    !!-0.900666419935816, -2.632500000000001;
    MoveL [ [17.912, 9.626, 44.664], [0.231, 0.531, -0.815, 0.000], [0, 0, 0, 0], [ 9E9, 9E9, 9E9, 9E9, 9E9, 9E9] ], v1000, fine, pen\WObj:=platform;
    MoveL [ [-0.901, -2.633, -0.010], [0.231, 0.531, -0.815, 0.000], [0, 0, 0, 0], [ 9E9, 9E9, 9E9, 9E9, 9E9, 9E9] ], v30, fine, pen\WObj:=platform;
    MoveL [ [17.912, 9.626, 44.664], [0.231, 0.531, -0.815, 0.000], [0, 0, 0, 0], [ 9E9, 9E9, 9E9, 9E9, 9E9, 9E9] ], v1000, fine, pen\WObj:=platform;
    
    !!-0.9569580711818042, -2.5350000000000006;
    MoveL [ [17.997, 9.498, 44.666], [0.231, 0.522, -0.821, 0.000], [0, 0, 0, 0], [ 9E9, 9E9, 9E9, 9E9, 9E9, 9E9] ], v1000, fine, pen\WObj:=platform;
    MoveL [ [-0.957, -2.535, -0.010], [0.231, 0.522, -0.821, 0.000], [0, 0, 0, 0], [ 9E9, 9E9, 9E9, 9E9, 9E9, 9E9] ], v30, fine, pen\WObj:=platform;
    MoveL [ [17.997, 9.498, 44.666], [0.231, 0.522, -0.821, 0.000], [0, 0, 0, 0], [ 9E9, 9E9, 9E9, 9E9, 9E9, 9E9] ], v1000, fine, pen\WObj:=platform;
    
    !!-1.0132497224277937, -2.4375;
    MoveL [ [18.082, 9.370, 44.666], [0.231, 0.512, -0.828, 0.000], [0, 0, 0, 0], [ 9E9, 9E9, 9E9, 9E9, 9E9, 9E9] ], v1000, fine, pen\WObj:=platform;
    MoveL [ [-1.013, -2.438, -0.010], [0.231, 0.512, -0.828, 0.000], [0, 0, 0, 0], [ 9E9, 9E9, 9E9, 9E9, 9E9, 9E9] ], v30, fine, pen\WObj:=platform;
    MoveL [ [18.082, 9.370, 44.666], [0.231, 0.512, -0.828, 0.000], [0, 0, 0, 0], [ 9E9, 9E9, 9E9, 9E9, 9E9, 9E9] ], v1000, fine, pen\WObj:=platform;
    
    !!-1.0695413736737818, -2.3400000000000003;
    MoveL [ [18.165, 9.242, 44.666], [0.231, 0.502, -0.834, 0.000], [0, 0, 0, 0], [ 9E9, 9E9, 9E9, 9E9, 9E9, 9E9] ], v1000, fine, pen\WObj:=platform;
    MoveL [ [-1.070, -2.340, -0.010], [0.231, 0.502, -0.834, 0.000], [0, 0, 0, 0], [ 9E9, 9E9, 9E9, 9E9, 9E9, 9E9] ], v30, fine, pen\WObj:=platform;
    MoveL [ [18.165, 9.242, 44.666], [0.231, 0.502, -0.834, 0.000], [0, 0, 0, 0], [ 9E9, 9E9, 9E9, 9E9, 9E9, 9E9] ], v1000, fine, pen\WObj:=platform;
    
    !!-1.12583302491977, -2.2425;
    MoveL [ [18.247, 9.112, 44.664], [0.231, 0.492, -0.839, 0.000], [0, 0, 0, 0], [ 9E9, 9E9, 9E9, 9E9, 9E9, 9E9] ], v1000, fine, pen\WObj:=platform;
    MoveL [ [-1.126, -2.243, -0.010], [0.231, 0.492, -0.839, 0.000], [0, 0, 0, 0], [ 9E9, 9E9, 9E9, 9E9, 9E9, 9E9] ], v30, fine, pen\WObj:=platform;
    MoveL [ [18.247, 9.112, 44.664], [0.231, 0.492, -0.839, 0.000], [0, 0, 0, 0], [ 9E9, 9E9, 9E9, 9E9, 9E9, 9E9] ], v1000, fine, pen\WObj:=platform;
    
    !!-1.1821246761657591, -2.1450000000000005;
    MoveL [ [18.329, 8.982, 44.661], [0.231, 0.482, -0.845, 0.000], [0, 0, 0, 0], [ 9E9, 9E9, 9E9, 9E9, 9E9, 9E9] ], v1000, fine, pen\WObj:=platform;
    MoveL [ [-1.182, -2.145, -0.010], [0.231, 0.482, -0.845, 0.000], [0, 0, 0, 0], [ 9E9, 9E9, 9E9, 9E9, 9E9, 9E9] ], v30, fine, pen\WObj:=platform;
    MoveL [ [18.329, 8.982, 44.661], [0.231, 0.482, -0.845, 0.000], [0, 0, 0, 0], [ 9E9, 9E9, 9E9, 9E9, 9E9, 9E9] ], v1000, fine, pen\WObj:=platform;
    
    !!-0.2251666049839535, -3.8025;
    MoveL [ [18.769, -10.875, 45.698], [0.207, -0.341, -0.917, 0.000], [0, 0, 0, 0], [ 9E9, 9E9, 9E9, 9E9, 9E9, 9E9] ], v1000, fine, pen\WObj:=platform;
    MoveL [ [-0.225, -3.803, -0.010], [0.207, -0.341, -0.917, 0.000], [0, 0, 0, 0], [ 9E9, 9E9, 9E9, 9E9, 9E9, 9E9] ], v30, fine, pen\WObj:=platform;
    MoveL [ [18.769, -10.875, 45.698], [0.207, -0.341, -0.917, 0.000], [0, 0, 0, 0], [ 9E9, 9E9, 9E9, 9E9, 9E9, 9E9] ], v1000, fine, pen\WObj:=platform;
    
    !!-1.238416327411747, -2.0475000000000003;
    MoveL [ [18.410, 8.852, 44.657], [0.231, 0.472, -0.851, 0.000], [0, 0, 0, 0], [ 9E9, 9E9, 9E9, 9E9, 9E9, 9E9] ], v1000, fine, pen\WObj:=platform;
    MoveL [ [-1.238, -2.048, -0.010], [0.231, 0.472, -0.851, 0.000], [0, 0, 0, 0], [ 9E9, 9E9, 9E9, 9E9, 9E9, 9E9] ], v30, fine, pen\WObj:=platform;
    MoveL [ [18.410, 8.852, 44.657], [0.231, 0.472, -0.851, 0.000], [0, 0, 0, 0], [ 9E9, 9E9, 9E9, 9E9, 9E9, 9E9] ], v1000, fine, pen\WObj:=platform;
    
    !!-1.2947079786577362, -1.9500000000000004;
    MoveL [ [18.490, 8.720, 44.652], [0.231, 0.462, -0.856, 0.000], [0, 0, 0, 0], [ 9E9, 9E9, 9E9, 9E9, 9E9, 9E9] ], v1000, fine, pen\WObj:=platform;
    MoveL [ [-1.295, -1.950, -0.010], [0.231, 0.462, -0.856, 0.000], [0, 0, 0, 0], [ 9E9, 9E9, 9E9, 9E9, 9E9, 9E9] ], v30, fine, pen\WObj:=platform;
    MoveL [ [18.490, 8.720, 44.652], [0.231, 0.462, -0.856, 0.000], [0, 0, 0, 0], [ 9E9, 9E9, 9E9, 9E9, 9E9, 9E9] ], v1000, fine, pen\WObj:=platform;
    
    !!-1.3509996299037241, -1.8525;
    MoveL [ [19.472, 4.180, 45.046], [0.222, 0.271, -0.936, 0.000], [0, 0, 0, 0], [ 9E9, 9E9, 9E9, 9E9, 9E9, 9E9] ], v1000, fine, pen\WObj:=platform;
    MoveL [ [-1.351, -1.853, -0.010], [0.222, 0.271, -0.936, 0.000], [0, 0, 0, 0], [ 9E9, 9E9, 9E9, 9E9, 9E9, 9E9] ], v30, fine, pen\WObj:=platform;
    MoveL [ [19.472, 4.180, 45.046], [0.222, 0.271, -0.936, 0.000], [0, 0, 0, 0], [ 9E9, 9E9, 9E9, 9E9, 9E9, 9E9] ], v1000, fine, pen\WObj:=platform;
    
    !!-1.4072912811497122, -1.7550000000000003;
    MoveL [ [19.133, 6.323, 44.855], [0.227, 0.356, -0.906, 0.000], [0, 0, 0, 0], [ 9E9, 9E9, 9E9, 9E9, 9E9, 9E9] ], v1000, fine, pen\WObj:=platform;
    MoveL [ [-1.407, -1.755, -0.010], [0.227, 0.356, -0.906, 0.000], [0, 0, 0, 0], [ 9E9, 9E9, 9E9, 9E9, 9E9, 9E9] ], v30, fine, pen\WObj:=platform;
    MoveL [ [19.133, 6.323, 44.855], [0.227, 0.356, -0.906, 0.000], [0, 0, 0, 0], [ 9E9, 9E9, 9E9, 9E9, 9E9, 9E9] ], v1000, fine, pen\WObj:=platform;
    
    !!-1.463582932395702, -1.6575000000000002;
    MoveL [ [19.203, 6.182, 44.839], [0.227, 0.345, -0.911, 0.000], [0, 0, 0, 0], [ 9E9, 9E9, 9E9, 9E9, 9E9, 9E9] ], v1000, fine, pen\WObj:=platform;
    MoveL [ [-1.464, -1.658, -0.010], [0.227, 0.345, -0.911, 0.000], [0, 0, 0, 0], [ 9E9, 9E9, 9E9, 9E9, 9E9, 9E9] ], v30, fine, pen\WObj:=platform;
    MoveL [ [19.203, 6.182, 44.839], [0.227, 0.345, -0.911, 0.000], [0, 0, 0, 0], [ 9E9, 9E9, 9E9, 9E9, 9E9, 9E9] ], v1000, fine, pen\WObj:=platform;
    
    !!-1.5198745836416903, -1.5600000000000003;
    MoveL [ [19.272, 6.041, 44.822], [0.227, 0.334, -0.915, 0.000], [0, 0, 0, 0], [ 9E9, 9E9, 9E9, 9E9, 9E9, 9E9] ], v1000, fine, pen\WObj:=platform;
    MoveL [ [-1.520, -1.560, -0.010], [0.227, 0.334, -0.915, 0.000], [0, 0, 0, 0], [ 9E9, 9E9, 9E9, 9E9, 9E9, 9E9] ], v30, fine, pen\WObj:=platform;
    MoveL [ [19.272, 6.041, 44.822], [0.227, 0.334, -0.915, 0.000], [0, 0, 0, 0], [ 9E9, 9E9, 9E9, 9E9, 9E9, 9E9] ], v1000, fine, pen\WObj:=platform;
    
    !!-1.5761662348876784, -1.4625;
    MoveL [ [20.106, -1.343, 45.044], [0.222, 0.005, -0.975, 0.000], [0, 0, 0, 0], [ 9E9, 9E9, 9E9, 9E9, 9E9, 9E9] ], v1000, fine, pen\WObj:=platform;
    MoveL [ [-1.576, -1.462, -0.010], [0.222, 0.005, -0.975, 0.000], [0, 0, 0, 0], [ 9E9, 9E9, 9E9, 9E9, 9E9, 9E9] ], v30, fine, pen\WObj:=platform;
    MoveL [ [20.106, -1.343, 45.044], [0.222, 0.005, -0.975, 0.000], [0, 0, 0, 0], [ 9E9, 9E9, 9E9, 9E9, 9E9, 9E9] ], v1000, fine, pen\WObj:=platform;
    
    !!-1.6324578861336667, -1.3650000000000007;
    MoveL [ [19.769, 3.445, 44.921], [0.225, 0.214, -0.951, 0.000], [0, 0, 0, 0], [ 9E9, 9E9, 9E9, 9E9, 9E9, 9E9] ], v1000, fine, pen\WObj:=platform;
    MoveL [ [-1.632, -1.365, -0.010], [0.225, 0.214, -0.951, 0.000], [0, 0, 0, 0], [ 9E9, 9E9, 9E9, 9E9, 9E9, 9E9] ], v30, fine, pen\WObj:=platform;
    MoveL [ [19.769, 3.445, 44.921], [0.225, 0.214, -0.951, 0.000], [0, 0, 0, 0], [ 9E9, 9E9, 9E9, 9E9, 9E9, 9E9] ], v1000, fine, pen\WObj:=platform;
    
    !!-1.6887495373796555, -1.2675000000000003;
    MoveL [ [19.825, 3.298, 44.893], [0.226, 0.202, -0.953, 0.000], [0, 0, 0, 0], [ 9E9, 9E9, 9E9, 9E9, 9E9, 9E9] ], v1000, fine, pen\WObj:=platform;
    MoveL [ [-1.689, -1.268, -0.010], [0.226, 0.202, -0.953, 0.000], [0, 0, 0, 0], [ 9E9, 9E9, 9E9, 9E9, 9E9, 9E9] ], v30, fine, pen\WObj:=platform;
    MoveL [ [19.825, 3.298, 44.893], [0.226, 0.202, -0.953, 0.000], [0, 0, 0, 0], [ 9E9, 9E9, 9E9, 9E9, 9E9, 9E9] ], v1000, fine, pen\WObj:=platform;
    
    !!-1.7450411886256436, -1.1700000000000004;
    MoveL [ [19.535, 5.473, 44.745], [0.229, 0.290, -0.929, 0.000], [0, 0, 0, 0], [ 9E9, 9E9, 9E9, 9E9, 9E9, 9E9] ], v1000, fine, pen\WObj:=platform;
    MoveL [ [-1.745, -1.170, -0.010], [0.229, 0.290, -0.929, 0.000], [0, 0, 0, 0], [ 9E9, 9E9, 9E9, 9E9, 9E9, 9E9] ], v30, fine, pen\WObj:=platform;
    MoveL [ [19.535, 5.473, 44.745], [0.229, 0.290, -0.929, 0.000], [0, 0, 0, 0], [ 9E9, 9E9, 9E9, 9E9, 9E9, 9E9] ], v1000, fine, pen\WObj:=platform;
    
    !!-0.281458256229943, -3.705;
    MoveL [ [18.781, -10.996, 45.635], [0.209, -0.349, -0.913, 0.000], [0, 0, 0, 0], [ 9E9, 9E9, 9E9, 9E9, 9E9, 9E9] ], v1000, fine, pen\WObj:=platform;
    MoveL [ [-0.281, -3.705, -0.010], [0.209, -0.349, -0.913, 0.000], [0, 0, 0, 0], [ 9E9, 9E9, 9E9, 9E9, 9E9, 9E9] ], v30, fine, pen\WObj:=platform;
    MoveL [ [18.781, -10.996, 45.635], [0.209, -0.349, -0.913, 0.000], [0, 0, 0, 0], [ 9E9, 9E9, 9E9, 9E9, 9E9, 9E9] ], v1000, fine, pen\WObj:=platform;
    
    !!-1.8013328398716324, -1.0725000000000002;
    MoveL [ [19.598, 5.331, 44.723], [0.229, 0.279, -0.932, 0.000], [0, 0, 0, 0], [ 9E9, 9E9, 9E9, 9E9, 9E9, 9E9] ], v1000, fine, pen\WObj:=platform;
    MoveL [ [-1.801, -1.073, -0.010], [0.229, 0.279, -0.932, 0.000], [0, 0, 0, 0], [ 9E9, 9E9, 9E9, 9E9, 9E9, 9E9] ], v30, fine, pen\WObj:=platform;
    MoveL [ [19.598, 5.331, 44.723], [0.229, 0.279, -0.932, 0.000], [0, 0, 0, 0], [ 9E9, 9E9, 9E9, 9E9, 9E9, 9E9] ], v1000, fine, pen\WObj:=platform;
    
    !!-1.8576244911176216, -0.9750000000000003;
    MoveL [ [19.660, 5.188, 44.700], [0.230, 0.268, -0.936, 0.000], [0, 0, 0, 0], [ 9E9, 9E9, 9E9, 9E9, 9E9, 9E9] ], v1000, fine, pen\WObj:=platform;
    MoveL [ [-1.858, -0.975, -0.010], [0.230, 0.268, -0.936, 0.000], [0, 0, 0, 0], [ 9E9, 9E9, 9E9, 9E9, 9E9, 9E9] ], v30, fine, pen\WObj:=platform;
    MoveL [ [19.660, 5.188, 44.700], [0.230, 0.268, -0.936, 0.000], [0, 0, 0, 0], [ 9E9, 9E9, 9E9, 9E9, 9E9, 9E9] ], v1000, fine, pen\WObj:=platform;
    
    !!-1.9139161423636097, -0.8775;
    MoveL [ [19.721, 5.046, 44.676], [0.231, 0.257, -0.939, 0.000], [0, 0, 0, 0], [ 9E9, 9E9, 9E9, 9E9, 9E9, 9E9] ], v1000, fine, pen\WObj:=platform;
    MoveL [ [-1.914, -0.877, -0.010], [0.231, 0.257, -0.939, 0.000], [0, 0, 0, 0], [ 9E9, 9E9, 9E9, 9E9, 9E9, 9E9] ], v30, fine, pen\WObj:=platform;
    MoveL [ [19.721, 5.046, 44.676], [0.231, 0.257, -0.939, 0.000], [0, 0, 0, 0], [ 9E9, 9E9, 9E9, 9E9, 9E9, 9E9] ], v1000, fine, pen\WObj:=platform;
    
    !!-1.9702077936095979, -0.7799999999999996;
    MoveL [ [19.781, 4.903, 44.651], [0.231, 0.246, -0.941, 0.000], [0, 0, 0, 0], [ 9E9, 9E9, 9E9, 9E9, 9E9, 9E9] ], v1000, fine, pen\WObj:=platform;
    MoveL [ [-1.970, -0.780, -0.010], [0.231, 0.246, -0.941, 0.000], [0, 0, 0, 0], [ 9E9, 9E9, 9E9, 9E9, 9E9, 9E9] ], v30, fine, pen\WObj:=platform;
    MoveL [ [19.781, 4.903, 44.651], [0.231, 0.246, -0.941, 0.000], [0, 0, 0, 0], [ 9E9, 9E9, 9E9, 9E9, 9E9, 9E9] ], v1000, fine, pen\WObj:=platform;
    
    !!-2.026499444855587, -0.6825000000000003;
    MoveL [ [19.839, 4.761, 44.625], [0.232, 0.235, -0.944, 0.000], [0, 0, 0, 0], [ 9E9, 9E9, 9E9, 9E9, 9E9, 9E9] ], v1000, fine, pen\WObj:=platform;
    MoveL [ [-2.026, -0.683, -0.010], [0.232, 0.235, -0.944, 0.000], [0, 0, 0, 0], [ 9E9, 9E9, 9E9, 9E9, 9E9, 9E9] ], v30, fine, pen\WObj:=platform;
    MoveL [ [19.839, 4.761, 44.625], [0.232, 0.235, -0.944, 0.000], [0, 0, 0, 0], [ 9E9, 9E9, 9E9, 9E9, 9E9, 9E9] ], v1000, fine, pen\WObj:=platform;
    
    !!-2.082791096101575, -0.5850000000000005;
    MoveL [ [19.509, 6.836, 44.473], [0.235, 0.316, -0.919, 0.000], [0, 0, 0, 0], [ 9E9, 9E9, 9E9, 9E9, 9E9, 9E9] ], v1000, fine, pen\WObj:=platform;
    MoveL [ [-2.083, -0.585, -0.010], [0.235, 0.316, -0.919, 0.000], [0, 0, 0, 0], [ 9E9, 9E9, 9E9, 9E9, 9E9, 9E9] ], v30, fine, pen\WObj:=platform;
    MoveL [ [19.509, 6.836, 44.473], [0.235, 0.316, -0.919, 0.000], [0, 0, 0, 0], [ 9E9, 9E9, 9E9, 9E9, 9E9, 9E9] ], v1000, fine, pen\WObj:=platform;
    
    !!-0.33774990747593125, -3.607500000000001;
    MoveL [ [18.791, -11.115, 45.572], [0.210, -0.357, -0.910, 0.000], [0, 0, 0, 0], [ 9E9, 9E9, 9E9, 9E9, 9E9, 9E9] ], v1000, fine, pen\WObj:=platform;
    MoveL [ [-0.338, -3.608, -0.010], [0.210, -0.357, -0.910, 0.000], [0, 0, 0, 0], [ 9E9, 9E9, 9E9, 9E9, 9E9, 9E9] ], v30, fine, pen\WObj:=platform;
    MoveL [ [18.791, -11.115, 45.572], [0.210, -0.357, -0.910, 0.000], [0, 0, 0, 0], [ 9E9, 9E9, 9E9, 9E9, 9E9, 9E9] ], v1000, fine, pen\WObj:=platform;
    
    !!-0.3940415587219195, -3.5100000000000002;
    MoveL [ [18.801, -11.233, 45.508], [0.212, -0.365, -0.907, 0.000], [0, 0, 0, 0], [ 9E9, 9E9, 9E9, 9E9, 9E9, 9E9] ], v1000, fine, pen\WObj:=platform;
    MoveL [ [-0.394, -3.510, -0.010], [0.212, -0.365, -0.907, 0.000], [0, 0, 0, 0], [ 9E9, 9E9, 9E9, 9E9, 9E9, 9E9] ], v30, fine, pen\WObj:=platform;
    MoveL [ [18.801, -11.233, 45.508], [0.212, -0.365, -0.907, 0.000], [0, 0, 0, 0], [ 9E9, 9E9, 9E9, 9E9, 9E9, 9E9] ], v1000, fine, pen\WObj:=platform;
    
    !!-0.4503332099679083, -3.4125000000000005;
    MoveL [ [17.206, 10.616, 44.616], [0.232, 0.605, -0.762, 0.000], [0, 0, 0, 0], [ 9E9, 9E9, 9E9, 9E9, 9E9, 9E9] ], v1000, fine, pen\WObj:=platform;
    MoveL [ [-0.450, -3.413, -0.010], [0.232, 0.605, -0.762, 0.000], [0, 0, 0, 0], [ 9E9, 9E9, 9E9, 9E9, 9E9, 9E9] ], v30, fine, pen\WObj:=platform;
    MoveL [ [17.206, 10.616, 44.616], [0.232, 0.605, -0.762, 0.000], [0, 0, 0, 0], [ 9E9, 9E9, 9E9, 9E9, 9E9, 9E9] ], v1000, fine, pen\WObj:=platform;
    
    !!-0.5066248612138966, -3.3150000000000004;
    MoveL [ [18.817, -11.465, 45.379], [0.215, -0.380, -0.900, 0.000], [0, 0, 0, 0], [ 9E9, 9E9, 9E9, 9E9, 9E9, 9E9] ], v1000, fine, pen\WObj:=platform;
    MoveL [ [-0.507, -3.315, -0.010], [0.215, -0.380, -0.900, 0.000], [0, 0, 0, 0], [ 9E9, 9E9, 9E9, 9E9, 9E9, 9E9] ], v30, fine, pen\WObj:=platform;
    MoveL [ [18.817, -11.465, 45.379], [0.215, -0.380, -0.900, 0.000], [0, 0, 0, 0], [ 9E9, 9E9, 9E9, 9E9, 9E9, 9E9] ], v1000, fine, pen\WObj:=platform;
    
    !!-0.5629165124598847, -3.217500000000001;
    MoveL [ [17.387, 10.373, 44.634], [0.231, 0.587, -0.776, 0.000], [0, 0, 0, 0], [ 9E9, 9E9, 9E9, 9E9, 9E9, 9E9] ], v1000, fine, pen\WObj:=platform;
    MoveL [ [-0.563, -3.218, -0.010], [0.231, 0.587, -0.776, 0.000], [0, 0, 0, 0], [ 9E9, 9E9, 9E9, 9E9, 9E9, 9E9] ], v30, fine, pen\WObj:=platform;
    MoveL [ [17.387, 10.373, 44.634], [0.231, 0.587, -0.776, 0.000], [0, 0, 0, 0], [ 9E9, 9E9, 9E9, 9E9, 9E9, 9E9] ], v1000, fine, pen\WObj:=platform;
    
    !!-0.6192081637058743, -3.1200000000000006;
    MoveL [ [17.476, 10.251, 44.642], [0.231, 0.578, -0.782, 0.000], [0, 0, 0, 0], [ 9E9, 9E9, 9E9, 9E9, 9E9, 9E9] ], v1000, fine, pen\WObj:=platform;
    MoveL [ [-0.619, -3.120, -0.010], [0.231, 0.578, -0.782, 0.000], [0, 0, 0, 0], [ 9E9, 9E9, 9E9, 9E9, 9E9, 9E9] ], v30, fine, pen\WObj:=platform;
    MoveL [ [17.476, 10.251, 44.642], [0.231, 0.578, -0.782, 0.000], [0, 0, 0, 0], [ 9E9, 9E9, 9E9, 9E9, 9E9, 9E9] ], v1000, fine, pen\WObj:=platform;
    
    !!-0.11258330249197708, -3.9975000000000005;
    MoveL [ [18.743, -10.630, 45.821], [0.204, -0.325, -0.923, 0.000], [0, 0, 0, 0], [ 9E9, 9E9, 9E9, 9E9, 9E9, 9E9] ], v1000, fine, pen\WObj:=platform;
    MoveL [ [-0.113, -3.998, -0.010], [0.204, -0.325, -0.923, 0.000], [0, 0, 0, 0], [ 9E9, 9E9, 9E9, 9E9, 9E9, 9E9] ], v30, fine, pen\WObj:=platform;
    MoveL [ [18.743, -10.630, 45.821], [0.204, -0.325, -0.923, 0.000], [0, 0, 0, 0], [ 9E9, 9E9, 9E9, 9E9, 9E9, 9E9] ], v1000, fine, pen\WObj:=platform;
    
    !!-0.056291651245988214, -4.095000000000001;
    MoveL [ [18.728, -10.505, 45.882], [0.203, -0.316, -0.927, 0.000], [0, 0, 0, 0], [ 9E9, 9E9, 9E9, 9E9, 9E9, 9E9] ], v1000, fine, pen\WObj:=platform;
    MoveL [ [-0.056, -4.095, -0.010], [0.203, -0.316, -0.927, 0.000], [0, 0, 0, 0], [ 9E9, 9E9, 9E9, 9E9, 9E9, 9E9] ], v30, fine, pen\WObj:=platform;
    MoveL [ [18.728, -10.505, 45.882], [0.203, -0.316, -0.927, 0.000], [0, 0, 0, 0], [ 9E9, 9E9, 9E9, 9E9, 9E9, 9E9] ], v1000, fine, pen\WObj:=platform;
    
    !!0.4503332099679083, -4.972500000000001;
    MoveL [ [15.684, 12.418, 44.324], [0.238, 0.731, -0.640, 0.000], [0, 0, 0, 0], [ 9E9, 9E9, 9E9, 9E9, 9E9, 9E9] ], v1000, fine, pen\WObj:=platform;
    MoveL [ [0.450, -4.973, -0.010], [0.238, 0.731, -0.640, 0.000], [0, 0, 0, 0], [ 9E9, 9E9, 9E9, 9E9, 9E9, 9E9] ], v30, fine, pen\WObj:=platform;
    MoveL [ [15.684, 12.418, 44.324], [0.238, 0.731, -0.640, 0.000], [0, 0, 0, 0], [ 9E9, 9E9, 9E9, 9E9, 9E9, 9E9] ], v1000, fine, pen\WObj:=platform;
    
    !!0.5066248612138966, -5.070000000000001;
    MoveL [ [15.585, 12.521, 44.298], [0.239, 0.737, -0.632, 0.000], [0, 0, 0, 0], [ 9E9, 9E9, 9E9, 9E9, 9E9, 9E9] ], v1000, fine, pen\WObj:=platform;
    MoveL [ [0.507, -5.070, -0.010], [0.239, 0.737, -0.632, 0.000], [0, 0, 0, 0], [ 9E9, 9E9, 9E9, 9E9, 9E9, 9E9] ], v30, fine, pen\WObj:=platform;
    MoveL [ [15.585, 12.521, 44.298], [0.239, 0.737, -0.632, 0.000], [0, 0, 0, 0], [ 9E9, 9E9, 9E9, 9E9, 9E9, 9E9] ], v1000, fine, pen\WObj:=platform;
    
    !!0.5629165124598847, -5.1675;
    MoveL [ [15.486, 12.624, 44.271], [0.239, 0.744, -0.624, 0.000], [0, 0, 0, 0], [ 9E9, 9E9, 9E9, 9E9, 9E9, 9E9] ], v1000, fine, pen\WObj:=platform;
    MoveL [ [0.563, -5.168, -0.010], [0.239, 0.744, -0.624, 0.000], [0, 0, 0, 0], [ 9E9, 9E9, 9E9, 9E9, 9E9, 9E9] ], v30, fine, pen\WObj:=platform;
    MoveL [ [15.486, 12.624, 44.271], [0.239, 0.744, -0.624, 0.000], [0, 0, 0, 0], [ 9E9, 9E9, 9E9, 9E9, 9E9, 9E9] ], v1000, fine, pen\WObj:=platform;
    
    !!0.6192081637058743, -5.265;
    MoveL [ [15.387, 12.725, 44.242], [0.240, 0.750, -0.616, 0.000], [0, 0, 0, 0], [ 9E9, 9E9, 9E9, 9E9, 9E9, 9E9] ], v1000, fine, pen\WObj:=platform;
    MoveL [ [0.619, -5.265, -0.010], [0.240, 0.750, -0.616, 0.000], [0, 0, 0, 0], [ 9E9, 9E9, 9E9, 9E9, 9E9, 9E9] ], v30, fine, pen\WObj:=platform;
    MoveL [ [15.387, 12.725, 44.242], [0.240, 0.750, -0.616, 0.000], [0, 0, 0, 0], [ 9E9, 9E9, 9E9, 9E9, 9E9, 9E9] ], v1000, fine, pen\WObj:=platform;
    
    !!0.6754998149518625, -5.362500000000001;
    MoveL [ [15.288, 12.825, 44.213], [0.240, 0.757, -0.608, 0.000], [0, 0, 0, 0], [ 9E9, 9E9, 9E9, 9E9, 9E9, 9E9] ], v1000, fine, pen\WObj:=platform;
    MoveL [ [0.675, -5.363, -0.010], [0.240, 0.757, -0.608, 0.000], [0, 0, 0, 0], [ 9E9, 9E9, 9E9, 9E9, 9E9, 9E9] ], v30, fine, pen\WObj:=platform;
    MoveL [ [15.288, 12.825, 44.213], [0.240, 0.757, -0.608, 0.000], [0, 0, 0, 0], [ 9E9, 9E9, 9E9, 9E9, 9E9, 9E9] ], v1000, fine, pen\WObj:=platform;
    
    !!0.7317914661978507, -5.460000000000001;
    MoveL [ [15.188, 12.924, 44.183], [0.241, 0.763, -0.600, 0.000], [0, 0, 0, 0], [ 9E9, 9E9, 9E9, 9E9, 9E9, 9E9] ], v1000, fine, pen\WObj:=platform;
    MoveL [ [0.732, -5.460, -0.010], [0.241, 0.763, -0.600, 0.000], [0, 0, 0, 0], [ 9E9, 9E9, 9E9, 9E9, 9E9, 9E9] ], v30, fine, pen\WObj:=platform;
    MoveL [ [15.188, 12.924, 44.183], [0.241, 0.763, -0.600, 0.000], [0, 0, 0, 0], [ 9E9, 9E9, 9E9, 9E9, 9E9, 9E9] ], v1000, fine, pen\WObj:=platform;
    
    !!0.7880831174438402, -5.557499999999999;
    MoveL [ [15.088, 13.021, 44.153], [0.242, 0.769, -0.592, 0.000], [0, 0, 0, 0], [ 9E9, 9E9, 9E9, 9E9, 9E9, 9E9] ], v1000, fine, pen\WObj:=platform;
    MoveL [ [0.788, -5.557, -0.010], [0.242, 0.769, -0.592, 0.000], [0, 0, 0, 0], [ 9E9, 9E9, 9E9, 9E9, 9E9, 9E9] ], v30, fine, pen\WObj:=platform;
    MoveL [ [15.088, 13.021, 44.153], [0.242, 0.769, -0.592, 0.000], [0, 0, 0, 0], [ 9E9, 9E9, 9E9, 9E9, 9E9, 9E9] ], v1000, fine, pen\WObj:=platform;
    
    !!0.8443747686898284, -5.655000000000001;
    MoveL [ [15.628, 11.468, 44.580], [0.233, 0.736, -0.636, 0.000], [0, 0, 0, 0], [ 9E9, 9E9, 9E9, 9E9, 9E9, 9E9] ], v1000, fine, pen\WObj:=platform;
    MoveL [ [0.844, -5.655, -0.010], [0.233, 0.736, -0.636, 0.000], [0, 0, 0, 0], [ 9E9, 9E9, 9E9, 9E9, 9E9, 9E9] ], v30, fine, pen\WObj:=platform;
    MoveL [ [15.628, 11.468, 44.580], [0.233, 0.736, -0.636, 0.000], [0, 0, 0, 0], [ 9E9, 9E9, 9E9, 9E9, 9E9, 9E9] ], v1000, fine, pen\WObj:=platform;
    
    !!0.9006664199358166, -5.7525;
    MoveL [ [16.159, 9.737, 45.015], [0.223, 0.694, -0.684, 0.000], [0, 0, 0, 0], [ 9E9, 9E9, 9E9, 9E9, 9E9, 9E9] ], v1000, fine, pen\WObj:=platform;
    MoveL [ [0.901, -5.753, -0.010], [0.223, 0.694, -0.684, 0.000], [0, 0, 0, 0], [ 9E9, 9E9, 9E9, 9E9, 9E9, 9E9] ], v30, fine, pen\WObj:=platform;
    MoveL [ [16.159, 9.737, 45.015], [0.223, 0.694, -0.684, 0.000], [0, 0, 0, 0], [ 9E9, 9E9, 9E9, 9E9, 9E9, 9E9] ], v1000, fine, pen\WObj:=platform;
    
    !!0.9569580711818049, -5.8500000000000005;
    MoveL [ [15.427, 11.686, 44.522], [0.234, 0.750, -0.619, 0.000], [0, 0, 0, 0], [ 9E9, 9E9, 9E9, 9E9, 9E9, 9E9] ], v1000, fine, pen\WObj:=platform;
    MoveL [ [0.957, -5.850, -0.010], [0.234, 0.750, -0.619, 0.000], [0, 0, 0, 0], [ 9E9, 9E9, 9E9, 9E9, 9E9, 9E9] ], v30, fine, pen\WObj:=platform;
    MoveL [ [15.427, 11.686, 44.522], [0.234, 0.750, -0.619, 0.000], [0, 0, 0, 0], [ 9E9, 9E9, 9E9, 9E9, 9E9, 9E9] ], v1000, fine, pen\WObj:=platform;
    
    !!0, -4.192500000000001;
    MoveL [ [17.265, -17.285, 45.051], [0.222, -0.589, -0.777, 0.000], [0, 0, 0, 0], [ 9E9, 9E9, 9E9, 9E9, 9E9, 9E9] ], v1000, fine, pen\WObj:=platform;
    MoveL [ [0.000, -4.193, -0.010], [0.222, -0.589, -0.777, 0.000], [0, 0, 0, 0], [ 9E9, 9E9, 9E9, 9E9, 9E9, 9E9] ], v30, fine, pen\WObj:=platform;
    MoveL [ [17.265, -17.285, 45.051], [0.222, -0.589, -0.777, 0.000], [0, 0, 0, 0], [ 9E9, 9E9, 9E9, 9E9, 9E9, 9E9] ], v1000, fine, pen\WObj:=platform;
    
    !!1.0132497224277932, -5.9475;
    MoveL [ [15.961, 9.982, 44.966], [0.224, 0.711, -0.667, 0.000], [0, 0, 0, 0], [ 9E9, 9E9, 9E9, 9E9, 9E9, 9E9] ], v1000, fine, pen\WObj:=platform;
    MoveL [ [1.013, -5.947, -0.010], [0.224, 0.711, -0.667, 0.000], [0, 0, 0, 0], [ 9E9, 9E9, 9E9, 9E9, 9E9, 9E9] ], v30, fine, pen\WObj:=platform;
    MoveL [ [15.961, 9.982, 44.966], [0.224, 0.711, -0.667, 0.000], [0, 0, 0, 0], [ 9E9, 9E9, 9E9, 9E9, 9E9, 9E9] ], v1000, fine, pen\WObj:=platform;
    
    !!1.069541373673781, -6.045000000000002;
    MoveL [ [15.861, 10.102, 44.940], [0.225, 0.719, -0.658, 0.000], [0, 0, 0, 0], [ 9E9, 9E9, 9E9, 9E9, 9E9, 9E9] ], v1000, fine, pen\WObj:=platform;
    MoveL [ [1.070, -6.045, -0.010], [0.225, 0.719, -0.658, 0.000], [0, 0, 0, 0], [ 9E9, 9E9, 9E9, 9E9, 9E9, 9E9] ], v30, fine, pen\WObj:=platform;
    MoveL [ [15.861, 10.102, 44.940], [0.225, 0.719, -0.658, 0.000], [0, 0, 0, 0], [ 9E9, 9E9, 9E9, 9E9, 9E9, 9E9] ], v1000, fine, pen\WObj:=platform;
    
    !!1.1258330249197694, -6.142500000000001;
    MoveL [ [14.486, 13.582, 43.950], [0.246, 0.803, -0.544, 0.000], [0, 0, 0, 0], [ 9E9, 9E9, 9E9, 9E9, 9E9, 9E9] ], v1000, fine, pen\WObj:=platform;
    MoveL [ [1.126, -6.143, -0.010], [0.246, 0.803, -0.544, 0.000], [0, 0, 0, 0], [ 9E9, 9E9, 9E9, 9E9, 9E9, 9E9] ], v30, fine, pen\WObj:=platform;
    MoveL [ [14.486, 13.582, 43.950], [0.246, 0.803, -0.544, 0.000], [0, 0, 0, 0], [ 9E9, 9E9, 9E9, 9E9, 9E9, 9E9] ], v1000, fine, pen\WObj:=platform;
    
    !!1.1821246761657591, -6.240000000000001;
    MoveL [ [15.660, 10.340, 44.884], [0.226, 0.734, -0.641, 0.000], [0, 0, 0, 0], [ 9E9, 9E9, 9E9, 9E9, 9E9, 9E9] ], v1000, fine, pen\WObj:=platform;
    MoveL [ [1.182, -6.240, -0.010], [0.226, 0.734, -0.641, 0.000], [0, 0, 0, 0], [ 9E9, 9E9, 9E9, 9E9, 9E9, 9E9] ], v30, fine, pen\WObj:=platform;
    MoveL [ [15.660, 10.340, 44.884], [0.226, 0.734, -0.641, 0.000], [0, 0, 0, 0], [ 9E9, 9E9, 9E9, 9E9, 9E9, 9E9] ], v1000, fine, pen\WObj:=platform;
    
    !!1.238416327411747, -6.3375;
    MoveL [ [14.284, 13.759, 43.875], [0.247, 0.813, -0.528, 0.000], [0, 0, 0, 0], [ 9E9, 9E9, 9E9, 9E9, 9E9, 9E9] ], v1000, fine, pen\WObj:=platform;
    MoveL [ [1.238, -6.338, -0.010], [0.247, 0.813, -0.528, 0.000], [0, 0, 0, 0], [ 9E9, 9E9, 9E9, 9E9, 9E9, 9E9] ], v30, fine, pen\WObj:=platform;
    MoveL [ [14.284, 13.759, 43.875], [0.247, 0.813, -0.528, 0.000], [0, 0, 0, 0], [ 9E9, 9E9, 9E9, 9E9, 9E9, 9E9] ], v1000, fine, pen\WObj:=platform;
    
    !!1.2947079786577353, -6.435000000000002;
    MoveL [ [15.457, 10.573, 44.825], [0.227, 0.748, -0.623, 0.000], [0, 0, 0, 0], [ 9E9, 9E9, 9E9, 9E9, 9E9, 9E9] ], v1000, fine, pen\WObj:=platform;
    MoveL [ [1.295, -6.435, -0.010], [0.227, 0.748, -0.623, 0.000], [0, 0, 0, 0], [ 9E9, 9E9, 9E9, 9E9, 9E9, 9E9] ], v30, fine, pen\WObj:=platform;
    MoveL [ [15.457, 10.573, 44.825], [0.227, 0.748, -0.623, 0.000], [0, 0, 0, 0], [ 9E9, 9E9, 9E9, 9E9, 9E9, 9E9] ], v1000, fine, pen\WObj:=platform;
    
    !!1.350999629903725, -6.532500000000001;
    MoveL [ [15.981, 8.747, 45.295], [0.217, 0.705, -0.675, 0.000], [0, 0, 0, 0], [ 9E9, 9E9, 9E9, 9E9, 9E9, 9E9] ], v1000, fine, pen\WObj:=platform;
    MoveL [ [1.351, -6.533, -0.010], [0.217, 0.705, -0.675, 0.000], [0, 0, 0, 0], [ 9E9, 9E9, 9E9, 9E9, 9E9, 9E9] ], v30, fine, pen\WObj:=platform;
    MoveL [ [15.981, 8.747, 45.295], [0.217, 0.705, -0.675, 0.000], [0, 0, 0, 0], [ 9E9, 9E9, 9E9, 9E9, 9E9, 9E9] ], v1000, fine, pen\WObj:=platform;
    
    !!1.4072912811497131, -6.630000000000001;
    MoveL [ [15.881, 8.875, 45.268], [0.217, 0.714, -0.666, 0.000], [0, 0, 0, 0], [ 9E9, 9E9, 9E9, 9E9, 9E9, 9E9] ], v1000, fine, pen\WObj:=platform;
    MoveL [ [1.407, -6.630, -0.010], [0.217, 0.714, -0.666, 0.000], [0, 0, 0, 0], [ 9E9, 9E9, 9E9, 9E9, 9E9, 9E9] ], v30, fine, pen\WObj:=platform;
    MoveL [ [15.881, 8.875, 45.268], [0.217, 0.714, -0.666, 0.000], [0, 0, 0, 0], [ 9E9, 9E9, 9E9, 9E9, 9E9, 9E9] ], v1000, fine, pen\WObj:=platform;
    
    !!1.4635829323957015, -6.727499999999999;
    MoveL [ [15.780, 9.003, 45.241], [0.218, 0.722, -0.657, 0.000], [0, 0, 0, 0], [ 9E9, 9E9, 9E9, 9E9, 9E9, 9E9] ], v1000, fine, pen\WObj:=platform;
    MoveL [ [1.464, -6.727, -0.010], [0.218, 0.722, -0.657, 0.000], [0, 0, 0, 0], [ 9E9, 9E9, 9E9, 9E9, 9E9, 9E9] ], v30, fine, pen\WObj:=platform;
    MoveL [ [15.780, 9.003, 45.241], [0.218, 0.722, -0.657, 0.000], [0, 0, 0, 0], [ 9E9, 9E9, 9E9, 9E9, 9E9, 9E9] ], v1000, fine, pen\WObj:=platform;
    
    !!1.5198745836416896, -6.825000000000001;
    MoveL [ [14.409, 12.702, 44.178], [0.241, 0.810, -0.535, 0.000], [0, 0, 0, 0], [ 9E9, 9E9, 9E9, 9E9, 9E9, 9E9] ], v1000, fine, pen\WObj:=platform;
    MoveL [ [1.520, -6.825, -0.010], [0.241, 0.810, -0.535, 0.000], [0, 0, 0, 0], [ 9E9, 9E9, 9E9, 9E9, 9E9, 9E9] ], v30, fine, pen\WObj:=platform;
    MoveL [ [14.409, 12.702, 44.178], [0.241, 0.810, -0.535, 0.000], [0, 0, 0, 0], [ 9E9, 9E9, 9E9, 9E9, 9E9, 9E9] ], v1000, fine, pen\WObj:=platform;
    
    !!0.056291651245988214, -4.290000000000001;
    MoveL [ [18.958, -7.616, 46.160], [0.196, -0.170, -0.966, 0.000], [0, 0, 0, 0], [ 9E9, 9E9, 9E9, 9E9, 9E9, 9E9] ], v1000, fine, pen\WObj:=platform;
    MoveL [ [0.056, -4.290, -0.010], [0.196, -0.170, -0.966, 0.000], [0, 0, 0, 0], [ 9E9, 9E9, 9E9, 9E9, 9E9, 9E9] ], v30, fine, pen\WObj:=platform;
    MoveL [ [18.958, -7.616, 46.160], [0.196, -0.170, -0.966, 0.000], [0, 0, 0, 0], [ 9E9, 9E9, 9E9, 9E9, 9E9, 9E9] ], v1000, fine, pen\WObj:=platform;
    
    !!1.576166234887678, -6.9225;
    MoveL [ [14.944, 11.134, 44.658], [0.231, 0.782, -0.579, 0.000], [0, 0, 0, 0], [ 9E9, 9E9, 9E9, 9E9, 9E9, 9E9] ], v1000, fine, pen\WObj:=platform;
    MoveL [ [1.576, -6.923, -0.010], [0.231, 0.782, -0.579, 0.000], [0, 0, 0, 0], [ 9E9, 9E9, 9E9, 9E9, 9E9, 9E9] ], v30, fine, pen\WObj:=platform;
    MoveL [ [14.944, 11.134, 44.658], [0.231, 0.782, -0.579, 0.000], [0, 0, 0, 0], [ 9E9, 9E9, 9E9, 9E9, 9E9, 9E9] ], v1000, fine, pen\WObj:=platform;
    
    !!1.632457886133666, -7.0200000000000005;
    MoveL [ [13.578, 14.340, 43.591], [0.253, 0.844, -0.472, 0.000], [0, 0, 0, 0], [ 9E9, 9E9, 9E9, 9E9, 9E9, 9E9] ], v1000, fine, pen\WObj:=platform;
    MoveL [ [1.632, -7.020, -0.010], [0.253, 0.844, -0.472, 0.000], [0, 0, 0, 0], [ 9E9, 9E9, 9E9, 9E9, 9E9, 9E9] ], v30, fine, pen\WObj:=platform;
    MoveL [ [13.578, 14.340, 43.591], [0.253, 0.844, -0.472, 0.000], [0, 0, 0, 0], [ 9E9, 9E9, 9E9, 9E9, 9E9, 9E9] ], v1000, fine, pen\WObj:=platform;
    
    !!1.6887495373796555, -7.1175000000000015;
    MoveL [ [13.477, 14.417, 43.548], [0.254, 0.848, -0.464, 0.000], [0, 0, 0, 0], [ 9E9, 9E9, 9E9, 9E9, 9E9, 9E9] ], v1000, fine, pen\WObj:=platform;
    MoveL [ [1.689, -7.118, -0.010], [0.254, 0.848, -0.464, 0.000], [0, 0, 0, 0], [ 9E9, 9E9, 9E9, 9E9, 9E9, 9E9] ], v30, fine, pen\WObj:=platform;
    MoveL [ [13.477, 14.417, 43.548], [0.254, 0.848, -0.464, 0.000], [0, 0, 0, 0], [ 9E9, 9E9, 9E9, 9E9, 9E9, 9E9] ], v1000, fine, pen\WObj:=platform;
    
    !!1.7450411886256436, -7.215000000000002;
    MoveL [ [13.377, 14.494, 43.504], [0.255, 0.852, -0.457, 0.000], [0, 0, 0, 0], [ 9E9, 9E9, 9E9, 9E9, 9E9, 9E9] ], v1000, fine, pen\WObj:=platform;
    MoveL [ [1.745, -7.215, -0.010], [0.255, 0.852, -0.457, 0.000], [0, 0, 0, 0], [ 9E9, 9E9, 9E9, 9E9, 9E9, 9E9] ], v30, fine, pen\WObj:=platform;
    MoveL [ [13.377, 14.494, 43.504], [0.255, 0.852, -0.457, 0.000], [0, 0, 0, 0], [ 9E9, 9E9, 9E9, 9E9, 9E9, 9E9] ], v1000, fine, pen\WObj:=platform;
    
    !!1.801332839871632, -7.312500000000001;
    MoveL [ [13.276, 14.569, 43.459], [0.256, 0.856, -0.449, 0.000], [0, 0, 0, 0], [ 9E9, 9E9, 9E9, 9E9, 9E9, 9E9] ], v1000, fine, pen\WObj:=platform;
    MoveL [ [1.801, -7.313, -0.010], [0.256, 0.856, -0.449, 0.000], [0, 0, 0, 0], [ 9E9, 9E9, 9E9, 9E9, 9E9, 9E9] ], v30, fine, pen\WObj:=platform;
    MoveL [ [13.276, 14.569, 43.459], [0.256, 0.856, -0.449, 0.000], [0, 0, 0, 0], [ 9E9, 9E9, 9E9, 9E9, 9E9, 9E9] ], v1000, fine, pen\WObj:=platform;
    
    !!1.8576244911176216, -7.410000000000001;
    MoveL [ [13.176, 14.643, 43.413], [0.256, 0.860, -0.441, 0.000], [0, 0, 0, 0], [ 9E9, 9E9, 9E9, 9E9, 9E9, 9E9] ], v1000, fine, pen\WObj:=platform;
    MoveL [ [1.858, -7.410, -0.010], [0.256, 0.860, -0.441, 0.000], [0, 0, 0, 0], [ 9E9, 9E9, 9E9, 9E9, 9E9, 9E9] ], v30, fine, pen\WObj:=platform;
    MoveL [ [13.176, 14.643, 43.413], [0.256, 0.860, -0.441, 0.000], [0, 0, 0, 0], [ 9E9, 9E9, 9E9, 9E9, 9E9, 9E9] ], v1000, fine, pen\WObj:=platform;
    
    !!1.9139161423636097, -7.507500000000001;
    MoveL [ [13.076, 14.716, 43.367], [0.257, 0.864, -0.434, 0.000], [0, 0, 0, 0], [ 9E9, 9E9, 9E9, 9E9, 9E9, 9E9] ], v1000, fine, pen\WObj:=platform;
    MoveL [ [1.914, -7.508, -0.010], [0.257, 0.864, -0.434, 0.000], [0, 0, 0, 0], [ 9E9, 9E9, 9E9, 9E9, 9E9, 9E9] ], v30, fine, pen\WObj:=platform;
    MoveL [ [13.076, 14.716, 43.367], [0.257, 0.864, -0.434, 0.000], [0, 0, 0, 0], [ 9E9, 9E9, 9E9, 9E9, 9E9, 9E9] ], v1000, fine, pen\WObj:=platform;
    
    !!0.11258330249197772, -4.3875;
    MoveL [ [16.269, 11.773, 44.463], [0.235, 0.687, -0.687, 0.000], [0, 0, 0, 0], [ 9E9, 9E9, 9E9, 9E9, 9E9, 9E9] ], v1000, fine, pen\WObj:=platform;
    MoveL [ [0.113, -4.388, -0.010], [0.235, 0.687, -0.687, 0.000], [0, 0, 0, 0], [ 9E9, 9E9, 9E9, 9E9, 9E9, 9E9] ], v30, fine, pen\WObj:=platform;
    MoveL [ [16.269, 11.773, 44.463], [0.235, 0.687, -0.687, 0.000], [0, 0, 0, 0], [ 9E9, 9E9, 9E9, 9E9, 9E9, 9E9] ], v1000, fine, pen\WObj:=platform;
    
    !!0.16887495373796593, -4.485;
    MoveL [ [16.172, 11.883, 44.442], [0.236, 0.695, -0.679, 0.000], [0, 0, 0, 0], [ 9E9, 9E9, 9E9, 9E9, 9E9, 9E9] ], v1000, fine, pen\WObj:=platform;
    MoveL [ [0.169, -4.485, -0.010], [0.236, 0.695, -0.679, 0.000], [0, 0, 0, 0], [ 9E9, 9E9, 9E9, 9E9, 9E9, 9E9] ], v30, fine, pen\WObj:=platform;
    MoveL [ [16.172, 11.883, 44.442], [0.236, 0.695, -0.679, 0.000], [0, 0, 0, 0], [ 9E9, 9E9, 9E9, 9E9, 9E9, 9E9] ], v1000, fine, pen\WObj:=platform;
    
    !!0.22516660498395416, -4.582500000000001;
    MoveL [ [16.075, 11.992, 44.420], [0.236, 0.702, -0.672, 0.000], [0, 0, 0, 0], [ 9E9, 9E9, 9E9, 9E9, 9E9, 9E9] ], v1000, fine, pen\WObj:=platform;
    MoveL [ [0.225, -4.583, -0.010], [0.236, 0.702, -0.672, 0.000], [0, 0, 0, 0], [ 9E9, 9E9, 9E9, 9E9, 9E9, 9E9] ], v30, fine, pen\WObj:=platform;
    MoveL [ [16.075, 11.992, 44.420], [0.236, 0.702, -0.672, 0.000], [0, 0, 0, 0], [ 9E9, 9E9, 9E9, 9E9, 9E9, 9E9] ], v1000, fine, pen\WObj:=platform;
    
    !!0.28145825622994236, -4.680000000000001;
    MoveL [ [15.978, 12.100, 44.398], [0.236, 0.710, -0.664, 0.000], [0, 0, 0, 0], [ 9E9, 9E9, 9E9, 9E9, 9E9, 9E9] ], v1000, fine, pen\WObj:=platform;
    MoveL [ [0.281, -4.680, -0.010], [0.236, 0.710, -0.664, 0.000], [0, 0, 0, 0], [ 9E9, 9E9, 9E9, 9E9, 9E9, 9E9] ], v30, fine, pen\WObj:=platform;
    MoveL [ [15.978, 12.100, 44.398], [0.236, 0.710, -0.664, 0.000], [0, 0, 0, 0], [ 9E9, 9E9, 9E9, 9E9, 9E9, 9E9] ], v1000, fine, pen\WObj:=platform;
    
    !!0.33774990747593053, -4.7775;
    MoveL [ [18.771, -1.365, 46.343], [0.191, 0.179, -0.965, 0.000], [0, 0, 0, 0], [ 9E9, 9E9, 9E9, 9E9, 9E9, 9E9] ], v1000, fine, pen\WObj:=platform;
    MoveL [ [0.338, -4.777, -0.010], [0.191, 0.179, -0.965, 0.000], [0, 0, 0, 0], [ 9E9, 9E9, 9E9, 9E9, 9E9, 9E9] ], v30, fine, pen\WObj:=platform;
    MoveL [ [18.771, -1.365, 46.343], [0.191, 0.179, -0.965, 0.000], [0, 0, 0, 0], [ 9E9, 9E9, 9E9, 9E9, 9E9, 9E9] ], v1000, fine, pen\WObj:=platform;
    
    !!0.39404155872191876, -4.875;
    MoveL [ [15.782, 12.313, 44.350], [0.237, 0.724, -0.648, 0.000], [0, 0, 0, 0], [ 9E9, 9E9, 9E9, 9E9, 9E9, 9E9] ], v1000, fine, pen\WObj:=platform;
    MoveL [ [0.394, -4.875, -0.010], [0.237, 0.724, -0.648, 0.000], [0, 0, 0, 0], [ 9E9, 9E9, 9E9, 9E9, 9E9, 9E9] ], v30, fine, pen\WObj:=platform;
    MoveL [ [15.782, 12.313, 44.350], [0.237, 0.724, -0.648, 0.000], [0, 0, 0, 0], [ 9E9, 9E9, 9E9, 9E9, 9E9, 9E9] ], v1000, fine, pen\WObj:=platform;
    
    !!-1.1821246761657591, -3.9000000000000004;
    MoveL [ [17.486, 10.690, 44.020], [0.244, 0.597, -0.764, 0.000], [0, 0, 0, 0], [ 9E9, 9E9, 9E9, 9E9, 9E9, 9E9] ], v1000, fine, pen\WObj:=platform;
    MoveL [ [-1.182, -3.900, -0.010], [0.244, 0.597, -0.764, 0.000], [0, 0, 0, 0], [ 9E9, 9E9, 9E9, 9E9, 9E9, 9E9] ], v30, fine, pen\WObj:=platform;
    MoveL [ [17.486, 10.690, 44.020], [0.244, 0.597, -0.764, 0.000], [0, 0, 0, 0], [ 9E9, 9E9, 9E9, 9E9, 9E9, 9E9] ], v1000, fine, pen\WObj:=platform;
    
    !!-1.6887495373796555, -3.022500000000001;
    MoveL [ [18.243, 9.625, 44.067], [0.243, 0.520, -0.819, 0.000], [0, 0, 0, 0], [ 9E9, 9E9, 9E9, 9E9, 9E9, 9E9] ], v1000, fine, pen\WObj:=platform;
    MoveL [ [-1.689, -3.023, -0.010], [0.243, 0.520, -0.819, 0.000], [0, 0, 0, 0], [ 9E9, 9E9, 9E9, 9E9, 9E9, 9E9] ], v30, fine, pen\WObj:=platform;
    MoveL [ [18.243, 9.625, 44.067], [0.243, 0.520, -0.819, 0.000], [0, 0, 0, 0], [ 9E9, 9E9, 9E9, 9E9, 9E9, 9E9] ], v1000, fine, pen\WObj:=platform;
    
    !!-1.7450411886256436, -2.9250000000000003;
    MoveL [ [18.323, 9.503, 44.067], [0.243, 0.511, -0.825, 0.000], [0, 0, 0, 0], [ 9E9, 9E9, 9E9, 9E9, 9E9, 9E9] ], v1000, fine, pen\WObj:=platform;
    MoveL [ [-1.745, -2.925, -0.010], [0.243, 0.511, -0.825, 0.000], [0, 0, 0, 0], [ 9E9, 9E9, 9E9, 9E9, 9E9, 9E9] ], v30, fine, pen\WObj:=platform;
    MoveL [ [18.323, 9.503, 44.067], [0.243, 0.511, -0.825, 0.000], [0, 0, 0, 0], [ 9E9, 9E9, 9E9, 9E9, 9E9, 9E9] ], v1000, fine, pen\WObj:=platform;
    
    !!-1.8013328398716324, -2.8275000000000006;
    MoveL [ [18.403, 9.381, 44.067], [0.243, 0.502, -0.830, 0.000], [0, 0, 0, 0], [ 9E9, 9E9, 9E9, 9E9, 9E9, 9E9] ], v1000, fine, pen\WObj:=platform;
    MoveL [ [-1.801, -2.828, -0.010], [0.243, 0.502, -0.830, 0.000], [0, 0, 0, 0], [ 9E9, 9E9, 9E9, 9E9, 9E9, 9E9] ], v30, fine, pen\WObj:=platform;
    MoveL [ [18.403, 9.381, 44.067], [0.243, 0.502, -0.830, 0.000], [0, 0, 0, 0], [ 9E9, 9E9, 9E9, 9E9, 9E9, 9E9] ], v1000, fine, pen\WObj:=platform;
    
    !!-1.8576244911176216, -2.7300000000000004;
    MoveL [ [18.482, 9.258, 44.065], [0.243, 0.492, -0.836, 0.000], [0, 0, 0, 0], [ 9E9, 9E9, 9E9, 9E9, 9E9, 9E9] ], v1000, fine, pen\WObj:=platform;
    MoveL [ [-1.858, -2.730, -0.010], [0.243, 0.492, -0.836, 0.000], [0, 0, 0, 0], [ 9E9, 9E9, 9E9, 9E9, 9E9, 9E9] ], v30, fine, pen\WObj:=platform;
    MoveL [ [18.482, 9.258, 44.065], [0.243, 0.492, -0.836, 0.000], [0, 0, 0, 0], [ 9E9, 9E9, 9E9, 9E9, 9E9, 9E9] ], v1000, fine, pen\WObj:=platform;
    
    !!-1.9139161423636097, -2.632500000000001;
    MoveL [ [18.560, 9.134, 44.062], [0.243, 0.483, -0.841, 0.000], [0, 0, 0, 0], [ 9E9, 9E9, 9E9, 9E9, 9E9, 9E9] ], v1000, fine, pen\WObj:=platform;
    MoveL [ [-1.914, -2.633, -0.010], [0.243, 0.483, -0.841, 0.000], [0, 0, 0, 0], [ 9E9, 9E9, 9E9, 9E9, 9E9, 9E9] ], v30, fine, pen\WObj:=platform;
    MoveL [ [18.560, 9.134, 44.062], [0.243, 0.483, -0.841, 0.000], [0, 0, 0, 0], [ 9E9, 9E9, 9E9, 9E9, 9E9, 9E9] ], v1000, fine, pen\WObj:=platform;
    
    !!-1.9702077936095979, -2.5350000000000006;
    MoveL [ [18.637, 9.009, 44.059], [0.244, 0.474, -0.846, 0.000], [0, 0, 0, 0], [ 9E9, 9E9, 9E9, 9E9, 9E9, 9E9] ], v1000, fine, pen\WObj:=platform;
    MoveL [ [-1.970, -2.535, -0.010], [0.244, 0.474, -0.846, 0.000], [0, 0, 0, 0], [ 9E9, 9E9, 9E9, 9E9, 9E9, 9E9] ], v30, fine, pen\WObj:=platform;
    MoveL [ [18.637, 9.009, 44.059], [0.244, 0.474, -0.846, 0.000], [0, 0, 0, 0], [ 9E9, 9E9, 9E9, 9E9, 9E9, 9E9] ], v1000, fine, pen\WObj:=platform;
    
    !!-2.026499444855587, -2.4375;
    MoveL [ [18.714, 8.885, 44.054], [0.244, 0.465, -0.851, 0.000], [0, 0, 0, 0], [ 9E9, 9E9, 9E9, 9E9, 9E9, 9E9] ], v1000, fine, pen\WObj:=platform;
    MoveL [ [-2.026, -2.438, -0.010], [0.244, 0.465, -0.851, 0.000], [0, 0, 0, 0], [ 9E9, 9E9, 9E9, 9E9, 9E9, 9E9] ], v30, fine, pen\WObj:=platform;
    MoveL [ [18.714, 8.885, 44.054], [0.244, 0.465, -0.851, 0.000], [0, 0, 0, 0], [ 9E9, 9E9, 9E9, 9E9, 9E9, 9E9] ], v1000, fine, pen\WObj:=platform;
    
    !!-2.082791096101575, -2.3400000000000003;
    MoveL [ [18.789, 8.759, 44.049], [0.244, 0.455, -0.856, 0.000], [0, 0, 0, 0], [ 9E9, 9E9, 9E9, 9E9, 9E9, 9E9] ], v1000, fine, pen\WObj:=platform;
    MoveL [ [-2.083, -2.340, -0.010], [0.244, 0.455, -0.856, 0.000], [0, 0, 0, 0], [ 9E9, 9E9, 9E9, 9E9, 9E9, 9E9] ], v30, fine, pen\WObj:=platform;
    MoveL [ [18.789, 8.759, 44.049], [0.244, 0.455, -0.856, 0.000], [0, 0, 0, 0], [ 9E9, 9E9, 9E9, 9E9, 9E9, 9E9] ], v1000, fine, pen\WObj:=platform;
    
    !!-2.1390827473475635, -2.2425;
    MoveL [ [19.361, 6.602, 44.256], [0.239, 0.369, -0.898, 0.000], [0, 0, 0, 0], [ 9E9, 9E9, 9E9, 9E9, 9E9, 9E9] ], v1000, fine, pen\WObj:=platform;
    MoveL [ [-2.139, -2.243, -0.010], [0.239, 0.369, -0.898, 0.000], [0, 0, 0, 0], [ 9E9, 9E9, 9E9, 9E9, 9E9, 9E9] ], v30, fine, pen\WObj:=platform;
    MoveL [ [19.361, 6.602, 44.256], [0.239, 0.369, -0.898, 0.000], [0, 0, 0, 0], [ 9E9, 9E9, 9E9, 9E9, 9E9, 9E9] ], v1000, fine, pen\WObj:=platform;
    
    !!-2.195374398593552, -2.1450000000000005;
    MoveL [ [19.428, 6.467, 44.242], [0.240, 0.359, -0.902, 0.000], [0, 0, 0, 0], [ 9E9, 9E9, 9E9, 9E9, 9E9, 9E9] ], v1000, fine, pen\WObj:=platform;
    MoveL [ [-2.195, -2.145, -0.010], [0.240, 0.359, -0.902, 0.000], [0, 0, 0, 0], [ 9E9, 9E9, 9E9, 9E9, 9E9, 9E9] ], v30, fine, pen\WObj:=platform;
    MoveL [ [19.428, 6.467, 44.242], [0.240, 0.359, -0.902, 0.000], [0, 0, 0, 0], [ 9E9, 9E9, 9E9, 9E9, 9E9, 9E9] ], v1000, fine, pen\WObj:=platform;
    
    !!-1.238416327411747, -3.8025;
    MoveL [ [17.573, 10.575, 44.029], [0.244, 0.589, -0.770, 0.000], [0, 0, 0, 0], [ 9E9, 9E9, 9E9, 9E9, 9E9, 9E9] ], v1000, fine, pen\WObj:=platform;
    MoveL [ [-1.238, -3.803, -0.010], [0.244, 0.589, -0.770, 0.000], [0, 0, 0, 0], [ 9E9, 9E9, 9E9, 9E9, 9E9, 9E9] ], v30, fine, pen\WObj:=platform;
    MoveL [ [17.573, 10.575, 44.029], [0.244, 0.589, -0.770, 0.000], [0, 0, 0, 0], [ 9E9, 9E9, 9E9, 9E9, 9E9, 9E9] ], v1000, fine, pen\WObj:=platform;
    
    !!-2.25166604983954, -2.0475000000000003;
    MoveL [ [19.494, 6.332, 44.227], [0.240, 0.349, -0.906, 0.000], [0, 0, 0, 0], [ 9E9, 9E9, 9E9, 9E9, 9E9, 9E9] ], v1000, fine, pen\WObj:=platform;
    MoveL [ [-2.252, -2.048, -0.010], [0.240, 0.349, -0.906, 0.000], [0, 0, 0, 0], [ 9E9, 9E9, 9E9, 9E9, 9E9, 9E9] ], v30, fine, pen\WObj:=platform;
    MoveL [ [19.494, 6.332, 44.227], [0.240, 0.349, -0.906, 0.000], [0, 0, 0, 0], [ 9E9, 9E9, 9E9, 9E9, 9E9, 9E9] ], v1000, fine, pen\WObj:=platform;
    
    !!-2.3079577010855292, -1.9500000000000004;
    MoveL [ [20.467, -3.180, 44.485], [0.235, -0.052, -0.971, 0.000], [0, 0, 0, 0], [ 9E9, 9E9, 9E9, 9E9, 9E9, 9E9] ], v1000, fine, pen\WObj:=platform;
    MoveL [ [-2.308, -1.950, -0.010], [0.235, -0.052, -0.971, 0.000], [0, 0, 0, 0], [ 9E9, 9E9, 9E9, 9E9, 9E9, 9E9] ], v30, fine, pen\WObj:=platform;
    MoveL [ [20.467, -3.180, 44.485], [0.235, -0.052, -0.971, 0.000], [0, 0, 0, 0], [ 9E9, 9E9, 9E9, 9E9, 9E9, 9E9] ], v1000, fine, pen\WObj:=platform;
    
    !!-2.3642493523315182, -1.8525;
    MoveL [ [20.490, -3.317, 44.437], [0.236, -0.062, -0.970, 0.000], [0, 0, 0, 0], [ 9E9, 9E9, 9E9, 9E9, 9E9, 9E9] ], v1000, fine, pen\WObj:=platform;
    MoveL [ [-2.364, -1.853, -0.010], [0.236, -0.062, -0.970, 0.000], [0, 0, 0, 0], [ 9E9, 9E9, 9E9, 9E9, 9E9, 9E9] ], v30, fine, pen\WObj:=platform;
    MoveL [ [20.490, -3.317, 44.437], [0.236, -0.062, -0.970, 0.000], [0, 0, 0, 0], [ 9E9, 9E9, 9E9, 9E9, 9E9, 9E9] ], v1000, fine, pen\WObj:=platform;
    
    !!-2.420541003577506, -1.7550000000000003;
    MoveL [ [20.336, 1.393, 44.400], [0.236, 0.133, -0.962, 0.000], [0, 0, 0, 0], [ 9E9, 9E9, 9E9, 9E9, 9E9, 9E9] ], v1000, fine, pen\WObj:=platform;
    MoveL [ [-2.421, -1.755, -0.010], [0.236, 0.133, -0.962, 0.000], [0, 0, 0, 0], [ 9E9, 9E9, 9E9, 9E9, 9E9, 9E9] ], v30, fine, pen\WObj:=platform;
    MoveL [ [20.336, 1.393, 44.400], [0.236, 0.133, -0.962, 0.000], [0, 0, 0, 0], [ 9E9, 9E9, 9E9, 9E9, 9E9, 9E9] ], v1000, fine, pen\WObj:=platform;
    
    !!-2.476832654823495, -1.6575000000000002;
    MoveL [ [19.747, 5.790, 44.156], [0.242, 0.308, -0.920, 0.000], [0, 0, 0, 0], [ 9E9, 9E9, 9E9, 9E9, 9E9, 9E9] ], v1000, fine, pen\WObj:=platform;
    MoveL [ [-2.477, -1.658, -0.010], [0.242, 0.308, -0.920, 0.000], [0, 0, 0, 0], [ 9E9, 9E9, 9E9, 9E9, 9E9, 9E9] ], v30, fine, pen\WObj:=platform;
    MoveL [ [19.747, 5.790, 44.156], [0.242, 0.308, -0.920, 0.000], [0, 0, 0, 0], [ 9E9, 9E9, 9E9, 9E9, 9E9, 9E9] ], v1000, fine, pen\WObj:=platform;
    
    !!-2.533124306069483, -1.5600000000000003;
    MoveL [ [20.166, 3.436, 44.259], [0.239, 0.209, -0.948, 0.000], [0, 0, 0, 0], [ 9E9, 9E9, 9E9, 9E9, 9E9, 9E9] ], v1000, fine, pen\WObj:=platform;
    MoveL [ [-2.533, -1.560, -0.010], [0.239, 0.209, -0.948, 0.000], [0, 0, 0, 0], [ 9E9, 9E9, 9E9, 9E9, 9E9, 9E9] ], v30, fine, pen\WObj:=platform;
    MoveL [ [20.166, 3.436, 44.259], [0.239, 0.209, -0.948, 0.000], [0, 0, 0, 0], [ 9E9, 9E9, 9E9, 9E9, 9E9, 9E9] ], v1000, fine, pen\WObj:=platform;
    
    !!-2.589415957315471, -1.4625;
    MoveL [ [20.217, 3.296, 44.231], [0.240, 0.198, -0.950, 0.000], [0, 0, 0, 0], [ 9E9, 9E9, 9E9, 9E9, 9E9, 9E9] ], v1000, fine, pen\WObj:=platform;
    MoveL [ [-2.589, -1.462, -0.010], [0.240, 0.198, -0.950, 0.000], [0, 0, 0, 0], [ 9E9, 9E9, 9E9, 9E9, 9E9, 9E9] ], v30, fine, pen\WObj:=platform;
    MoveL [ [20.217, 3.296, 44.231], [0.240, 0.198, -0.950, 0.000], [0, 0, 0, 0], [ 9E9, 9E9, 9E9, 9E9, 9E9, 9E9] ], v1000, fine, pen\WObj:=platform;
    
    !!-2.6457076085614597, -1.3650000000000007;
    MoveL [ [20.266, 3.156, 44.201], [0.241, 0.188, -0.952, 0.000], [0, 0, 0, 0], [ 9E9, 9E9, 9E9, 9E9, 9E9, 9E9] ], v1000, fine, pen\WObj:=platform;
    MoveL [ [-2.646, -1.365, -0.010], [0.241, 0.188, -0.952, 0.000], [0, 0, 0, 0], [ 9E9, 9E9, 9E9, 9E9, 9E9, 9E9] ], v30, fine, pen\WObj:=platform;
    MoveL [ [20.266, 3.156, 44.201], [0.241, 0.188, -0.952, 0.000], [0, 0, 0, 0], [ 9E9, 9E9, 9E9, 9E9, 9E9, 9E9] ], v1000, fine, pen\WObj:=platform;
    
    !!-2.701999259807449, -1.2675000000000003;
    MoveL [ [20.313, 3.016, 44.171], [0.241, 0.178, -0.954, 0.000], [0, 0, 0, 0], [ 9E9, 9E9, 9E9, 9E9, 9E9, 9E9] ], v1000, fine, pen\WObj:=platform;
    MoveL [ [-2.702, -1.268, -0.010], [0.241, 0.178, -0.954, 0.000], [0, 0, 0, 0], [ 9E9, 9E9, 9E9, 9E9, 9E9, 9E9] ], v30, fine, pen\WObj:=platform;
    MoveL [ [20.313, 3.016, 44.171], [0.241, 0.178, -0.954, 0.000], [0, 0, 0, 0], [ 9E9, 9E9, 9E9, 9E9, 9E9, 9E9] ], v1000, fine, pen\WObj:=platform;
    
    !!-2.7582909110534377, -1.1700000000000004;
    MoveL [ [20.360, 2.877, 44.139], [0.242, 0.167, -0.956, 0.000], [0, 0, 0, 0], [ 9E9, 9E9, 9E9, 9E9, 9E9, 9E9] ], v1000, fine, pen\WObj:=platform;
    MoveL [ [-2.758, -1.170, -0.010], [0.242, 0.167, -0.956, 0.000], [0, 0, 0, 0], [ 9E9, 9E9, 9E9, 9E9, 9E9, 9E9] ], v30, fine, pen\WObj:=platform;
    MoveL [ [20.360, 2.877, 44.139], [0.242, 0.167, -0.956, 0.000], [0, 0, 0, 0], [ 9E9, 9E9, 9E9, 9E9, 9E9, 9E9] ], v1000, fine, pen\WObj:=platform;
    
    !!-1.2947079786577353, -3.705;
    MoveL [ [17.659, 10.459, 44.037], [0.244, 0.581, -0.777, 0.000], [0, 0, 0, 0], [ 9E9, 9E9, 9E9, 9E9, 9E9, 9E9] ], v1000, fine, pen\WObj:=platform;
    MoveL [ [-1.295, -3.705, -0.010], [0.244, 0.581, -0.777, 0.000], [0, 0, 0, 0], [ 9E9, 9E9, 9E9, 9E9, 9E9, 9E9] ], v30, fine, pen\WObj:=platform;
    MoveL [ [17.659, 10.459, 44.037], [0.244, 0.581, -0.777, 0.000], [0, 0, 0, 0], [ 9E9, 9E9, 9E9, 9E9, 9E9, 9E9] ], v1000, fine, pen\WObj:=platform;
    
    !!-2.814582562299426, -1.0725000000000002;
    MoveL [ [20.094, 4.974, 44.020], [0.244, 0.247, -0.938, 0.000], [0, 0, 0, 0], [ 9E9, 9E9, 9E9, 9E9, 9E9, 9E9] ], v1000, fine, pen\WObj:=platform;
    MoveL [ [-2.815, -1.073, -0.010], [0.244, 0.247, -0.938, 0.000], [0, 0, 0, 0], [ 9E9, 9E9, 9E9, 9E9, 9E9, 9E9] ], v30, fine, pen\WObj:=platform;
    MoveL [ [20.094, 4.974, 44.020], [0.244, 0.247, -0.938, 0.000], [0, 0, 0, 0], [ 9E9, 9E9, 9E9, 9E9, 9E9, 9E9] ], v1000, fine, pen\WObj:=platform;
    
    !!-1.3509996299037241, -3.607500000000001;
    MoveL [ [17.744, 10.342, 44.044], [0.244, 0.572, -0.783, 0.000], [0, 0, 0, 0], [ 9E9, 9E9, 9E9, 9E9, 9E9, 9E9] ], v1000, fine, pen\WObj:=platform;
    MoveL [ [-1.351, -3.608, -0.010], [0.244, 0.572, -0.783, 0.000], [0, 0, 0, 0], [ 9E9, 9E9, 9E9, 9E9, 9E9, 9E9] ], v30, fine, pen\WObj:=platform;
    MoveL [ [17.744, 10.342, 44.044], [0.244, 0.572, -0.783, 0.000], [0, 0, 0, 0], [ 9E9, 9E9, 9E9, 9E9, 9E9, 9E9] ], v1000, fine, pen\WObj:=platform;
    
    !!-1.4072912811497122, -3.5100000000000002;
    MoveL [ [17.829, 10.224, 44.051], [0.244, 0.564, -0.789, 0.000], [0, 0, 0, 0], [ 9E9, 9E9, 9E9, 9E9, 9E9, 9E9] ], v1000, fine, pen\WObj:=platform;
    MoveL [ [-1.407, -3.510, -0.010], [0.244, 0.564, -0.789, 0.000], [0, 0, 0, 0], [ 9E9, 9E9, 9E9, 9E9, 9E9, 9E9] ], v30, fine, pen\WObj:=platform;
    MoveL [ [17.829, 10.224, 44.051], [0.244, 0.564, -0.789, 0.000], [0, 0, 0, 0], [ 9E9, 9E9, 9E9, 9E9, 9E9, 9E9] ], v1000, fine, pen\WObj:=platform;
    
    !!-1.4635829323957006, -3.4125000000000005;
    MoveL [ [17.913, 10.106, 44.056], [0.244, 0.555, -0.795, 0.000], [0, 0, 0, 0], [ 9E9, 9E9, 9E9, 9E9, 9E9, 9E9] ], v1000, fine, pen\WObj:=platform;
    MoveL [ [-1.464, -3.413, -0.010], [0.244, 0.555, -0.795, 0.000], [0, 0, 0, 0], [ 9E9, 9E9, 9E9, 9E9, 9E9, 9E9] ], v30, fine, pen\WObj:=platform;
    MoveL [ [17.913, 10.106, 44.056], [0.244, 0.555, -0.795, 0.000], [0, 0, 0, 0], [ 9E9, 9E9, 9E9, 9E9, 9E9, 9E9] ], v1000, fine, pen\WObj:=platform;
    
    !!-1.5198745836416903, -3.3150000000000004;
    MoveL [ [17.997, 9.987, 44.060], [0.244, 0.546, -0.801, 0.000], [0, 0, 0, 0], [ 9E9, 9E9, 9E9, 9E9, 9E9, 9E9] ], v1000, fine, pen\WObj:=platform;
    MoveL [ [-1.520, -3.315, -0.010], [0.244, 0.546, -0.801, 0.000], [0, 0, 0, 0], [ 9E9, 9E9, 9E9, 9E9, 9E9, 9E9] ], v30, fine, pen\WObj:=platform;
    MoveL [ [17.997, 9.987, 44.060], [0.244, 0.546, -0.801, 0.000], [0, 0, 0, 0], [ 9E9, 9E9, 9E9, 9E9, 9E9, 9E9] ], v1000, fine, pen\WObj:=platform;
    
    !!-1.5761662348876784, -3.217500000000001;
    MoveL [ [18.080, 9.867, 44.063], [0.243, 0.537, -0.807, 0.000], [0, 0, 0, 0], [ 9E9, 9E9, 9E9, 9E9, 9E9, 9E9] ], v1000, fine, pen\WObj:=platform;
    MoveL [ [-1.576, -3.218, -0.010], [0.243, 0.537, -0.807, 0.000], [0, 0, 0, 0], [ 9E9, 9E9, 9E9, 9E9, 9E9, 9E9] ], v30, fine, pen\WObj:=platform;
    MoveL [ [18.080, 9.867, 44.063], [0.243, 0.537, -0.807, 0.000], [0, 0, 0, 0], [ 9E9, 9E9, 9E9, 9E9, 9E9, 9E9] ], v1000, fine, pen\WObj:=platform;
    
    !!-1.6324578861336667, -3.1200000000000006;
    MoveL [ [18.162, 9.746, 44.066], [0.243, 0.529, -0.813, 0.000], [0, 0, 0, 0], [ 9E9, 9E9, 9E9, 9E9, 9E9, 9E9] ], v1000, fine, pen\WObj:=platform;
    MoveL [ [-1.632, -3.120, -0.010], [0.243, 0.529, -0.813, 0.000], [0, 0, 0, 0], [ 9E9, 9E9, 9E9, 9E9, 9E9, 9E9] ], v30, fine, pen\WObj:=platform;
    MoveL [ [18.162, 9.746, 44.066], [0.243, 0.529, -0.813, 0.000], [0, 0, 0, 0], [ 9E9, 9E9, 9E9, 9E9, 9E9, 9E9] ], v1000, fine, pen\WObj:=platform;
    
    !!-1.12583302491977, -3.9975000000000005;
    MoveL [ [19.842, -5.295, 45.363], [0.215, -0.060, -0.975, 0.000], [0, 0, 0, 0], [ 9E9, 9E9, 9E9, 9E9, 9E9, 9E9] ], v1000, fine, pen\WObj:=platform;
    MoveL [ [-1.126, -3.998, -0.010], [0.215, -0.060, -0.975, 0.000], [0, 0, 0, 0], [ 9E9, 9E9, 9E9, 9E9, 9E9, 9E9] ], v30, fine, pen\WObj:=platform;
    MoveL [ [19.842, -5.295, 45.363], [0.215, -0.060, -0.975, 0.000], [0, 0, 0, 0], [ 9E9, 9E9, 9E9, 9E9, 9E9, 9E9] ], v1000, fine, pen\WObj:=platform;
    
    !!-1.0695413736737818, -4.095000000000001;
    MoveL [ [19.814, -5.152, 45.407], [0.214, -0.049, -0.976, 0.000], [0, 0, 0, 0], [ 9E9, 9E9, 9E9, 9E9, 9E9, 9E9] ], v1000, fine, pen\WObj:=platform;
    MoveL [ [-1.070, -4.095, -0.010], [0.214, -0.049, -0.976, 0.000], [0, 0, 0, 0], [ 9E9, 9E9, 9E9, 9E9, 9E9, 9E9] ], v30, fine, pen\WObj:=platform;
    MoveL [ [19.814, -5.152, 45.407], [0.214, -0.049, -0.976, 0.000], [0, 0, 0, 0], [ 9E9, 9E9, 9E9, 9E9, 9E9, 9E9] ], v1000, fine, pen\WObj:=platform;
    
    !!-0.5629165124598847, -4.972500000000001;
    MoveL [ [16.495, 11.898, 43.858], [0.248, 0.681, -0.689, 0.000], [0, 0, 0, 0], [ 9E9, 9E9, 9E9, 9E9, 9E9, 9E9] ], v1000, fine, pen\WObj:=platform;
    MoveL [ [-0.563, -4.973, -0.010], [0.248, 0.681, -0.689, 0.000], [0, 0, 0, 0], [ 9E9, 9E9, 9E9, 9E9, 9E9, 9E9] ], v30, fine, pen\WObj:=platform;
    MoveL [ [16.495, 11.898, 43.858], [0.248, 0.681, -0.689, 0.000], [0, 0, 0, 0], [ 9E9, 9E9, 9E9, 9E9, 9E9, 9E9] ], v1000, fine, pen\WObj:=platform;
    
    !!-0.5066248612138966, -5.070000000000001;
    MoveL [ [16.402, 12.002, 43.838], [0.248, 0.688, -0.682, 0.000], [0, 0, 0, 0], [ 9E9, 9E9, 9E9, 9E9, 9E9, 9E9] ], v1000, fine, pen\WObj:=platform;
    MoveL [ [-0.507, -5.070, -0.010], [0.248, 0.688, -0.682, 0.000], [0, 0, 0, 0], [ 9E9, 9E9, 9E9, 9E9, 9E9, 9E9] ], v30, fine, pen\WObj:=platform;
    MoveL [ [16.402, 12.002, 43.838], [0.248, 0.688, -0.682, 0.000], [0, 0, 0, 0], [ 9E9, 9E9, 9E9, 9E9, 9E9, 9E9] ], v1000, fine, pen\WObj:=platform;
    
    !!-0.4503332099679076, -5.1675;
    MoveL [ [16.309, 12.105, 43.817], [0.248, 0.695, -0.675, 0.000], [0, 0, 0, 0], [ 9E9, 9E9, 9E9, 9E9, 9E9, 9E9] ], v1000, fine, pen\WObj:=platform;
    MoveL [ [-0.450, -5.168, -0.010], [0.248, 0.695, -0.675, 0.000], [0, 0, 0, 0], [ 9E9, 9E9, 9E9, 9E9, 9E9, 9E9] ], v30, fine, pen\WObj:=platform;
    MoveL [ [16.309, 12.105, 43.817], [0.248, 0.695, -0.675, 0.000], [0, 0, 0, 0], [ 9E9, 9E9, 9E9, 9E9, 9E9, 9E9] ], v1000, fine, pen\WObj:=platform;
    
    !!-0.3940415587219195, -5.265;
    MoveL [ [16.215, 12.207, 43.795], [0.249, 0.702, -0.667, 0.000], [0, 0, 0, 0], [ 9E9, 9E9, 9E9, 9E9, 9E9, 9E9] ], v1000, fine, pen\WObj:=platform;
    MoveL [ [-0.394, -5.265, -0.010], [0.249, 0.702, -0.667, 0.000], [0, 0, 0, 0], [ 9E9, 9E9, 9E9, 9E9, 9E9, 9E9] ], v30, fine, pen\WObj:=platform;
    MoveL [ [16.215, 12.207, 43.795], [0.249, 0.702, -0.667, 0.000], [0, 0, 0, 0], [ 9E9, 9E9, 9E9, 9E9, 9E9, 9E9] ], v1000, fine, pen\WObj:=platform;
    
    !!-0.33774990747593125, -5.362500000000001;
    MoveL [ [16.121, 12.308, 43.772], [0.249, 0.709, -0.660, 0.000], [0, 0, 0, 0], [ 9E9, 9E9, 9E9, 9E9, 9E9, 9E9] ], v1000, fine, pen\WObj:=platform;
    MoveL [ [-0.338, -5.363, -0.010], [0.249, 0.709, -0.660, 0.000], [0, 0, 0, 0], [ 9E9, 9E9, 9E9, 9E9, 9E9, 9E9] ], v30, fine, pen\WObj:=platform;
    MoveL [ [16.121, 12.308, 43.772], [0.249, 0.709, -0.660, 0.000], [0, 0, 0, 0], [ 9E9, 9E9, 9E9, 9E9, 9E9, 9E9] ], v1000, fine, pen\WObj:=platform;
    
    !!-0.281458256229943, -5.460000000000001;
    MoveL [ [16.026, 12.408, 43.748], [0.250, 0.715, -0.653, 0.000], [0, 0, 0, 0], [ 9E9, 9E9, 9E9, 9E9, 9E9, 9E9] ], v1000, fine, pen\WObj:=platform;
    MoveL [ [-0.281, -5.460, -0.010], [0.250, 0.715, -0.653, 0.000], [0, 0, 0, 0], [ 9E9, 9E9, 9E9, 9E9, 9E9, 9E9] ], v30, fine, pen\WObj:=platform;
    MoveL [ [16.026, 12.408, 43.748], [0.250, 0.715, -0.653, 0.000], [0, 0, 0, 0], [ 9E9, 9E9, 9E9, 9E9, 9E9, 9E9] ], v1000, fine, pen\WObj:=platform;
    
    !!-0.2251666049839535, -5.557499999999999;
    MoveL [ [15.932, 12.507, 43.724], [0.250, 0.722, -0.645, 0.000], [0, 0, 0, 0], [ 9E9, 9E9, 9E9, 9E9, 9E9, 9E9] ], v1000, fine, pen\WObj:=platform;
    MoveL [ [-0.225, -5.557, -0.010], [0.250, 0.722, -0.645, 0.000], [0, 0, 0, 0], [ 9E9, 9E9, 9E9, 9E9, 9E9, 9E9] ], v30, fine, pen\WObj:=platform;
    MoveL [ [15.932, 12.507, 43.724], [0.250, 0.722, -0.645, 0.000], [0, 0, 0, 0], [ 9E9, 9E9, 9E9, 9E9, 9E9, 9E9] ], v1000, fine, pen\WObj:=platform;
    
    !!-0.16887495373796527, -5.655000000000001;
    MoveL [ [15.837, 12.605, 43.698], [0.251, 0.728, -0.638, 0.000], [0, 0, 0, 0], [ 9E9, 9E9, 9E9, 9E9, 9E9, 9E9] ], v1000, fine, pen\WObj:=platform;
    MoveL [ [-0.169, -5.655, -0.010], [0.251, 0.728, -0.638, 0.000], [0, 0, 0, 0], [ 9E9, 9E9, 9E9, 9E9, 9E9, 9E9] ], v30, fine, pen\WObj:=platform;
    MoveL [ [15.837, 12.605, 43.698], [0.251, 0.728, -0.638, 0.000], [0, 0, 0, 0], [ 9E9, 9E9, 9E9, 9E9, 9E9, 9E9] ], v1000, fine, pen\WObj:=platform;
    
    !!-0.11258330249197708, -5.7525;
    MoveL [ [15.741, 12.701, 43.672], [0.251, 0.734, -0.631, 0.000], [0, 0, 0, 0], [ 9E9, 9E9, 9E9, 9E9, 9E9, 9E9] ], v1000, fine, pen\WObj:=platform;
    MoveL [ [-0.113, -5.753, -0.010], [0.251, 0.734, -0.631, 0.000], [0, 0, 0, 0], [ 9E9, 9E9, 9E9, 9E9, 9E9, 9E9] ], v30, fine, pen\WObj:=platform;
    MoveL [ [15.741, 12.701, 43.672], [0.251, 0.734, -0.631, 0.000], [0, 0, 0, 0], [ 9E9, 9E9, 9E9, 9E9, 9E9, 9E9] ], v1000, fine, pen\WObj:=platform;
    
    !!-0.056291651245988214, -5.8500000000000005;
    MoveL [ [15.646, 12.797, 43.645], [0.252, 0.740, -0.623, 0.000], [0, 0, 0, 0], [ 9E9, 9E9, 9E9, 9E9, 9E9, 9E9] ], v1000, fine, pen\WObj:=platform;
    MoveL [ [-0.056, -5.850, -0.010], [0.252, 0.740, -0.623, 0.000], [0, 0, 0, 0], [ 9E9, 9E9, 9E9, 9E9, 9E9, 9E9] ], v30, fine, pen\WObj:=platform;
    MoveL [ [15.646, 12.797, 43.645], [0.252, 0.740, -0.623, 0.000], [0, 0, 0, 0], [ 9E9, 9E9, 9E9, 9E9, 9E9, 9E9] ], v1000, fine, pen\WObj:=platform;
    
    !!-1.0132497224277937, -4.192500000000001;
    MoveL [ [17.222, 11.030, 43.987], [0.245, 0.621, -0.744, 0.000], [0, 0, 0, 0], [ 9E9, 9E9, 9E9, 9E9, 9E9, 9E9] ], v1000, fine, pen\WObj:=platform;
    MoveL [ [-1.013, -4.193, -0.010], [0.245, 0.621, -0.744, 0.000], [0, 0, 0, 0], [ 9E9, 9E9, 9E9, 9E9, 9E9, 9E9] ], v30, fine, pen\WObj:=platform;
    MoveL [ [17.222, 11.030, 43.987], [0.245, 0.621, -0.744, 0.000], [0, 0, 0, 0], [ 9E9, 9E9, 9E9, 9E9, 9E9, 9E9] ], v1000, fine, pen\WObj:=platform;
    
    !!0, -5.9475;
    MoveL [ [15.550, 12.891, 43.617], [0.252, 0.746, -0.616, 0.000], [0, 0, 0, 0], [ 9E9, 9E9, 9E9, 9E9, 9E9, 9E9] ], v1000, fine, pen\WObj:=platform;
    MoveL [ [0.000, -5.947, -0.010], [0.252, 0.746, -0.616, 0.000], [0, 0, 0, 0], [ 9E9, 9E9, 9E9, 9E9, 9E9, 9E9] ], v30, fine, pen\WObj:=platform;
    MoveL [ [15.550, 12.891, 43.617], [0.252, 0.746, -0.616, 0.000], [0, 0, 0, 0], [ 9E9, 9E9, 9E9, 9E9, 9E9, 9E9] ], v1000, fine, pen\WObj:=platform;
    
    !!0.05629165124598951, -6.045000000000002;
    MoveL [ [15.454, 12.985, 43.588], [0.253, 0.752, -0.609, 0.000], [0, 0, 0, 0], [ 9E9, 9E9, 9E9, 9E9, 9E9, 9E9] ], v1000, fine, pen\WObj:=platform;
    MoveL [ [0.056, -6.045, -0.010], [0.253, 0.752, -0.609, 0.000], [0, 0, 0, 0], [ 9E9, 9E9, 9E9, 9E9, 9E9, 9E9] ], v30, fine, pen\WObj:=platform;
    MoveL [ [15.454, 12.985, 43.588], [0.253, 0.752, -0.609, 0.000], [0, 0, 0, 0], [ 9E9, 9E9, 9E9, 9E9, 9E9, 9E9] ], v1000, fine, pen\WObj:=platform;
    
    !!0.11258330249197772, -6.142500000000001;
    MoveL [ [15.357, 13.077, 43.558], [0.254, 0.758, -0.601, 0.000], [0, 0, 0, 0], [ 9E9, 9E9, 9E9, 9E9, 9E9, 9E9] ], v1000, fine, pen\WObj:=platform;
    MoveL [ [0.113, -6.143, -0.010], [0.254, 0.758, -0.601, 0.000], [0, 0, 0, 0], [ 9E9, 9E9, 9E9, 9E9, 9E9, 9E9] ], v30, fine, pen\WObj:=platform;
    MoveL [ [15.357, 13.077, 43.558], [0.254, 0.758, -0.601, 0.000], [0, 0, 0, 0], [ 9E9, 9E9, 9E9, 9E9, 9E9, 9E9] ], v1000, fine, pen\WObj:=platform;
    
    !!0.16887495373796593, -6.240000000000001;
    MoveL [ [15.261, 13.168, 43.528], [0.254, 0.763, -0.594, 0.000], [0, 0, 0, 0], [ 9E9, 9E9, 9E9, 9E9, 9E9, 9E9] ], v1000, fine, pen\WObj:=platform;
    MoveL [ [0.169, -6.240, -0.010], [0.254, 0.763, -0.594, 0.000], [0, 0, 0, 0], [ 9E9, 9E9, 9E9, 9E9, 9E9, 9E9] ], v30, fine, pen\WObj:=platform;
    MoveL [ [15.261, 13.168, 43.528], [0.254, 0.763, -0.594, 0.000], [0, 0, 0, 0], [ 9E9, 9E9, 9E9, 9E9, 9E9, 9E9] ], v1000, fine, pen\WObj:=platform;
    
    !!0.22516660498395416, -6.3375;
    MoveL [ [15.164, 13.258, 43.497], [0.255, 0.769, -0.586, 0.000], [0, 0, 0, 0], [ 9E9, 9E9, 9E9, 9E9, 9E9, 9E9] ], v1000, fine, pen\WObj:=platform;
    MoveL [ [0.225, -6.338, -0.010], [0.255, 0.769, -0.586, 0.000], [0, 0, 0, 0], [ 9E9, 9E9, 9E9, 9E9, 9E9, 9E9] ], v30, fine, pen\WObj:=platform;
    MoveL [ [15.164, 13.258, 43.497], [0.255, 0.769, -0.586, 0.000], [0, 0, 0, 0], [ 9E9, 9E9, 9E9, 9E9, 9E9, 9E9] ], v1000, fine, pen\WObj:=platform;
    
    !!0.28145825622994236, -6.435000000000002;
    MoveL [ [15.067, 13.347, 43.465], [0.255, 0.774, -0.579, 0.000], [0, 0, 0, 0], [ 9E9, 9E9, 9E9, 9E9, 9E9, 9E9] ], v1000, fine, pen\WObj:=platform;
    MoveL [ [0.281, -6.435, -0.010], [0.255, 0.774, -0.579, 0.000], [0, 0, 0, 0], [ 9E9, 9E9, 9E9, 9E9, 9E9, 9E9] ], v30, fine, pen\WObj:=platform;
    MoveL [ [15.067, 13.347, 43.465], [0.255, 0.774, -0.579, 0.000], [0, 0, 0, 0], [ 9E9, 9E9, 9E9, 9E9, 9E9, 9E9] ], v1000, fine, pen\WObj:=platform;
    
    !!0.33774990747593053, -6.532500000000001;
    MoveL [ [14.970, 13.435, 43.432], [0.256, 0.780, -0.571, 0.000], [0, 0, 0, 0], [ 9E9, 9E9, 9E9, 9E9, 9E9, 9E9] ], v1000, fine, pen\WObj:=platform;
    MoveL [ [0.338, -6.533, -0.010], [0.256, 0.780, -0.571, 0.000], [0, 0, 0, 0], [ 9E9, 9E9, 9E9, 9E9, 9E9, 9E9] ], v30, fine, pen\WObj:=platform;
    MoveL [ [14.970, 13.435, 43.432], [0.256, 0.780, -0.571, 0.000], [0, 0, 0, 0], [ 9E9, 9E9, 9E9, 9E9, 9E9, 9E9] ], v1000, fine, pen\WObj:=platform;
    
    !!0.39404155872191876, -6.630000000000001;
    MoveL [ [14.873, 13.521, 43.398], [0.257, 0.785, -0.564, 0.000], [0, 0, 0, 0], [ 9E9, 9E9, 9E9, 9E9, 9E9, 9E9] ], v1000, fine, pen\WObj:=platform;
    MoveL [ [0.394, -6.630, -0.010], [0.257, 0.785, -0.564, 0.000], [0, 0, 0, 0], [ 9E9, 9E9, 9E9, 9E9, 9E9, 9E9] ], v30, fine, pen\WObj:=platform;
    MoveL [ [14.873, 13.521, 43.398], [0.257, 0.785, -0.564, 0.000], [0, 0, 0, 0], [ 9E9, 9E9, 9E9, 9E9, 9E9, 9E9] ], v1000, fine, pen\WObj:=platform;
    
    !!0.4503332099679083, -6.727499999999999;
    MoveL [ [15.419, 12.112, 43.819], [0.248, 0.758, -0.603, 0.000], [0, 0, 0, 0], [ 9E9, 9E9, 9E9, 9E9, 9E9, 9E9] ], v1000, fine, pen\WObj:=platform;
    MoveL [ [0.450, -6.727, -0.010], [0.248, 0.758, -0.603, 0.000], [0, 0, 0, 0], [ 9E9, 9E9, 9E9, 9E9, 9E9, 9E9] ], v30, fine, pen\WObj:=platform;
    MoveL [ [15.419, 12.112, 43.819], [0.248, 0.758, -0.603, 0.000], [0, 0, 0, 0], [ 9E9, 9E9, 9E9, 9E9, 9E9, 9E9] ], v1000, fine, pen\WObj:=platform;
    
    !!0.5066248612138966, -6.825000000000001;
    MoveL [ [16.600, 8.666, 44.723], [0.230, 0.675, -0.701, 0.000], [0, 0, 0, 0], [ 9E9, 9E9, 9E9, 9E9, 9E9, 9E9] ], v1000, fine, pen\WObj:=platform;
    MoveL [ [0.507, -6.825, -0.010], [0.230, 0.675, -0.701, 0.000], [0, 0, 0, 0], [ 9E9, 9E9, 9E9, 9E9, 9E9, 9E9] ], v30, fine, pen\WObj:=platform;
    MoveL [ [16.600, 8.666, 44.723], [0.230, 0.675, -0.701, 0.000], [0, 0, 0, 0], [ 9E9, 9E9, 9E9, 9E9, 9E9, 9E9] ], v1000, fine, pen\WObj:=platform;
    
    !!-0.9569580711818042, -4.290000000000001;
    MoveL [ [17.133, 11.142, 43.974], [0.245, 0.629, -0.738, 0.000], [0, 0, 0, 0], [ 9E9, 9E9, 9E9, 9E9, 9E9, 9E9] ], v1000, fine, pen\WObj:=platform;
    MoveL [ [-0.957, -4.290, -0.010], [0.245, 0.629, -0.738, 0.000], [0, 0, 0, 0], [ 9E9, 9E9, 9E9, 9E9, 9E9, 9E9] ], v30, fine, pen\WObj:=platform;
    MoveL [ [17.133, 11.142, 43.974], [0.245, 0.629, -0.738, 0.000], [0, 0, 0, 0], [ 9E9, 9E9, 9E9, 9E9, 9E9, 9E9] ], v1000, fine, pen\WObj:=platform;
    
    !!0.5629165124598847, -6.9225;
    MoveL [ [16.504, 8.791, 44.700], [0.230, 0.683, -0.693, 0.000], [0, 0, 0, 0], [ 9E9, 9E9, 9E9, 9E9, 9E9, 9E9] ], v1000, fine, pen\WObj:=platform;
    MoveL [ [0.563, -6.923, -0.010], [0.230, 0.683, -0.693, 0.000], [0, 0, 0, 0], [ 9E9, 9E9, 9E9, 9E9, 9E9, 9E9] ], v30, fine, pen\WObj:=platform;
    MoveL [ [16.504, 8.791, 44.700], [0.230, 0.683, -0.693, 0.000], [0, 0, 0, 0], [ 9E9, 9E9, 9E9, 9E9, 9E9, 9E9] ], v1000, fine, pen\WObj:=platform;
    
    !!0.6192081637058743, -7.0200000000000005;
    MoveL [ [16.408, 8.914, 44.676], [0.231, 0.691, -0.685, 0.000], [0, 0, 0, 0], [ 9E9, 9E9, 9E9, 9E9, 9E9, 9E9] ], v1000, fine, pen\WObj:=platform;
    MoveL [ [0.619, -7.020, -0.010], [0.231, 0.691, -0.685, 0.000], [0, 0, 0, 0], [ 9E9, 9E9, 9E9, 9E9, 9E9, 9E9] ], v30, fine, pen\WObj:=platform;
    MoveL [ [16.408, 8.914, 44.676], [0.231, 0.691, -0.685, 0.000], [0, 0, 0, 0], [ 9E9, 9E9, 9E9, 9E9, 9E9, 9E9] ], v1000, fine, pen\WObj:=platform;
    
    !!0.6754998149518625, -7.1175000000000015;
    MoveL [ [15.026, 12.495, 43.687], [0.251, 0.781, -0.572, 0.000], [0, 0, 0, 0], [ 9E9, 9E9, 9E9, 9E9, 9E9, 9E9] ], v1000, fine, pen\WObj:=platform;
    MoveL [ [0.675, -7.118, -0.010], [0.251, 0.781, -0.572, 0.000], [0, 0, 0, 0], [ 9E9, 9E9, 9E9, 9E9, 9E9, 9E9] ], v30, fine, pen\WObj:=platform;
    MoveL [ [15.026, 12.495, 43.687], [0.251, 0.781, -0.572, 0.000], [0, 0, 0, 0], [ 9E9, 9E9, 9E9, 9E9, 9E9, 9E9] ], v1000, fine, pen\WObj:=platform;
    
    !!0.7317914661978507, -7.215000000000002;
    MoveL [ [14.289, 14.016, 43.181], [0.261, 0.814, -0.520, 0.000], [0, 0, 0, 0], [ 9E9, 9E9, 9E9, 9E9, 9E9, 9E9] ], v1000, fine, pen\WObj:=platform;
    MoveL [ [0.732, -7.215, -0.010], [0.261, 0.814, -0.520, 0.000], [0, 0, 0, 0], [ 9E9, 9E9, 9E9, 9E9, 9E9, 9E9] ], v30, fine, pen\WObj:=platform;
    MoveL [ [14.289, 14.016, 43.181], [0.261, 0.814, -0.520, 0.000], [0, 0, 0, 0], [ 9E9, 9E9, 9E9, 9E9, 9E9, 9E9] ], v1000, fine, pen\WObj:=platform;
    
    !!0.7880831174438402, -7.312500000000001;
    MoveL [ [14.191, 14.095, 43.142], [0.262, 0.818, -0.512, 0.000], [0, 0, 0, 0], [ 9E9, 9E9, 9E9, 9E9, 9E9, 9E9] ], v1000, fine, pen\WObj:=platform;
    MoveL [ [0.788, -7.313, -0.010], [0.262, 0.818, -0.512, 0.000], [0, 0, 0, 0], [ 9E9, 9E9, 9E9, 9E9, 9E9, 9E9] ], v30, fine, pen\WObj:=platform;
    MoveL [ [14.191, 14.095, 43.142], [0.262, 0.818, -0.512, 0.000], [0, 0, 0, 0], [ 9E9, 9E9, 9E9, 9E9, 9E9, 9E9] ], v1000, fine, pen\WObj:=platform;
    
    !!0.8443747686898284, -7.410000000000001;
    MoveL [ [14.094, 14.172, 43.102], [0.262, 0.822, -0.505, 0.000], [0, 0, 0, 0], [ 9E9, 9E9, 9E9, 9E9, 9E9, 9E9] ], v1000, fine, pen\WObj:=platform;
    MoveL [ [0.844, -7.410, -0.010], [0.262, 0.822, -0.505, 0.000], [0, 0, 0, 0], [ 9E9, 9E9, 9E9, 9E9, 9E9, 9E9] ], v30, fine, pen\WObj:=platform;
    MoveL [ [14.094, 14.172, 43.102], [0.262, 0.822, -0.505, 0.000], [0, 0, 0, 0], [ 9E9, 9E9, 9E9, 9E9, 9E9, 9E9] ], v1000, fine, pen\WObj:=platform;
    
    !!0.9006664199358166, -7.507500000000001;
    MoveL [ [13.996, 14.248, 43.062], [0.263, 0.827, -0.498, 0.000], [0, 0, 0, 0], [ 9E9, 9E9, 9E9, 9E9, 9E9, 9E9] ], v1000, fine, pen\WObj:=platform;
    MoveL [ [0.901, -7.508, -0.010], [0.263, 0.827, -0.498, 0.000], [0, 0, 0, 0], [ 9E9, 9E9, 9E9, 9E9, 9E9, 9E9] ], v30, fine, pen\WObj:=platform;
    MoveL [ [13.996, 14.248, 43.062], [0.263, 0.827, -0.498, 0.000], [0, 0, 0, 0], [ 9E9, 9E9, 9E9, 9E9, 9E9, 9E9] ], v1000, fine, pen\WObj:=platform;
    
    !!0.9569580711818049, -7.605000000000002;
    MoveL [ [13.899, 14.322, 43.021], [0.264, 0.831, -0.490, 0.000], [0, 0, 0, 0], [ 9E9, 9E9, 9E9, 9E9, 9E9, 9E9] ], v1000, fine, pen\WObj:=platform;
    MoveL [ [0.957, -7.605, -0.010], [0.264, 0.831, -0.490, 0.000], [0, 0, 0, 0], [ 9E9, 9E9, 9E9, 9E9, 9E9, 9E9] ], v30, fine, pen\WObj:=platform;
    MoveL [ [13.899, 14.322, 43.021], [0.264, 0.831, -0.490, 0.000], [0, 0, 0, 0], [ 9E9, 9E9, 9E9, 9E9, 9E9, 9E9] ], v1000, fine, pen\WObj:=platform;
    
    !!1.0132497224277932, -7.702500000000001;
    MoveL [ [13.802, 14.396, 42.980], [0.265, 0.835, -0.483, 0.000], [0, 0, 0, 0], [ 9E9, 9E9, 9E9, 9E9, 9E9, 9E9] ], v1000, fine, pen\WObj:=platform;
    MoveL [ [1.013, -7.703, -0.010], [0.265, 0.835, -0.483, 0.000], [0, 0, 0, 0], [ 9E9, 9E9, 9E9, 9E9, 9E9, 9E9] ], v30, fine, pen\WObj:=platform;
    MoveL [ [13.802, 14.396, 42.980], [0.265, 0.835, -0.483, 0.000], [0, 0, 0, 0], [ 9E9, 9E9, 9E9, 9E9, 9E9, 9E9] ], v1000, fine, pen\WObj:=platform;
    
    !!1.0695413736737827, -7.800000000000001;
    MoveL [ [13.704, 14.468, 42.937], [0.266, 0.839, -0.476, 0.000], [0, 0, 0, 0], [ 9E9, 9E9, 9E9, 9E9, 9E9, 9E9] ], v1000, fine, pen\WObj:=platform;
    MoveL [ [1.070, -7.800, -0.010], [0.266, 0.839, -0.476, 0.000], [0, 0, 0, 0], [ 9E9, 9E9, 9E9, 9E9, 9E9, 9E9] ], v30, fine, pen\WObj:=platform;
    MoveL [ [13.704, 14.468, 42.937], [0.266, 0.839, -0.476, 0.000], [0, 0, 0, 0], [ 9E9, 9E9, 9E9, 9E9, 9E9, 9E9] ], v1000, fine, pen\WObj:=platform;
    
    !!-0.900666419935816, -4.3875;
    MoveL [ [17.043, 11.253, 43.960], [0.246, 0.637, -0.731, 0.000], [0, 0, 0, 0], [ 9E9, 9E9, 9E9, 9E9, 9E9, 9E9] ], v1000, fine, pen\WObj:=platform;
    MoveL [ [-0.901, -4.388, -0.010], [0.246, 0.637, -0.731, 0.000], [0, 0, 0, 0], [ 9E9, 9E9, 9E9, 9E9, 9E9, 9E9] ], v30, fine, pen\WObj:=platform;
    MoveL [ [17.043, 11.253, 43.960], [0.246, 0.637, -0.731, 0.000], [0, 0, 0, 0], [ 9E9, 9E9, 9E9, 9E9, 9E9, 9E9] ], v1000, fine, pen\WObj:=platform;
    
    !!1.1258330249197694, -7.897500000000002;
    MoveL [ [13.607, 14.539, 42.895], [0.266, 0.842, -0.469, 0.000], [0, 0, 0, 0], [ 9E9, 9E9, 9E9, 9E9, 9E9, 9E9] ], v1000, fine, pen\WObj:=platform;
    MoveL [ [1.126, -7.898, -0.010], [0.266, 0.842, -0.469, 0.000], [0, 0, 0, 0], [ 9E9, 9E9, 9E9, 9E9, 9E9, 9E9] ], v30, fine, pen\WObj:=platform;
    MoveL [ [13.607, 14.539, 42.895], [0.266, 0.842, -0.469, 0.000], [0, 0, 0, 0], [ 9E9, 9E9, 9E9, 9E9, 9E9, 9E9] ], v1000, fine, pen\WObj:=platform;
    
    !!-0.8443747686898277, -4.485;
    MoveL [ [16.953, 11.363, 43.946], [0.246, 0.645, -0.724, 0.000], [0, 0, 0, 0], [ 9E9, 9E9, 9E9, 9E9, 9E9, 9E9] ], v1000, fine, pen\WObj:=platform;
    MoveL [ [-0.844, -4.485, -0.010], [0.246, 0.645, -0.724, 0.000], [0, 0, 0, 0], [ 9E9, 9E9, 9E9, 9E9, 9E9, 9E9] ], v30, fine, pen\WObj:=platform;
    MoveL [ [16.953, 11.363, 43.946], [0.246, 0.645, -0.724, 0.000], [0, 0, 0, 0], [ 9E9, 9E9, 9E9, 9E9, 9E9, 9E9] ], v1000, fine, pen\WObj:=platform;
    
    !!-0.788083117443839, -4.582500000000001;
    MoveL [ [16.862, 11.472, 43.930], [0.246, 0.652, -0.717, 0.000], [0, 0, 0, 0], [ 9E9, 9E9, 9E9, 9E9, 9E9, 9E9] ], v1000, fine, pen\WObj:=platform;
    MoveL [ [-0.788, -4.583, -0.010], [0.246, 0.652, -0.717, 0.000], [0, 0, 0, 0], [ 9E9, 9E9, 9E9, 9E9, 9E9, 9E9] ], v30, fine, pen\WObj:=platform;
    MoveL [ [16.862, 11.472, 43.930], [0.246, 0.652, -0.717, 0.000], [0, 0, 0, 0], [ 9E9, 9E9, 9E9, 9E9, 9E9, 9E9] ], v1000, fine, pen\WObj:=platform;
    
    !!-0.7317914661978507, -4.680000000000001;
    MoveL [ [19.008, -11.952, 45.349], [0.215, -0.338, -0.916, 0.000], [0, 0, 0, 0], [ 9E9, 9E9, 9E9, 9E9, 9E9, 9E9] ], v1000, fine, pen\WObj:=platform;
    MoveL [ [-0.732, -4.680, -0.010], [0.215, -0.338, -0.916, 0.000], [0, 0, 0, 0], [ 9E9, 9E9, 9E9, 9E9, 9E9, 9E9] ], v30, fine, pen\WObj:=platform;
    MoveL [ [19.008, -11.952, 45.349], [0.215, -0.338, -0.916, 0.000], [0, 0, 0, 0], [ 9E9, 9E9, 9E9, 9E9, 9E9, 9E9] ], v1000, fine, pen\WObj:=platform;
    
    !!-0.6754998149518625, -4.7775;
    MoveL [ [19.001, -11.839, 45.410], [0.214, -0.330, -0.919, 0.000], [0, 0, 0, 0], [ 9E9, 9E9, 9E9, 9E9, 9E9, 9E9] ], v1000, fine, pen\WObj:=platform;
    MoveL [ [-0.675, -4.777, -0.010], [0.214, -0.330, -0.919, 0.000], [0, 0, 0, 0], [ 9E9, 9E9, 9E9, 9E9, 9E9, 9E9] ], v30, fine, pen\WObj:=platform;
    MoveL [ [19.001, -11.839, 45.410], [0.214, -0.330, -0.919, 0.000], [0, 0, 0, 0], [ 9E9, 9E9, 9E9, 9E9, 9E9, 9E9] ], v1000, fine, pen\WObj:=platform;
    
    !!-0.619208163705873, -4.875;
    MoveL [ [16.587, 11.793, 43.878], [0.247, 0.674, -0.696, 0.000], [0, 0, 0, 0], [ 9E9, 9E9, 9E9, 9E9, 9E9, 9E9] ], v1000, fine, pen\WObj:=platform;
    MoveL [ [-0.619, -4.875, -0.010], [0.247, 0.674, -0.696, 0.000], [0, 0, 0, 0], [ 9E9, 9E9, 9E9, 9E9, 9E9, 9E9] ], v30, fine, pen\WObj:=platform;
    MoveL [ [16.587, 11.793, 43.878], [0.247, 0.674, -0.696, 0.000], [0, 0, 0, 0], [ 9E9, 9E9, 9E9, 9E9, 9E9, 9E9] ], v1000, fine, pen\WObj:=platform;
    
    !!-1.2947079786577353, -3.9000000000000004;
    MoveL [ [17.561, 10.632, 43.959], [0.246, 0.592, -0.768, 0.000], [0, 0, 0, 0], [ 9E9, 9E9, 9E9, 9E9, 9E9, 9E9] ], v1000, fine, pen\WObj:=platform;
    MoveL [ [-1.295, -3.900, -0.010], [0.246, 0.592, -0.768, 0.000], [0, 0, 0, 0], [ 9E9, 9E9, 9E9, 9E9, 9E9, 9E9] ], v30, fine, pen\WObj:=platform;
    MoveL [ [17.561, 10.632, 43.959], [0.246, 0.592, -0.768, 0.000], [0, 0, 0, 0], [ 9E9, 9E9, 9E9, 9E9, 9E9, 9E9] ], v1000, fine, pen\WObj:=platform;
    
    !!-1.8013328398716324, -3.022500000000001;
    MoveL [ [18.311, 9.570, 44.001], [0.245, 0.515, -0.822, 0.000], [0, 0, 0, 0], [ 9E9, 9E9, 9E9, 9E9, 9E9, 9E9] ], v1000, fine, pen\WObj:=platform;
    MoveL [ [-1.801, -3.023, -0.010], [0.245, 0.515, -0.822, 0.000], [0, 0, 0, 0], [ 9E9, 9E9, 9E9, 9E9, 9E9, 9E9] ], v30, fine, pen\WObj:=platform;
    MoveL [ [18.311, 9.570, 44.001], [0.245, 0.515, -0.822, 0.000], [0, 0, 0, 0], [ 9E9, 9E9, 9E9, 9E9, 9E9, 9E9] ], v1000, fine, pen\WObj:=platform;
    
    !!-1.8576244911176216, -2.9250000000000003;
    MoveL [ [18.391, 9.448, 44.000], [0.245, 0.506, -0.827, 0.000], [0, 0, 0, 0], [ 9E9, 9E9, 9E9, 9E9, 9E9, 9E9] ], v1000, fine, pen\WObj:=platform;
    MoveL [ [-1.858, -2.925, -0.010], [0.245, 0.506, -0.827, 0.000], [0, 0, 0, 0], [ 9E9, 9E9, 9E9, 9E9, 9E9, 9E9] ], v30, fine, pen\WObj:=platform;
    MoveL [ [18.391, 9.448, 44.000], [0.245, 0.506, -0.827, 0.000], [0, 0, 0, 0], [ 9E9, 9E9, 9E9, 9E9, 9E9, 9E9] ], v1000, fine, pen\WObj:=platform;
    
    !!-1.9139161423636097, -2.8275000000000006;
    MoveL [ [18.470, 9.326, 43.999], [0.245, 0.497, -0.833, 0.000], [0, 0, 0, 0], [ 9E9, 9E9, 9E9, 9E9, 9E9, 9E9] ], v1000, fine, pen\WObj:=platform;
    MoveL [ [-1.914, -2.828, -0.010], [0.245, 0.497, -0.833, 0.000], [0, 0, 0, 0], [ 9E9, 9E9, 9E9, 9E9, 9E9, 9E9] ], v30, fine, pen\WObj:=platform;
    MoveL [ [18.470, 9.326, 43.999], [0.245, 0.497, -0.833, 0.000], [0, 0, 0, 0], [ 9E9, 9E9, 9E9, 9E9, 9E9, 9E9] ], v1000, fine, pen\WObj:=platform;
    
    !!-1.9702077936095979, -2.7300000000000004;
    MoveL [ [18.548, 9.203, 43.997], [0.245, 0.487, -0.838, 0.000], [0, 0, 0, 0], [ 9E9, 9E9, 9E9, 9E9, 9E9, 9E9] ], v1000, fine, pen\WObj:=platform;
    MoveL [ [-1.970, -2.730, -0.010], [0.245, 0.487, -0.838, 0.000], [0, 0, 0, 0], [ 9E9, 9E9, 9E9, 9E9, 9E9, 9E9] ], v30, fine, pen\WObj:=platform;
    MoveL [ [18.548, 9.203, 43.997], [0.245, 0.487, -0.838, 0.000], [0, 0, 0, 0], [ 9E9, 9E9, 9E9, 9E9, 9E9, 9E9] ], v1000, fine, pen\WObj:=platform;
    
    !!-2.026499444855587, -2.632500000000001;
    MoveL [ [18.625, 9.080, 43.994], [0.245, 0.478, -0.843, 0.000], [0, 0, 0, 0], [ 9E9, 9E9, 9E9, 9E9, 9E9, 9E9] ], v1000, fine, pen\WObj:=platform;
    MoveL [ [-2.026, -2.633, -0.010], [0.245, 0.478, -0.843, 0.000], [0, 0, 0, 0], [ 9E9, 9E9, 9E9, 9E9, 9E9, 9E9] ], v30, fine, pen\WObj:=platform;
    MoveL [ [18.625, 9.080, 43.994], [0.245, 0.478, -0.843, 0.000], [0, 0, 0, 0], [ 9E9, 9E9, 9E9, 9E9, 9E9, 9E9] ], v1000, fine, pen\WObj:=platform;
    
    !!-2.082791096101575, -2.5350000000000006;
    MoveL [ [18.701, 8.956, 43.990], [0.245, 0.469, -0.848, 0.000], [0, 0, 0, 0], [ 9E9, 9E9, 9E9, 9E9, 9E9, 9E9] ], v1000, fine, pen\WObj:=platform;
    MoveL [ [-2.083, -2.535, -0.010], [0.245, 0.469, -0.848, 0.000], [0, 0, 0, 0], [ 9E9, 9E9, 9E9, 9E9, 9E9, 9E9] ], v30, fine, pen\WObj:=platform;
    MoveL [ [18.701, 8.956, 43.990], [0.245, 0.469, -0.848, 0.000], [0, 0, 0, 0], [ 9E9, 9E9, 9E9, 9E9, 9E9, 9E9] ], v1000, fine, pen\WObj:=platform;
    
    !!-2.1390827473475635, -2.4375;
    MoveL [ [18.777, 8.831, 43.985], [0.245, 0.460, -0.854, 0.000], [0, 0, 0, 0], [ 9E9, 9E9, 9E9, 9E9, 9E9, 9E9] ], v1000, fine, pen\WObj:=platform;
    MoveL [ [-2.139, -2.438, -0.010], [0.245, 0.460, -0.854, 0.000], [0, 0, 0, 0], [ 9E9, 9E9, 9E9, 9E9, 9E9, 9E9] ], v30, fine, pen\WObj:=platform;
    MoveL [ [18.777, 8.831, 43.985], [0.245, 0.460, -0.854, 0.000], [0, 0, 0, 0], [ 9E9, 9E9, 9E9, 9E9, 9E9, 9E9] ], v1000, fine, pen\WObj:=platform;
    
    !!-2.195374398593552, -2.3400000000000003;
    MoveL [ [19.780, 4.522, 44.375], [0.237, 0.290, -0.927, 0.000], [0, 0, 0, 0], [ 9E9, 9E9, 9E9, 9E9, 9E9, 9E9] ], v1000, fine, pen\WObj:=platform;
    MoveL [ [-2.195, -2.340, -0.010], [0.237, 0.290, -0.927, 0.000], [0, 0, 0, 0], [ 9E9, 9E9, 9E9, 9E9, 9E9, 9E9] ], v30, fine, pen\WObj:=platform;
    MoveL [ [19.780, 4.522, 44.375], [0.237, 0.290, -0.927, 0.000], [0, 0, 0, 0], [ 9E9, 9E9, 9E9, 9E9, 9E9, 9E9] ], v1000, fine, pen\WObj:=platform;
    
    !!-2.25166604983954, -2.2425;
    MoveL [ [19.420, 6.556, 44.182], [0.241, 0.365, -0.899, 0.000], [0, 0, 0, 0], [ 9E9, 9E9, 9E9, 9E9, 9E9, 9E9] ], v1000, fine, pen\WObj:=platform;
    MoveL [ [-2.252, -2.243, -0.010], [0.241, 0.365, -0.899, 0.000], [0, 0, 0, 0], [ 9E9, 9E9, 9E9, 9E9, 9E9, 9E9] ], v30, fine, pen\WObj:=platform;
    MoveL [ [19.420, 6.556, 44.182], [0.241, 0.365, -0.899, 0.000], [0, 0, 0, 0], [ 9E9, 9E9, 9E9, 9E9, 9E9, 9E9] ], v1000, fine, pen\WObj:=platform;
    
    !!-2.3079577010855292, -2.1450000000000005;
    MoveL [ [20.402, -0.459, 44.503], [0.234, 0.072, -0.970, 0.000], [0, 0, 0, 0], [ 9E9, 9E9, 9E9, 9E9, 9E9, 9E9] ], v1000, fine, pen\WObj:=platform;
    MoveL [ [-2.308, -2.145, -0.010], [0.234, 0.072, -0.970, 0.000], [0, 0, 0, 0], [ 9E9, 9E9, 9E9, 9E9, 9E9, 9E9] ], v30, fine, pen\WObj:=platform;
    MoveL [ [20.402, -0.459, 44.503], [0.234, 0.072, -0.970, 0.000], [0, 0, 0, 0], [ 9E9, 9E9, 9E9, 9E9, 9E9, 9E9] ], v1000, fine, pen\WObj:=platform;
    
    !!-1.3509996299037241, -3.8025;
    MoveL [ [17.647, 10.517, 43.967], [0.245, 0.584, -0.774, 0.000], [0, 0, 0, 0], [ 9E9, 9E9, 9E9, 9E9, 9E9, 9E9] ], v1000, fine, pen\WObj:=platform;
    MoveL [ [-1.351, -3.803, -0.010], [0.245, 0.584, -0.774, 0.000], [0, 0, 0, 0], [ 9E9, 9E9, 9E9, 9E9, 9E9, 9E9] ], v30, fine, pen\WObj:=platform;
    MoveL [ [17.647, 10.517, 43.967], [0.245, 0.584, -0.774, 0.000], [0, 0, 0, 0], [ 9E9, 9E9, 9E9, 9E9, 9E9, 9E9] ], v1000, fine, pen\WObj:=platform;
    
    !!-2.3642493523315182, -2.0475000000000003;
    MoveL [ [20.492, -3.045, 44.449], [0.235, -0.042, -0.971, 0.000], [0, 0, 0, 0], [ 9E9, 9E9, 9E9, 9E9, 9E9, 9E9] ], v1000, fine, pen\WObj:=platform;
    MoveL [ [-2.364, -2.048, -0.010], [0.235, -0.042, -0.971, 0.000], [0, 0, 0, 0], [ 9E9, 9E9, 9E9, 9E9, 9E9, 9E9] ], v30, fine, pen\WObj:=platform;
    MoveL [ [20.492, -3.045, 44.449], [0.235, -0.042, -0.971, 0.000], [0, 0, 0, 0], [ 9E9, 9E9, 9E9, 9E9, 9E9, 9E9] ], v1000, fine, pen\WObj:=platform;
    
    !!-2.420541003577506, -1.9500000000000004;
    MoveL [ [20.516, -3.181, 44.402], [0.236, -0.052, -0.970, 0.000], [0, 0, 0, 0], [ 9E9, 9E9, 9E9, 9E9, 9E9, 9E9] ], v1000, fine, pen\WObj:=platform;
    MoveL [ [-2.421, -1.950, -0.010], [0.236, -0.052, -0.970, 0.000], [0, 0, 0, 0], [ 9E9, 9E9, 9E9, 9E9, 9E9, 9E9] ], v30, fine, pen\WObj:=platform;
    MoveL [ [20.516, -3.181, 44.402], [0.236, -0.052, -0.970, 0.000], [0, 0, 0, 0], [ 9E9, 9E9, 9E9, 9E9, 9E9, 9E9] ], v1000, fine, pen\WObj:=platform;
    
    !!-2.476832654823495, -1.8525;
    MoveL [ [20.342, 1.511, 44.352], [0.237, 0.142, -0.961, 0.000], [0, 0, 0, 0], [ 9E9, 9E9, 9E9, 9E9, 9E9, 9E9] ], v1000, fine, pen\WObj:=platform;
    MoveL [ [-2.477, -1.853, -0.010], [0.237, 0.142, -0.961, 0.000], [0, 0, 0, 0], [ 9E9, 9E9, 9E9, 9E9, 9E9, 9E9] ], v30, fine, pen\WObj:=platform;
    MoveL [ [20.342, 1.511, 44.352], [0.237, 0.142, -0.961, 0.000], [0, 0, 0, 0], [ 9E9, 9E9, 9E9, 9E9, 9E9, 9E9] ], v1000, fine, pen\WObj:=platform;
    
    !!-2.533124306069483, -1.7550000000000003;
    MoveL [ [19.740, 5.883, 44.099], [0.243, 0.315, -0.918, 0.000], [0, 0, 0, 0], [ 9E9, 9E9, 9E9, 9E9, 9E9, 9E9] ], v1000, fine, pen\WObj:=platform;
    MoveL [ [-2.533, -1.755, -0.010], [0.243, 0.315, -0.918, 0.000], [0, 0, 0, 0], [ 9E9, 9E9, 9E9, 9E9, 9E9, 9E9] ], v30, fine, pen\WObj:=platform;
    MoveL [ [19.740, 5.883, 44.099], [0.243, 0.315, -0.918, 0.000], [0, 0, 0, 0], [ 9E9, 9E9, 9E9, 9E9, 9E9, 9E9] ], v1000, fine, pen\WObj:=platform;
    
    !!-2.589415957315471, -1.6575000000000002;
    MoveL [ [20.166, 3.543, 44.207], [0.240, 0.216, -0.946, 0.000], [0, 0, 0, 0], [ 9E9, 9E9, 9E9, 9E9, 9E9, 9E9] ], v1000, fine, pen\WObj:=platform;
    MoveL [ [-2.589, -1.658, -0.010], [0.240, 0.216, -0.946, 0.000], [0, 0, 0, 0], [ 9E9, 9E9, 9E9, 9E9, 9E9, 9E9] ], v30, fine, pen\WObj:=platform;
    MoveL [ [20.166, 3.543, 44.207], [0.240, 0.216, -0.946, 0.000], [0, 0, 0, 0], [ 9E9, 9E9, 9E9, 9E9, 9E9, 9E9] ], v1000, fine, pen\WObj:=platform;
    
    !!-2.64570760856146, -1.5600000000000003;
    MoveL [ [20.216, 3.403, 44.179], [0.241, 0.206, -0.948, 0.000], [0, 0, 0, 0], [ 9E9, 9E9, 9E9, 9E9, 9E9, 9E9] ], v1000, fine, pen\WObj:=platform;
    MoveL [ [-2.646, -1.560, -0.010], [0.241, 0.206, -0.948, 0.000], [0, 0, 0, 0], [ 9E9, 9E9, 9E9, 9E9, 9E9, 9E9] ], v30, fine, pen\WObj:=platform;
    MoveL [ [20.216, 3.403, 44.179], [0.241, 0.206, -0.948, 0.000], [0, 0, 0, 0], [ 9E9, 9E9, 9E9, 9E9, 9E9, 9E9] ], v1000, fine, pen\WObj:=platform;
    
    !!-2.701999259807449, -1.4625;
    MoveL [ [20.265, 3.264, 44.151], [0.242, 0.196, -0.950, 0.000], [0, 0, 0, 0], [ 9E9, 9E9, 9E9, 9E9, 9E9, 9E9] ], v1000, fine, pen\WObj:=platform;
    MoveL [ [-2.702, -1.462, -0.010], [0.242, 0.196, -0.950, 0.000], [0, 0, 0, 0], [ 9E9, 9E9, 9E9, 9E9, 9E9, 9E9] ], v30, fine, pen\WObj:=platform;
    MoveL [ [20.265, 3.264, 44.151], [0.242, 0.196, -0.950, 0.000], [0, 0, 0, 0], [ 9E9, 9E9, 9E9, 9E9, 9E9, 9E9] ], v1000, fine, pen\WObj:=platform;
    
    !!-2.7582909110534377, -1.3650000000000007;
    MoveL [ [20.314, 3.125, 44.121], [0.242, 0.185, -0.952, 0.000], [0, 0, 0, 0], [ 9E9, 9E9, 9E9, 9E9, 9E9, 9E9] ], v1000, fine, pen\WObj:=platform;
    MoveL [ [-2.758, -1.365, -0.010], [0.242, 0.185, -0.952, 0.000], [0, 0, 0, 0], [ 9E9, 9E9, 9E9, 9E9, 9E9, 9E9] ], v30, fine, pen\WObj:=platform;
    MoveL [ [20.314, 3.125, 44.121], [0.242, 0.185, -0.952, 0.000], [0, 0, 0, 0], [ 9E9, 9E9, 9E9, 9E9, 9E9, 9E9] ], v1000, fine, pen\WObj:=platform;
    
    !!-2.814582562299426, -1.2675000000000003;
    MoveL [ [20.032, 5.206, 43.991], [0.245, 0.264, -0.933, 0.000], [0, 0, 0, 0], [ 9E9, 9E9, 9E9, 9E9, 9E9, 9E9] ], v1000, fine, pen\WObj:=platform;
    MoveL [ [-2.815, -1.268, -0.010], [0.245, 0.264, -0.933, 0.000], [0, 0, 0, 0], [ 9E9, 9E9, 9E9, 9E9, 9E9, 9E9] ], v30, fine, pen\WObj:=platform;
    MoveL [ [20.032, 5.206, 43.991], [0.245, 0.264, -0.933, 0.000], [0, 0, 0, 0], [ 9E9, 9E9, 9E9, 9E9, 9E9, 9E9] ], v1000, fine, pen\WObj:=platform;
    
    !!-2.870874213545415, -1.1700000000000004;
    MoveL [ [20.406, 2.847, 44.058], [0.244, 0.165, -0.956, 0.000], [0, 0, 0, 0], [ 9E9, 9E9, 9E9, 9E9, 9E9, 9E9] ], v1000, fine, pen\WObj:=platform;
    MoveL [ [-2.871, -1.170, -0.010], [0.244, 0.165, -0.956, 0.000], [0, 0, 0, 0], [ 9E9, 9E9, 9E9, 9E9, 9E9, 9E9] ], v30, fine, pen\WObj:=platform;
    MoveL [ [20.406, 2.847, 44.058], [0.244, 0.165, -0.956, 0.000], [0, 0, 0, 0], [ 9E9, 9E9, 9E9, 9E9, 9E9, 9E9] ], v1000, fine, pen\WObj:=platform;
    
    !!-1.4072912811497122, -3.705;
    MoveL [ [17.733, 10.401, 43.975], [0.245, 0.575, -0.780, 0.000], [0, 0, 0, 0], [ 9E9, 9E9, 9E9, 9E9, 9E9, 9E9] ], v1000, fine, pen\WObj:=platform;
    MoveL [ [-1.407, -3.705, -0.010], [0.245, 0.575, -0.780, 0.000], [0, 0, 0, 0], [ 9E9, 9E9, 9E9, 9E9, 9E9, 9E9] ], v30, fine, pen\WObj:=platform;
    MoveL [ [17.733, 10.401, 43.975], [0.245, 0.575, -0.780, 0.000], [0, 0, 0, 0], [ 9E9, 9E9, 9E9, 9E9, 9E9, 9E9] ], v1000, fine, pen\WObj:=platform;
    
    !!-1.4635829323957006, -3.607500000000001;
    MoveL [ [17.817, 10.285, 43.981], [0.245, 0.567, -0.787, 0.000], [0, 0, 0, 0], [ 9E9, 9E9, 9E9, 9E9, 9E9, 9E9] ], v1000, fine, pen\WObj:=platform;
    MoveL [ [-1.464, -3.608, -0.010], [0.245, 0.567, -0.787, 0.000], [0, 0, 0, 0], [ 9E9, 9E9, 9E9, 9E9, 9E9, 9E9] ], v30, fine, pen\WObj:=platform;
    MoveL [ [17.817, 10.285, 43.981], [0.245, 0.567, -0.787, 0.000], [0, 0, 0, 0], [ 9E9, 9E9, 9E9, 9E9, 9E9, 9E9] ], v1000, fine, pen\WObj:=platform;
    
    !!-1.5198745836416903, -3.5100000000000002;
    MoveL [ [17.901, 10.167, 43.987], [0.245, 0.558, -0.793, 0.000], [0, 0, 0, 0], [ 9E9, 9E9, 9E9, 9E9, 9E9, 9E9] ], v1000, fine, pen\WObj:=platform;
    MoveL [ [-1.520, -3.510, -0.010], [0.245, 0.558, -0.793, 0.000], [0, 0, 0, 0], [ 9E9, 9E9, 9E9, 9E9, 9E9, 9E9] ], v30, fine, pen\WObj:=platform;
    MoveL [ [17.901, 10.167, 43.987], [0.245, 0.558, -0.793, 0.000], [0, 0, 0, 0], [ 9E9, 9E9, 9E9, 9E9, 9E9, 9E9] ], v1000, fine, pen\WObj:=platform;
    
    !!-1.5761662348876784, -3.4125000000000005;
    MoveL [ [17.985, 10.049, 43.992], [0.245, 0.550, -0.799, 0.000], [0, 0, 0, 0], [ 9E9, 9E9, 9E9, 9E9, 9E9, 9E9] ], v1000, fine, pen\WObj:=platform;
    MoveL [ [-1.576, -3.413, -0.010], [0.245, 0.550, -0.799, 0.000], [0, 0, 0, 0], [ 9E9, 9E9, 9E9, 9E9, 9E9, 9E9] ], v30, fine, pen\WObj:=platform;
    MoveL [ [17.985, 10.049, 43.992], [0.245, 0.550, -0.799, 0.000], [0, 0, 0, 0], [ 9E9, 9E9, 9E9, 9E9, 9E9, 9E9] ], v1000, fine, pen\WObj:=platform;
    
    !!-1.6324578861336667, -3.3150000000000004;
    MoveL [ [18.067, 9.930, 43.995], [0.245, 0.541, -0.805, 0.000], [0, 0, 0, 0], [ 9E9, 9E9, 9E9, 9E9, 9E9, 9E9] ], v1000, fine, pen\WObj:=platform;
    MoveL [ [-1.632, -3.315, -0.010], [0.245, 0.541, -0.805, 0.000], [0, 0, 0, 0], [ 9E9, 9E9, 9E9, 9E9, 9E9, 9E9] ], v30, fine, pen\WObj:=platform;
    MoveL [ [18.067, 9.930, 43.995], [0.245, 0.541, -0.805, 0.000], [0, 0, 0, 0], [ 9E9, 9E9, 9E9, 9E9, 9E9, 9E9] ], v1000, fine, pen\WObj:=platform;
    
    !!-1.6887495373796555, -3.217500000000001;
    MoveL [ [18.149, 9.811, 43.998], [0.245, 0.532, -0.810, 0.000], [0, 0, 0, 0], [ 9E9, 9E9, 9E9, 9E9, 9E9, 9E9] ], v1000, fine, pen\WObj:=platform;
    MoveL [ [-1.689, -3.218, -0.010], [0.245, 0.532, -0.810, 0.000], [0, 0, 0, 0], [ 9E9, 9E9, 9E9, 9E9, 9E9, 9E9] ], v30, fine, pen\WObj:=platform;
    MoveL [ [18.149, 9.811, 43.998], [0.245, 0.532, -0.810, 0.000], [0, 0, 0, 0], [ 9E9, 9E9, 9E9, 9E9, 9E9, 9E9] ], v1000, fine, pen\WObj:=platform;
    
    !!-1.7450411886256436, -3.1200000000000006;
    MoveL [ [18.231, 9.691, 44.000], [0.245, 0.523, -0.816, 0.000], [0, 0, 0, 0], [ 9E9, 9E9, 9E9, 9E9, 9E9, 9E9] ], v1000, fine, pen\WObj:=platform;
    MoveL [ [-1.745, -3.120, -0.010], [0.245, 0.523, -0.816, 0.000], [0, 0, 0, 0], [ 9E9, 9E9, 9E9, 9E9, 9E9, 9E9] ], v30, fine, pen\WObj:=platform;
    MoveL [ [18.231, 9.691, 44.000], [0.245, 0.523, -0.816, 0.000], [0, 0, 0, 0], [ 9E9, 9E9, 9E9, 9E9, 9E9, 9E9] ], v1000, fine, pen\WObj:=platform;
    
    !!-1.238416327411747, -3.9975000000000005;
    MoveL [ [19.907, -5.288, 45.280], [0.217, -0.059, -0.974, 0.000], [0, 0, 0, 0], [ 9E9, 9E9, 9E9, 9E9, 9E9, 9E9] ], v1000, fine, pen\WObj:=platform;
    MoveL [ [-1.238, -3.998, -0.010], [0.217, -0.059, -0.974, 0.000], [0, 0, 0, 0], [ 9E9, 9E9, 9E9, 9E9, 9E9, 9E9] ], v30, fine, pen\WObj:=platform;
    MoveL [ [19.907, -5.288, 45.280], [0.217, -0.059, -0.974, 0.000], [0, 0, 0, 0], [ 9E9, 9E9, 9E9, 9E9, 9E9, 9E9] ], v1000, fine, pen\WObj:=platform;
    
    !!-1.1821246761657591, -4.095000000000001;
    MoveL [ [19.880, -5.146, 45.325], [0.216, -0.049, -0.975, 0.000], [0, 0, 0, 0], [ 9E9, 9E9, 9E9, 9E9, 9E9, 9E9] ], v1000, fine, pen\WObj:=platform;
    MoveL [ [-1.182, -4.095, -0.010], [0.216, -0.049, -0.975, 0.000], [0, 0, 0, 0], [ 9E9, 9E9, 9E9, 9E9, 9E9, 9E9] ], v30, fine, pen\WObj:=platform;
    MoveL [ [19.880, -5.146, 45.325], [0.216, -0.049, -0.975, 0.000], [0, 0, 0, 0], [ 9E9, 9E9, 9E9, 9E9, 9E9, 9E9] ], v1000, fine, pen\WObj:=platform;
    
    !!-0.6754998149518625, -4.972500000000001;
    MoveL [ [16.578, 11.839, 43.804], [0.249, 0.676, -0.694, 0.000], [0, 0, 0, 0], [ 9E9, 9E9, 9E9, 9E9, 9E9, 9E9] ], v1000, fine, pen\WObj:=platform;
    MoveL [ [-0.675, -4.973, -0.010], [0.249, 0.676, -0.694, 0.000], [0, 0, 0, 0], [ 9E9, 9E9, 9E9, 9E9, 9E9, 9E9] ], v30, fine, pen\WObj:=platform;
    MoveL [ [16.578, 11.839, 43.804], [0.249, 0.676, -0.694, 0.000], [0, 0, 0, 0], [ 9E9, 9E9, 9E9, 9E9, 9E9, 9E9] ], v1000, fine, pen\WObj:=platform;
    
    !!-0.6192081637058743, -5.070000000000001;
    MoveL [ [16.486, 11.944, 43.784], [0.249, 0.683, -0.687, 0.000], [0, 0, 0, 0], [ 9E9, 9E9, 9E9, 9E9, 9E9, 9E9] ], v1000, fine, pen\WObj:=platform;
    MoveL [ [-0.619, -5.070, -0.010], [0.249, 0.683, -0.687, 0.000], [0, 0, 0, 0], [ 9E9, 9E9, 9E9, 9E9, 9E9, 9E9] ], v30, fine, pen\WObj:=platform;
    MoveL [ [16.486, 11.944, 43.784], [0.249, 0.683, -0.687, 0.000], [0, 0, 0, 0], [ 9E9, 9E9, 9E9, 9E9, 9E9, 9E9] ], v1000, fine, pen\WObj:=platform;
    
    !!-0.5629165124598847, -5.1675;
    MoveL [ [16.393, 12.047, 43.764], [0.250, 0.690, -0.680, 0.000], [0, 0, 0, 0], [ 9E9, 9E9, 9E9, 9E9, 9E9, 9E9] ], v1000, fine, pen\WObj:=platform;
    MoveL [ [-0.563, -5.168, -0.010], [0.250, 0.690, -0.680, 0.000], [0, 0, 0, 0], [ 9E9, 9E9, 9E9, 9E9, 9E9, 9E9] ], v30, fine, pen\WObj:=platform;
    MoveL [ [16.393, 12.047, 43.764], [0.250, 0.690, -0.680, 0.000], [0, 0, 0, 0], [ 9E9, 9E9, 9E9, 9E9, 9E9, 9E9] ], v1000, fine, pen\WObj:=platform;
    
    !!-0.5066248612138966, -5.265;
    MoveL [ [16.300, 12.149, 43.743], [0.250, 0.697, -0.672, 0.000], [0, 0, 0, 0], [ 9E9, 9E9, 9E9, 9E9, 9E9, 9E9] ], v1000, fine, pen\WObj:=platform;
    MoveL [ [-0.507, -5.265, -0.010], [0.250, 0.697, -0.672, 0.000], [0, 0, 0, 0], [ 9E9, 9E9, 9E9, 9E9, 9E9, 9E9] ], v30, fine, pen\WObj:=platform;
    MoveL [ [16.300, 12.149, 43.743], [0.250, 0.697, -0.672, 0.000], [0, 0, 0, 0], [ 9E9, 9E9, 9E9, 9E9, 9E9, 9E9] ], v1000, fine, pen\WObj:=platform;
    
    !!-0.4503332099679083, -5.362500000000001;
    MoveL [ [16.207, 12.250, 43.720], [0.250, 0.703, -0.665, 0.000], [0, 0, 0, 0], [ 9E9, 9E9, 9E9, 9E9, 9E9, 9E9] ], v1000, fine, pen\WObj:=platform;
    MoveL [ [-0.450, -5.363, -0.010], [0.250, 0.703, -0.665, 0.000], [0, 0, 0, 0], [ 9E9, 9E9, 9E9, 9E9, 9E9, 9E9] ], v30, fine, pen\WObj:=platform;
    MoveL [ [16.207, 12.250, 43.720], [0.250, 0.703, -0.665, 0.000], [0, 0, 0, 0], [ 9E9, 9E9, 9E9, 9E9, 9E9, 9E9] ], v1000, fine, pen\WObj:=platform;
    
    !!-0.3940415587219195, -5.460000000000001;
    MoveL [ [16.113, 12.350, 43.697], [0.251, 0.710, -0.658, 0.000], [0, 0, 0, 0], [ 9E9, 9E9, 9E9, 9E9, 9E9, 9E9] ], v1000, fine, pen\WObj:=platform;
    MoveL [ [-0.394, -5.460, -0.010], [0.251, 0.710, -0.658, 0.000], [0, 0, 0, 0], [ 9E9, 9E9, 9E9, 9E9, 9E9, 9E9] ], v30, fine, pen\WObj:=platform;
    MoveL [ [16.113, 12.350, 43.697], [0.251, 0.710, -0.658, 0.000], [0, 0, 0, 0], [ 9E9, 9E9, 9E9, 9E9, 9E9, 9E9] ], v1000, fine, pen\WObj:=platform;
    
    !!-0.33774990747593125, -5.557499999999999;
    MoveL [ [16.019, 12.449, 43.673], [0.251, 0.716, -0.651, 0.000], [0, 0, 0, 0], [ 9E9, 9E9, 9E9, 9E9, 9E9, 9E9] ], v1000, fine, pen\WObj:=platform;
    MoveL [ [-0.338, -5.557, -0.010], [0.251, 0.716, -0.651, 0.000], [0, 0, 0, 0], [ 9E9, 9E9, 9E9, 9E9, 9E9, 9E9] ], v30, fine, pen\WObj:=platform;
    MoveL [ [16.019, 12.449, 43.673], [0.251, 0.716, -0.651, 0.000], [0, 0, 0, 0], [ 9E9, 9E9, 9E9, 9E9, 9E9, 9E9] ], v1000, fine, pen\WObj:=platform;
    
    !!-0.281458256229943, -5.655000000000001;
    MoveL [ [15.924, 12.547, 43.649], [0.252, 0.723, -0.644, 0.000], [0, 0, 0, 0], [ 9E9, 9E9, 9E9, 9E9, 9E9, 9E9] ], v1000, fine, pen\WObj:=platform;
    MoveL [ [-0.281, -5.655, -0.010], [0.252, 0.723, -0.644, 0.000], [0, 0, 0, 0], [ 9E9, 9E9, 9E9, 9E9, 9E9, 9E9] ], v30, fine, pen\WObj:=platform;
    MoveL [ [15.924, 12.547, 43.649], [0.252, 0.723, -0.644, 0.000], [0, 0, 0, 0], [ 9E9, 9E9, 9E9, 9E9, 9E9, 9E9] ], v1000, fine, pen\WObj:=platform;
    
    !!-0.2251666049839535, -5.7525;
    MoveL [ [15.830, 12.643, 43.623], [0.252, 0.729, -0.636, 0.000], [0, 0, 0, 0], [ 9E9, 9E9, 9E9, 9E9, 9E9, 9E9] ], v1000, fine, pen\WObj:=platform;
    MoveL [ [-0.225, -5.753, -0.010], [0.252, 0.729, -0.636, 0.000], [0, 0, 0, 0], [ 9E9, 9E9, 9E9, 9E9, 9E9, 9E9] ], v30, fine, pen\WObj:=platform;
    MoveL [ [15.830, 12.643, 43.623], [0.252, 0.729, -0.636, 0.000], [0, 0, 0, 0], [ 9E9, 9E9, 9E9, 9E9, 9E9, 9E9] ], v1000, fine, pen\WObj:=platform;
    
    !!-0.16887495373796527, -5.8500000000000005;
    MoveL [ [15.734, 12.739, 43.597], [0.253, 0.735, -0.629, 0.000], [0, 0, 0, 0], [ 9E9, 9E9, 9E9, 9E9, 9E9, 9E9] ], v1000, fine, pen\WObj:=platform;
    MoveL [ [-0.169, -5.850, -0.010], [0.253, 0.735, -0.629, 0.000], [0, 0, 0, 0], [ 9E9, 9E9, 9E9, 9E9, 9E9, 9E9] ], v30, fine, pen\WObj:=platform;
    MoveL [ [15.734, 12.739, 43.597], [0.253, 0.735, -0.629, 0.000], [0, 0, 0, 0], [ 9E9, 9E9, 9E9, 9E9, 9E9, 9E9] ], v1000, fine, pen\WObj:=platform;
    
    !!-1.12583302491977, -4.192500000000001;
    MoveL [ [17.300, 10.972, 43.928], [0.246, 0.616, -0.748, 0.000], [0, 0, 0, 0], [ 9E9, 9E9, 9E9, 9E9, 9E9, 9E9] ], v1000, fine, pen\WObj:=platform;
    MoveL [ [-1.126, -4.193, -0.010], [0.246, 0.616, -0.748, 0.000], [0, 0, 0, 0], [ 9E9, 9E9, 9E9, 9E9, 9E9, 9E9] ], v30, fine, pen\WObj:=platform;
    MoveL [ [17.300, 10.972, 43.928], [0.246, 0.616, -0.748, 0.000], [0, 0, 0, 0], [ 9E9, 9E9, 9E9, 9E9, 9E9, 9E9] ], v1000, fine, pen\WObj:=platform;
    
    !!-0.11258330249197708, -5.9475;
    MoveL [ [15.639, 12.834, 43.569], [0.253, 0.741, -0.622, 0.000], [0, 0, 0, 0], [ 9E9, 9E9, 9E9, 9E9, 9E9, 9E9] ], v1000, fine, pen\WObj:=platform;
    MoveL [ [-0.113, -5.947, -0.010], [0.253, 0.741, -0.622, 0.000], [0, 0, 0, 0], [ 9E9, 9E9, 9E9, 9E9, 9E9, 9E9] ], v30, fine, pen\WObj:=platform;
    MoveL [ [15.639, 12.834, 43.569], [0.253, 0.741, -0.622, 0.000], [0, 0, 0, 0], [ 9E9, 9E9, 9E9, 9E9, 9E9, 9E9] ], v1000, fine, pen\WObj:=platform;
    
    !!-0.056291651245988214, -6.045000000000002;
    MoveL [ [15.544, 12.927, 43.541], [0.254, 0.747, -0.614, 0.000], [0, 0, 0, 0], [ 9E9, 9E9, 9E9, 9E9, 9E9, 9E9] ], v1000, fine, pen\WObj:=platform;
    MoveL [ [-0.056, -6.045, -0.010], [0.254, 0.747, -0.614, 0.000], [0, 0, 0, 0], [ 9E9, 9E9, 9E9, 9E9, 9E9, 9E9] ], v30, fine, pen\WObj:=platform;
    MoveL [ [15.544, 12.927, 43.541], [0.254, 0.747, -0.614, 0.000], [0, 0, 0, 0], [ 9E9, 9E9, 9E9, 9E9, 9E9, 9E9] ], v1000, fine, pen\WObj:=platform;
    
    !!0, -6.142500000000001;
    MoveL [ [15.448, 13.020, 43.512], [0.255, 0.753, -0.607, 0.000], [0, 0, 0, 0], [ 9E9, 9E9, 9E9, 9E9, 9E9, 9E9] ], v1000, fine, pen\WObj:=platform;
    MoveL [ [0.000, -6.143, -0.010], [0.255, 0.753, -0.607, 0.000], [0, 0, 0, 0], [ 9E9, 9E9, 9E9, 9E9, 9E9, 9E9] ], v30, fine, pen\WObj:=platform;
    MoveL [ [15.448, 13.020, 43.512], [0.255, 0.753, -0.607, 0.000], [0, 0, 0, 0], [ 9E9, 9E9, 9E9, 9E9, 9E9, 9E9] ], v1000, fine, pen\WObj:=platform;
    
    !!0.056291651245988214, -6.240000000000001;
    MoveL [ [15.352, 13.111, 43.482], [0.255, 0.759, -0.600, 0.000], [0, 0, 0, 0], [ 9E9, 9E9, 9E9, 9E9, 9E9, 9E9] ], v1000, fine, pen\WObj:=platform;
    MoveL [ [0.056, -6.240, -0.010], [0.255, 0.759, -0.600, 0.000], [0, 0, 0, 0], [ 9E9, 9E9, 9E9, 9E9, 9E9, 9E9] ], v30, fine, pen\WObj:=platform;
    MoveL [ [15.352, 13.111, 43.482], [0.255, 0.759, -0.600, 0.000], [0, 0, 0, 0], [ 9E9, 9E9, 9E9, 9E9, 9E9, 9E9] ], v1000, fine, pen\WObj:=platform;
    
    !!0.11258330249197772, -6.3375;
    MoveL [ [15.256, 13.201, 43.452], [0.256, 0.764, -0.592, 0.000], [0, 0, 0, 0], [ 9E9, 9E9, 9E9, 9E9, 9E9, 9E9] ], v1000, fine, pen\WObj:=platform;
    MoveL [ [0.113, -6.338, -0.010], [0.256, 0.764, -0.592, 0.000], [0, 0, 0, 0], [ 9E9, 9E9, 9E9, 9E9, 9E9, 9E9] ], v30, fine, pen\WObj:=platform;
    MoveL [ [15.256, 13.201, 43.452], [0.256, 0.764, -0.592, 0.000], [0, 0, 0, 0], [ 9E9, 9E9, 9E9, 9E9, 9E9, 9E9] ], v1000, fine, pen\WObj:=platform;
    
    !!0.16887495373796593, -6.435000000000002;
    MoveL [ [15.159, 13.290, 43.420], [0.256, 0.770, -0.585, 0.000], [0, 0, 0, 0], [ 9E9, 9E9, 9E9, 9E9, 9E9, 9E9] ], v1000, fine, pen\WObj:=platform;
    MoveL [ [0.169, -6.435, -0.010], [0.256, 0.770, -0.585, 0.000], [0, 0, 0, 0], [ 9E9, 9E9, 9E9, 9E9, 9E9, 9E9] ], v30, fine, pen\WObj:=platform;
    MoveL [ [15.159, 13.290, 43.420], [0.256, 0.770, -0.585, 0.000], [0, 0, 0, 0], [ 9E9, 9E9, 9E9, 9E9, 9E9, 9E9] ], v1000, fine, pen\WObj:=platform;
    
    !!0.22516660498395416, -6.532500000000001;
    MoveL [ [15.063, 13.378, 43.388], [0.257, 0.775, -0.577, 0.000], [0, 0, 0, 0], [ 9E9, 9E9, 9E9, 9E9, 9E9, 9E9] ], v1000, fine, pen\WObj:=platform;
    MoveL [ [0.225, -6.533, -0.010], [0.257, 0.775, -0.577, 0.000], [0, 0, 0, 0], [ 9E9, 9E9, 9E9, 9E9, 9E9, 9E9] ], v30, fine, pen\WObj:=platform;
    MoveL [ [15.063, 13.378, 43.388], [0.257, 0.775, -0.577, 0.000], [0, 0, 0, 0], [ 9E9, 9E9, 9E9, 9E9, 9E9, 9E9] ], v1000, fine, pen\WObj:=platform;
    
    !!0.28145825622994236, -6.630000000000001;
    MoveL [ [14.966, 13.465, 43.355], [0.258, 0.780, -0.570, 0.000], [0, 0, 0, 0], [ 9E9, 9E9, 9E9, 9E9, 9E9, 9E9] ], v1000, fine, pen\WObj:=platform;
    MoveL [ [0.281, -6.630, -0.010], [0.258, 0.780, -0.570, 0.000], [0, 0, 0, 0], [ 9E9, 9E9, 9E9, 9E9, 9E9, 9E9] ], v30, fine, pen\WObj:=platform;
    MoveL [ [14.966, 13.465, 43.355], [0.258, 0.780, -0.570, 0.000], [0, 0, 0, 0], [ 9E9, 9E9, 9E9, 9E9, 9E9, 9E9] ], v1000, fine, pen\WObj:=platform;
    
    !!0.33774990747593053, -6.727499999999999;
    MoveL [ [16.158, 10.373, 44.231], [0.240, 0.713, -0.659, 0.000], [0, 0, 0, 0], [ 9E9, 9E9, 9E9, 9E9, 9E9, 9E9] ], v1000, fine, pen\WObj:=platform;
    MoveL [ [0.338, -6.727, -0.010], [0.240, 0.713, -0.659, 0.000], [0, 0, 0, 0], [ 9E9, 9E9, 9E9, 9E9, 9E9, 9E9] ], v30, fine, pen\WObj:=platform;
    MoveL [ [16.158, 10.373, 44.231], [0.240, 0.713, -0.659, 0.000], [0, 0, 0, 0], [ 9E9, 9E9, 9E9, 9E9, 9E9, 9E9] ], v1000, fine, pen\WObj:=platform;
    
    !!0.39404155872191876, -6.825000000000001;
    MoveL [ [16.694, 8.614, 44.666], [0.231, 0.669, -0.706, 0.000], [0, 0, 0, 0], [ 9E9, 9E9, 9E9, 9E9, 9E9, 9E9] ], v1000, fine, pen\WObj:=platform;
    MoveL [ [0.394, -6.825, -0.010], [0.231, 0.669, -0.706, 0.000], [0, 0, 0, 0], [ 9E9, 9E9, 9E9, 9E9, 9E9, 9E9] ], v30, fine, pen\WObj:=platform;
    MoveL [ [16.694, 8.614, 44.666], [0.231, 0.669, -0.706, 0.000], [0, 0, 0, 0], [ 9E9, 9E9, 9E9, 9E9, 9E9, 9E9] ], v1000, fine, pen\WObj:=platform;
    
    !!-1.0695413736737818, -4.290000000000001;
    MoveL [ [17.211, 11.084, 43.916], [0.246, 0.624, -0.742, 0.000], [0, 0, 0, 0], [ 9E9, 9E9, 9E9, 9E9, 9E9, 9E9] ], v1000, fine, pen\WObj:=platform;
    MoveL [ [-1.070, -4.290, -0.010], [0.246, 0.624, -0.742, 0.000], [0, 0, 0, 0], [ 9E9, 9E9, 9E9, 9E9, 9E9, 9E9] ], v30, fine, pen\WObj:=platform;
    MoveL [ [17.211, 11.084, 43.916], [0.246, 0.624, -0.742, 0.000], [0, 0, 0, 0], [ 9E9, 9E9, 9E9, 9E9, 9E9, 9E9] ], v1000, fine, pen\WObj:=platform;
    
    !!0.450333209967907, -6.9225;
    MoveL [ [16.600, 8.739, 44.643], [0.231, 0.677, -0.698, 0.000], [0, 0, 0, 0], [ 9E9, 9E9, 9E9, 9E9, 9E9, 9E9] ], v1000, fine, pen\WObj:=platform;
    MoveL [ [0.450, -6.923, -0.010], [0.231, 0.677, -0.698, 0.000], [0, 0, 0, 0], [ 9E9, 9E9, 9E9, 9E9, 9E9, 9E9] ], v30, fine, pen\WObj:=platform;
    MoveL [ [16.600, 8.739, 44.643], [0.231, 0.677, -0.698, 0.000], [0, 0, 0, 0], [ 9E9, 9E9, 9E9, 9E9, 9E9, 9E9] ], v1000, fine, pen\WObj:=platform;
    
    !!0.5066248612138966, -7.0200000000000005;
    MoveL [ [16.504, 8.862, 44.620], [0.232, 0.685, -0.690, 0.000], [0, 0, 0, 0], [ 9E9, 9E9, 9E9, 9E9, 9E9, 9E9] ], v1000, fine, pen\WObj:=platform;
    MoveL [ [0.507, -7.020, -0.010], [0.232, 0.685, -0.690, 0.000], [0, 0, 0, 0], [ 9E9, 9E9, 9E9, 9E9, 9E9, 9E9] ], v30, fine, pen\WObj:=platform;
    MoveL [ [16.504, 8.862, 44.620], [0.232, 0.685, -0.690, 0.000], [0, 0, 0, 0], [ 9E9, 9E9, 9E9, 9E9, 9E9, 9E9] ], v1000, fine, pen\WObj:=platform;
    
    !!0.5629165124598847, -7.1175000000000015;
    MoveL [ [15.122, 12.440, 43.642], [0.252, 0.776, -0.578, 0.000], [0, 0, 0, 0], [ 9E9, 9E9, 9E9, 9E9, 9E9, 9E9] ], v1000, fine, pen\WObj:=platform;
    MoveL [ [0.563, -7.118, -0.010], [0.252, 0.776, -0.578, 0.000], [0, 0, 0, 0], [ 9E9, 9E9, 9E9, 9E9, 9E9, 9E9] ], v30, fine, pen\WObj:=platform;
    MoveL [ [15.122, 12.440, 43.642], [0.252, 0.776, -0.578, 0.000], [0, 0, 0, 0], [ 9E9, 9E9, 9E9, 9E9, 9E9, 9E9] ], v1000, fine, pen\WObj:=platform;
    
    !!0.619208163705873, -7.215000000000002;
    MoveL [ [14.385, 13.961, 43.142], [0.262, 0.809, -0.526, 0.000], [0, 0, 0, 0], [ 9E9, 9E9, 9E9, 9E9, 9E9, 9E9] ], v1000, fine, pen\WObj:=platform;
