MODULE MainModule
  PERS wobjdata platform := [ FALSE, TRUE, "", [ [800, 0, 600], [1, 0, 0 ,0] ], [ [0, 0, 0], [1, 0, 0 ,0] ] ];
  PERS tooldata pen := [ TRUE, [[0, 0, 100], [1, 0, 0 ,0]], [0.8,[0, 0, 30], [1, 0, 0, 0], 0, 0, 0]];
  PROC main()
    ConfL\Off;
    ConfJ\Off;
    SingArea\Wrist;
    !!-4.875, 0.005199999999999649;
    MoveL [ [-2.717, 2.691, 49.871], [0.034, 0.779, -0.626, 0.000], [0, 0, 0, 0], [ 9E9, 9E9, 9E9, 9E9, 9E9, 9E9] ], v1000, fine, pen\WObj:=platform;
    MoveL [ [-4.875, 0.005, -0.010], [0.034, 0.779, -0.626, 0.000], [0, 0, 0, 0], [ 9E9, 9E9, 9E9, 9E9, 9E9, 9E9] ], v30, fine, pen\WObj:=platform;
    MoveL [ [-2.717, 2.691, 49.871], [0.034, 0.779, -0.626, 0.000], [0, 0, 0, 0], [ 9E9, 9E9, 9E9, 9E9, 9E9, 9E9] ], v1000, fine, pen\WObj:=platform;
    
    !!-4.757913365408345, 0.005199999999999649;
    MoveL [ [-2.700, 2.707, 49.875], [0.034, 0.795, -0.606, 0.000], [0, 0, 0, 0], [ 9E9, 9E9, 9E9, 9E9, 9E9, 9E9] ], v1000, fine, pen\WObj:=platform;
    MoveL [ [-4.758, 0.005, -0.010], [0.034, 0.795, -0.606, 0.000], [0, 0, 0, 0], [ 9E9, 9E9, 9E9, 9E9, 9E9, 9E9] ], v30, fine, pen\WObj:=platform;
    MoveL [ [-2.700, 2.707, 49.875], [0.034, 0.795, -0.606, 0.000], [0, 0, 0, 0], [ 9E9, 9E9, 9E9, 9E9, 9E9, 9E9] ], v1000, fine, pen\WObj:=platform;
    
    !!-4.640826730816689, 0.005199999999999649;
    MoveL [ [-2.684, 2.722, 49.878], [0.034, 0.811, -0.584, 0.000], [0, 0, 0, 0], [ 9E9, 9E9, 9E9, 9E9, 9E9, 9E9] ], v1000, fine, pen\WObj:=platform;
    MoveL [ [-4.641, 0.005, -0.010], [0.034, 0.811, -0.584, 0.000], [0, 0, 0, 0], [ 9E9, 9E9, 9E9, 9E9, 9E9, 9E9] ], v30, fine, pen\WObj:=platform;
    MoveL [ [-2.684, 2.722, 49.878], [0.034, 0.811, -0.584, 0.000], [0, 0, 0, 0], [ 9E9, 9E9, 9E9, 9E9, 9E9, 9E9] ], v1000, fine, pen\WObj:=platform;
    
    !!-4.523740096225032, 0.005199999999999649;
    MoveL [ [-2.667, 2.737, 49.881], [0.033, 0.827, -0.562, 0.000], [0, 0, 0, 0], [ 9E9, 9E9, 9E9, 9E9, 9E9, 9E9] ], v1000, fine, pen\WObj:=platform;
    MoveL [ [-4.524, 0.005, -0.010], [0.033, 0.827, -0.562, 0.000], [0, 0, 0, 0], [ 9E9, 9E9, 9E9, 9E9, 9E9, 9E9] ], v30, fine, pen\WObj:=platform;
    MoveL [ [-2.667, 2.737, 49.881], [0.033, 0.827, -0.562, 0.000], [0, 0, 0, 0], [ 9E9, 9E9, 9E9, 9E9, 9E9, 9E9] ], v1000, fine, pen\WObj:=platform;
    
    !!-4.4066534616333755, 0.005199999999999649;
    MoveL [ [-2.650, 2.752, 49.884], [0.033, 0.842, -0.538, 0.000], [0, 0, 0, 0], [ 9E9, 9E9, 9E9, 9E9, 9E9, 9E9] ], v1000, fine, pen\WObj:=platform;
    MoveL [ [-4.407, 0.005, -0.010], [0.033, 0.842, -0.538, 0.000], [0, 0, 0, 0], [ 9E9, 9E9, 9E9, 9E9, 9E9, 9E9] ], v30, fine, pen\WObj:=platform;
    MoveL [ [-2.650, 2.752, 49.884], [0.033, 0.842, -0.538, 0.000], [0, 0, 0, 0], [ 9E9, 9E9, 9E9, 9E9, 9E9, 9E9] ], v1000, fine, pen\WObj:=platform;
    
    !!-4.289566827041719, 0.005199999999999649;
    MoveL [ [-2.633, 2.768, 49.886], [0.032, 0.857, -0.514, 0.000], [0, 0, 0, 0], [ 9E9, 9E9, 9E9, 9E9, 9E9, 9E9] ], v1000, fine, pen\WObj:=platform;
    MoveL [ [-4.290, 0.005, -0.010], [0.032, 0.857, -0.514, 0.000], [0, 0, 0, 0], [ 9E9, 9E9, 9E9, 9E9, 9E9, 9E9] ], v30, fine, pen\WObj:=platform;
    MoveL [ [-2.633, 2.768, 49.886], [0.032, 0.857, -0.514, 0.000], [0, 0, 0, 0], [ 9E9, 9E9, 9E9, 9E9, 9E9, 9E9] ], v1000, fine, pen\WObj:=platform;
    
    !!-4.172480192450063, 0.005199999999999649;
    MoveL [ [-2.617, 2.783, 49.889], [0.032, 0.872, -0.488, 0.000], [0, 0, 0, 0], [ 9E9, 9E9, 9E9, 9E9, 9E9, 9E9] ], v1000, fine, pen\WObj:=platform;
    MoveL [ [-4.172, 0.005, -0.010], [0.032, 0.872, -0.488, 0.000], [0, 0, 0, 0], [ 9E9, 9E9, 9E9, 9E9, 9E9, 9E9] ], v30, fine, pen\WObj:=platform;
    MoveL [ [-2.617, 2.783, 49.889], [0.032, 0.872, -0.488, 0.000], [0, 0, 0, 0], [ 9E9, 9E9, 9E9, 9E9, 9E9, 9E9] ], v1000, fine, pen\WObj:=platform;
    
    !!-4.055393557858408, 0.005199999999999649;
    MoveL [ [-2.600, 2.798, 49.891], [0.032, 0.886, -0.462, 0.000], [0, 0, 0, 0], [ 9E9, 9E9, 9E9, 9E9, 9E9, 9E9] ], v1000, fine, pen\WObj:=platform;
    MoveL [ [-4.055, 0.005, -0.010], [0.032, 0.886, -0.462, 0.000], [0, 0, 0, 0], [ 9E9, 9E9, 9E9, 9E9, 9E9, 9E9] ], v30, fine, pen\WObj:=platform;
    MoveL [ [-2.600, 2.798, 49.891], [0.032, 0.886, -0.462, 0.000], [0, 0, 0, 0], [ 9E9, 9E9, 9E9, 9E9, 9E9, 9E9] ], v1000, fine, pen\WObj:=platform;
    
    !!-3.938306923266751, 0.005199999999999649;
    MoveL [ [-2.583, 2.814, 49.893], [0.031, 0.900, -0.435, 0.000], [0, 0, 0, 0], [ 9E9, 9E9, 9E9, 9E9, 9E9, 9E9] ], v1000, fine, pen\WObj:=platform;
    MoveL [ [-3.938, 0.005, -0.010], [0.031, 0.900, -0.435, 0.000], [0, 0, 0, 0], [ 9E9, 9E9, 9E9, 9E9, 9E9, 9E9] ], v30, fine, pen\WObj:=platform;
    MoveL [ [-2.583, 2.814, 49.893], [0.031, 0.900, -0.435, 0.000], [0, 0, 0, 0], [ 9E9, 9E9, 9E9, 9E9, 9E9, 9E9] ], v1000, fine, pen\WObj:=platform;
    
    !!-3.8212202886750957, 0.005199999999999649;
    MoveL [ [-2.565, 2.829, 49.894], [0.031, 0.913, -0.406, 0.000], [0, 0, 0, 0], [ 9E9, 9E9, 9E9, 9E9, 9E9, 9E9] ], v1000, fine, pen\WObj:=platform;
    MoveL [ [-3.821, 0.005, -0.010], [0.031, 0.913, -0.406, 0.000], [0, 0, 0, 0], [ 9E9, 9E9, 9E9, 9E9, 9E9, 9E9] ], v30, fine, pen\WObj:=platform;
    MoveL [ [-2.565, 2.829, 49.894], [0.031, 0.913, -0.406, 0.000], [0, 0, 0, 0], [ 9E9, 9E9, 9E9, 9E9, 9E9, 9E9] ], v1000, fine, pen\WObj:=platform;
    
    !!-3.7041336540834395, 0.005199999999999649;
    MoveL [ [-2.548, 2.844, 49.896], [0.031, 0.926, -0.377, 0.000], [0, 0, 0, 0], [ 9E9, 9E9, 9E9, 9E9, 9E9, 9E9] ], v1000, fine, pen\WObj:=platform;
    MoveL [ [-3.704, 0.005, -0.010], [0.031, 0.926, -0.377, 0.000], [0, 0, 0, 0], [ 9E9, 9E9, 9E9, 9E9, 9E9, 9E9] ], v30, fine, pen\WObj:=platform;
    MoveL [ [-2.548, 2.844, 49.896], [0.031, 0.926, -0.377, 0.000], [0, 0, 0, 0], [ 9E9, 9E9, 9E9, 9E9, 9E9, 9E9] ], v1000, fine, pen\WObj:=platform;
    
    !!-3.587047019491783, 0.005199999999999649;
    MoveL [ [0.938, 3.883, 49.634], [0.060, 0.650, -0.758, 0.000], [0, 0, 0, 0], [ 9E9, 9E9, 9E9, 9E9, 9E9, 9E9] ], v1000, fine, pen\WObj:=platform;
    MoveL [ [-3.587, 0.005, -0.010], [0.060, 0.650, -0.758, 0.000], [0, 0, 0, 0], [ 9E9, 9E9, 9E9, 9E9, 9E9, 9E9] ], v30, fine, pen\WObj:=platform;
    MoveL [ [0.938, 3.883, 49.634], [0.060, 0.650, -0.758, 0.000], [0, 0, 0, 0], [ 9E9, 9E9, 9E9, 9E9, 9E9, 9E9] ], v1000, fine, pen\WObj:=platform;
    
    !!-3.4699603849001273, 0.005199999999999649;
    MoveL [ [0.956, 3.904, 49.641], [0.059, 0.660, -0.749, 0.000], [0, 0, 0, 0], [ 9E9, 9E9, 9E9, 9E9, 9E9, 9E9] ], v1000, fine, pen\WObj:=platform;
    MoveL [ [-3.470, 0.005, -0.010], [0.059, 0.660, -0.749, 0.000], [0, 0, 0, 0], [ 9E9, 9E9, 9E9, 9E9, 9E9, 9E9] ], v30, fine, pen\WObj:=platform;
    MoveL [ [0.956, 3.904, 49.641], [0.059, 0.660, -0.749, 0.000], [0, 0, 0, 0], [ 9E9, 9E9, 9E9, 9E9, 9E9, 9E9] ], v1000, fine, pen\WObj:=platform;
    
    !!-3.352873750308471, 0.005199999999999649;
    MoveL [ [5.334, 5.307, 48.943], [0.102, 0.518, -0.849, 0.000], [0, 0, 0, 0], [ 9E9, 9E9, 9E9, 9E9, 9E9, 9E9] ], v1000, fine, pen\WObj:=platform;
    MoveL [ [-3.353, 0.005, -0.010], [0.102, 0.518, -0.849, 0.000], [0, 0, 0, 0], [ 9E9, 9E9, 9E9, 9E9, 9E9, 9E9] ], v30, fine, pen\WObj:=platform;
    MoveL [ [5.334, 5.307, 48.943], [0.102, 0.518, -0.849, 0.000], [0, 0, 0, 0], [ 9E9, 9E9, 9E9, 9E9, 9E9, 9E9] ], v1000, fine, pen\WObj:=platform;
    
    !!-3.235787115716815, 0.005199999999999649;
    MoveL [ [0.992, 3.947, 49.655], [0.058, 0.681, -0.730, 0.000], [0, 0, 0, 0], [ 9E9, 9E9, 9E9, 9E9, 9E9, 9E9] ], v1000, fine, pen\WObj:=platform;
    MoveL [ [-3.236, 0.005, -0.010], [0.058, 0.681, -0.730, 0.000], [0, 0, 0, 0], [ 9E9, 9E9, 9E9, 9E9, 9E9, 9E9] ], v30, fine, pen\WObj:=platform;
    MoveL [ [0.992, 3.947, 49.655], [0.058, 0.681, -0.730, 0.000], [0, 0, 0, 0], [ 9E9, 9E9, 9E9, 9E9, 9E9, 9E9] ], v1000, fine, pen\WObj:=platform;
    
    !!-3.118700481125159, 0.005199999999999649;
    MoveL [ [1.010, 3.969, 49.661], [0.057, 0.691, -0.720, 0.000], [0, 0, 0, 0], [ 9E9, 9E9, 9E9, 9E9, 9E9, 9E9] ], v1000, fine, pen\WObj:=platform;
    MoveL [ [-3.119, 0.005, -0.010], [0.057, 0.691, -0.720, 0.000], [0, 0, 0, 0], [ 9E9, 9E9, 9E9, 9E9, 9E9, 9E9] ], v30, fine, pen\WObj:=platform;
    MoveL [ [1.010, 3.969, 49.661], [0.057, 0.691, -0.720, 0.000], [0, 0, 0, 0], [ 9E9, 9E9, 9E9, 9E9, 9E9, 9E9] ], v1000, fine, pen\WObj:=platform;
    
    !!-3.0016138465335023, 0.005199999999999649;
    MoveL [ [1.028, 3.990, 49.668], [0.057, 0.702, -0.710, 0.000], [0, 0, 0, 0], [ 9E9, 9E9, 9E9, 9E9, 9E9, 9E9] ], v1000, fine, pen\WObj:=platform;
    MoveL [ [-3.002, 0.005, -0.010], [0.057, 0.702, -0.710, 0.000], [0, 0, 0, 0], [ 9E9, 9E9, 9E9, 9E9, 9E9, 9E9] ], v30, fine, pen\WObj:=platform;
    MoveL [ [1.028, 3.990, 49.668], [0.057, 0.702, -0.710, 0.000], [0, 0, 0, 0], [ 9E9, 9E9, 9E9, 9E9, 9E9, 9E9] ], v1000, fine, pen\WObj:=platform;
    
    !!-2.8845272119418466, 0.005199999999999649;
    MoveL [ [1.046, 4.012, 49.674], [0.056, 0.713, -0.699, 0.000], [0, 0, 0, 0], [ 9E9, 9E9, 9E9, 9E9, 9E9, 9E9] ], v1000, fine, pen\WObj:=platform;
    MoveL [ [-2.885, 0.005, -0.010], [0.056, 0.713, -0.699, 0.000], [0, 0, 0, 0], [ 9E9, 9E9, 9E9, 9E9, 9E9, 9E9] ], v30, fine, pen\WObj:=platform;
    MoveL [ [1.046, 4.012, 49.674], [0.056, 0.713, -0.699, 0.000], [0, 0, 0, 0], [ 9E9, 9E9, 9E9, 9E9, 9E9, 9E9] ], v1000, fine, pen\WObj:=platform;
    
    !!-2.7674405773501904, 0.005199999999999649;
    MoveL [ [-2.409, 2.966, 49.901], [0.030, 0.992, -0.120, 0.000], [0, 0, 0, 0], [ 9E9, 9E9, 9E9, 9E9, 9E9, 9E9] ], v1000, fine, pen\WObj:=platform;
    MoveL [ [-2.767, 0.005, -0.010], [0.030, 0.992, -0.120, 0.000], [0, 0, 0, 0], [ 9E9, 9E9, 9E9, 9E9, 9E9, 9E9] ], v30, fine, pen\WObj:=platform;
    MoveL [ [-2.409, 2.966, 49.901], [0.030, 0.992, -0.120, 0.000], [0, 0, 0, 0], [ 9E9, 9E9, 9E9, 9E9, 9E9, 9E9] ], v1000, fine, pen\WObj:=platform;
    
    !!-2.650353942758534, 0.005199999999999649;
    MoveL [ [-2.391, 2.982, 49.901], [0.030, 0.996, -0.087, 0.000], [0, 0, 0, 0], [ 9E9, 9E9, 9E9, 9E9, 9E9, 9E9] ], v1000, fine, pen\WObj:=platform;
    MoveL [ [-2.650, 0.005, -0.010], [0.030, 0.996, -0.087, 0.000], [0, 0, 0, 0], [ 9E9, 9E9, 9E9, 9E9, 9E9, 9E9] ], v30, fine, pen\WObj:=platform;
    MoveL [ [-2.391, 2.982, 49.901], [0.030, 0.996, -0.087, 0.000], [0, 0, 0, 0], [ 9E9, 9E9, 9E9, 9E9, 9E9, 9E9] ], v1000, fine, pen\WObj:=platform;
    
    !!-2.5332673081668777, 0.005199999999999649;
    MoveL [ [5.499, 5.532, 49.030], [0.098, 0.564, -0.820, 0.000], [0, 0, 0, 0], [ 9E9, 9E9, 9E9, 9E9, 9E9, 9E9] ], v1000, fine, pen\WObj:=platform;
    MoveL [ [-2.533, 0.005, -0.010], [0.098, 0.564, -0.820, 0.000], [0, 0, 0, 0], [ 9E9, 9E9, 9E9, 9E9, 9E9, 9E9] ], v30, fine, pen\WObj:=platform;
    MoveL [ [5.499, 5.532, 49.030], [0.098, 0.564, -0.820, 0.000], [0, 0, 0, 0], [ 9E9, 9E9, 9E9, 9E9, 9E9, 9E9] ], v1000, fine, pen\WObj:=platform;
    
    !!-2.4161806735752225, 0.005199999999999649;
    MoveL [ [5.522, 5.565, 49.042], [0.097, 0.571, -0.815, 0.000], [0, 0, 0, 0], [ 9E9, 9E9, 9E9, 9E9, 9E9, 9E9] ], v1000, fine, pen\WObj:=platform;
    MoveL [ [-2.416, 0.005, -0.010], [0.097, 0.571, -0.815, 0.000], [0, 0, 0, 0], [ 9E9, 9E9, 9E9, 9E9, 9E9, 9E9] ], v30, fine, pen\WObj:=platform;
    MoveL [ [5.522, 5.565, 49.042], [0.097, 0.571, -0.815, 0.000], [0, 0, 0, 0], [ 9E9, 9E9, 9E9, 9E9, 9E9, 9E9] ], v1000, fine, pen\WObj:=platform;
    
    !!-2.299094038983566, 0.005199999999999649;
    MoveL [ [5.546, 5.598, 49.053], [0.097, 0.578, -0.810, 0.000], [0, 0, 0, 0], [ 9E9, 9E9, 9E9, 9E9, 9E9, 9E9] ], v1000, fine, pen\WObj:=platform;
    MoveL [ [-2.299, 0.005, -0.010], [0.097, 0.578, -0.810, 0.000], [0, 0, 0, 0], [ 9E9, 9E9, 9E9, 9E9, 9E9, 9E9] ], v30, fine, pen\WObj:=platform;
    MoveL [ [5.546, 5.598, 49.053], [0.097, 0.578, -0.810, 0.000], [0, 0, 0, 0], [ 9E9, 9E9, 9E9, 9E9, 9E9, 9E9] ], v1000, fine, pen\WObj:=platform;
    
    !!-2.1820074043919098, 0.005199999999999649;
    MoveL [ [5.569, 5.630, 49.064], [0.096, 0.585, -0.806, 0.000], [0, 0, 0, 0], [ 9E9, 9E9, 9E9, 9E9, 9E9, 9E9] ], v1000, fine, pen\WObj:=platform;
    MoveL [ [-2.182, 0.005, -0.010], [0.096, 0.585, -0.806, 0.000], [0, 0, 0, 0], [ 9E9, 9E9, 9E9, 9E9, 9E9, 9E9] ], v30, fine, pen\WObj:=platform;
    MoveL [ [5.569, 5.630, 49.064], [0.096, 0.585, -0.806, 0.000], [0, 0, 0, 0], [ 9E9, 9E9, 9E9, 9E9, 9E9, 9E9] ], v1000, fine, pen\WObj:=platform;
    
    !!-2.064920769800253, 0.005199999999999649;
    MoveL [ [5.592, 5.663, 49.075], [0.096, 0.592, -0.801, 0.000], [0, 0, 0, 0], [ 9E9, 9E9, 9E9, 9E9, 9E9, 9E9] ], v1000, fine, pen\WObj:=platform;
    MoveL [ [-2.065, 0.005, -0.010], [0.096, 0.592, -0.801, 0.000], [0, 0, 0, 0], [ 9E9, 9E9, 9E9, 9E9, 9E9, 9E9] ], v30, fine, pen\WObj:=platform;
    MoveL [ [5.592, 5.663, 49.075], [0.096, 0.592, -0.801, 0.000], [0, 0, 0, 0], [ 9E9, 9E9, 9E9, 9E9, 9E9, 9E9] ], v1000, fine, pen\WObj:=platform;
    
    !!-1.9478341352085973, 0.005199999999999649;
    MoveL [ [5.615, 5.696, 49.086], [0.095, 0.599, -0.795, 0.000], [0, 0, 0, 0], [ 9E9, 9E9, 9E9, 9E9, 9E9, 9E9] ], v1000, fine, pen\WObj:=platform;
    MoveL [ [-1.948, 0.005, -0.010], [0.095, 0.599, -0.795, 0.000], [0, 0, 0, 0], [ 9E9, 9E9, 9E9, 9E9, 9E9, 9E9] ], v30, fine, pen\WObj:=platform;
    MoveL [ [5.615, 5.696, 49.086], [0.095, 0.599, -0.795, 0.000], [0, 0, 0, 0], [ 9E9, 9E9, 9E9, 9E9, 9E9, 9E9] ], v1000, fine, pen\WObj:=platform;
    
    !!-1.8307475006169414, 0.005199999999999649;
    MoveL [ [5.638, 5.729, 49.097], [0.095, 0.606, -0.790, 0.000], [0, 0, 0, 0], [ 9E9, 9E9, 9E9, 9E9, 9E9, 9E9] ], v1000, fine, pen\WObj:=platform;
    MoveL [ [-1.831, 0.005, -0.010], [0.095, 0.606, -0.790, 0.000], [0, 0, 0, 0], [ 9E9, 9E9, 9E9, 9E9, 9E9, 9E9] ], v30, fine, pen\WObj:=platform;
    MoveL [ [5.638, 5.729, 49.097], [0.095, 0.606, -0.790, 0.000], [0, 0, 0, 0], [ 9E9, 9E9, 9E9, 9E9, 9E9, 9E9] ], v1000, fine, pen\WObj:=platform;
    
    !!-1.7136608660252852, 0.005199999999999649;
    MoveL [ [5.661, 5.761, 49.107], [0.094, 0.613, -0.785, 0.000], [0, 0, 0, 0], [ 9E9, 9E9, 9E9, 9E9, 9E9, 9E9] ], v1000, fine, pen\WObj:=platform;
    MoveL [ [-1.714, 0.005, -0.010], [0.094, 0.613, -0.785, 0.000], [0, 0, 0, 0], [ 9E9, 9E9, 9E9, 9E9, 9E9, 9E9] ], v30, fine, pen\WObj:=platform;
    MoveL [ [5.661, 5.761, 49.107], [0.094, 0.613, -0.785, 0.000], [0, 0, 0, 0], [ 9E9, 9E9, 9E9, 9E9, 9E9, 9E9] ], v1000, fine, pen\WObj:=platform;
    
    !!-1.5965742314336293, 0.005199999999999649;
    MoveL [ [5.684, 5.794, 49.117], [0.093, 0.620, -0.779, 0.000], [0, 0, 0, 0], [ 9E9, 9E9, 9E9, 9E9, 9E9, 9E9] ], v1000, fine, pen\WObj:=platform;
    MoveL [ [-1.597, 0.005, -0.010], [0.093, 0.620, -0.779, 0.000], [0, 0, 0, 0], [ 9E9, 9E9, 9E9, 9E9, 9E9, 9E9] ], v30, fine, pen\WObj:=platform;
    MoveL [ [5.684, 5.794, 49.117], [0.093, 0.620, -0.779, 0.000], [0, 0, 0, 0], [ 9E9, 9E9, 9E9, 9E9, 9E9, 9E9] ], v1000, fine, pen\WObj:=platform;
    
    !!-1.479487596841973, 0.005199999999999649;
    MoveL [ [5.707, 5.827, 49.127], [0.093, 0.627, -0.774, 0.000], [0, 0, 0, 0], [ 9E9, 9E9, 9E9, 9E9, 9E9, 9E9] ], v1000, fine, pen\WObj:=platform;
    MoveL [ [-1.479, 0.005, -0.010], [0.093, 0.627, -0.774, 0.000], [0, 0, 0, 0], [ 9E9, 9E9, 9E9, 9E9, 9E9, 9E9] ], v30, fine, pen\WObj:=platform;
    MoveL [ [5.707, 5.827, 49.127], [0.093, 0.627, -0.774, 0.000], [0, 0, 0, 0], [ 9E9, 9E9, 9E9, 9E9, 9E9, 9E9] ], v1000, fine, pen\WObj:=platform;
    
    !!-1.3624009622503175, 0.005199999999999649;
    MoveL [ [5.730, 5.860, 49.137], [0.092, 0.634, -0.768, 0.000], [0, 0, 0, 0], [ 9E9, 9E9, 9E9, 9E9, 9E9, 9E9] ], v1000, fine, pen\WObj:=platform;
    MoveL [ [-1.362, 0.005, -0.010], [0.092, 0.634, -0.768, 0.000], [0, 0, 0, 0], [ 9E9, 9E9, 9E9, 9E9, 9E9, 9E9] ], v30, fine, pen\WObj:=platform;
    MoveL [ [5.730, 5.860, 49.137], [0.092, 0.634, -0.768, 0.000], [0, 0, 0, 0], [ 9E9, 9E9, 9E9, 9E9, 9E9, 9E9] ], v1000, fine, pen\WObj:=platform;
    
    !!-1.245314327658661, 0.005199999999999649;
    MoveL [ [5.753, 5.894, 49.146], [0.092, 0.641, -0.762, 0.000], [0, 0, 0, 0], [ 9E9, 9E9, 9E9, 9E9, 9E9, 9E9] ], v1000, fine, pen\WObj:=platform;
    MoveL [ [-1.245, 0.005, -0.010], [0.092, 0.641, -0.762, 0.000], [0, 0, 0, 0], [ 9E9, 9E9, 9E9, 9E9, 9E9, 9E9] ], v30, fine, pen\WObj:=platform;
    MoveL [ [5.753, 5.894, 49.146], [0.092, 0.641, -0.762, 0.000], [0, 0, 0, 0], [ 9E9, 9E9, 9E9, 9E9, 9E9, 9E9] ], v1000, fine, pen\WObj:=platform;
    
    !!-1.128227693067005, 0.005199999999999649;
    MoveL [ [1.317, 4.335, 49.742], [0.050, 0.870, -0.491, 0.000], [0, 0, 0, 0], [ 9E9, 9E9, 9E9, 9E9, 9E9, 9E9] ], v1000, fine, pen\WObj:=platform;
    MoveL [ [-1.128, 0.005, -0.010], [0.050, 0.870, -0.491, 0.000], [0, 0, 0, 0], [ 9E9, 9E9, 9E9, 9E9, 9E9, 9E9] ], v30, fine, pen\WObj:=platform;
    MoveL [ [1.317, 4.335, 49.742], [0.050, 0.870, -0.491, 0.000], [0, 0, 0, 0], [ 9E9, 9E9, 9E9, 9E9, 9E9, 9E9] ], v1000, fine, pen\WObj:=platform;
    
    !!-1.0111410584753484, 0.005199999999999649;
    MoveL [ [5.798, 5.960, 49.165], [0.091, 0.656, -0.750, 0.000], [0, 0, 0, 0], [ 9E9, 9E9, 9E9, 9E9, 9E9, 9E9] ], v1000, fine, pen\WObj:=platform;
    MoveL [ [-1.011, 0.005, -0.010], [0.091, 0.656, -0.750, 0.000], [0, 0, 0, 0], [ 9E9, 9E9, 9E9, 9E9, 9E9, 9E9] ], v30, fine, pen\WObj:=platform;
    MoveL [ [5.798, 5.960, 49.165], [0.091, 0.656, -0.750, 0.000], [0, 0, 0, 0], [ 9E9, 9E9, 9E9, 9E9, 9E9, 9E9] ], v1000, fine, pen\WObj:=platform;
    
    !!-0.8940544238836923, 0.005199999999999649;
    MoveL [ [5.821, 5.993, 49.174], [0.090, 0.663, -0.743, 0.000], [0, 0, 0, 0], [ 9E9, 9E9, 9E9, 9E9, 9E9, 9E9] ], v1000, fine, pen\WObj:=platform;
    MoveL [ [-0.894, 0.005, -0.010], [0.090, 0.663, -0.743, 0.000], [0, 0, 0, 0], [ 9E9, 9E9, 9E9, 9E9, 9E9, 9E9] ], v30, fine, pen\WObj:=platform;
    MoveL [ [5.821, 5.993, 49.174], [0.090, 0.663, -0.743, 0.000], [0, 0, 0, 0], [ 9E9, 9E9, 9E9, 9E9, 9E9, 9E9] ], v1000, fine, pen\WObj:=platform;
    
    !!-0.7769677892920364, 0.005199999999999649;
    MoveL [ [5.844, 6.027, 49.183], [0.090, 0.670, -0.737, 0.000], [0, 0, 0, 0], [ 9E9, 9E9, 9E9, 9E9, 9E9, 9E9] ], v1000, fine, pen\WObj:=platform;
    MoveL [ [-0.777, 0.005, -0.010], [0.090, 0.670, -0.737, 0.000], [0, 0, 0, 0], [ 9E9, 9E9, 9E9, 9E9, 9E9, 9E9] ], v30, fine, pen\WObj:=platform;
    MoveL [ [5.844, 6.027, 49.183], [0.090, 0.670, -0.737, 0.000], [0, 0, 0, 0], [ 9E9, 9E9, 9E9, 9E9, 9E9, 9E9] ], v1000, fine, pen\WObj:=platform;
    
    !!-0.6598811547003803, 0.005199999999999649;
    MoveL [ [5.866, 6.060, 49.191], [0.089, 0.677, -0.730, 0.000], [0, 0, 0, 0], [ 9E9, 9E9, 9E9, 9E9, 9E9, 9E9] ], v1000, fine, pen\WObj:=platform;
    MoveL [ [-0.660, 0.005, -0.010], [0.089, 0.677, -0.730, 0.000], [0, 0, 0, 0], [ 9E9, 9E9, 9E9, 9E9, 9E9, 9E9] ], v30, fine, pen\WObj:=platform;
    MoveL [ [5.866, 6.060, 49.191], [0.089, 0.677, -0.730, 0.000], [0, 0, 0, 0], [ 9E9, 9E9, 9E9, 9E9, 9E9, 9E9] ], v1000, fine, pen\WObj:=platform;
    
    !!-0.5427945201087243, 0.005199999999999649;
    MoveL [ [5.888, 6.094, 49.199], [0.089, 0.685, -0.723, 0.000], [0, 0, 0, 0], [ 9E9, 9E9, 9E9, 9E9, 9E9, 9E9] ], v1000, fine, pen\WObj:=platform;
    MoveL [ [-0.543, 0.005, -0.010], [0.089, 0.685, -0.723, 0.000], [0, 0, 0, 0], [ 9E9, 9E9, 9E9, 9E9, 9E9, 9E9] ], v30, fine, pen\WObj:=platform;
    MoveL [ [5.888, 6.094, 49.199], [0.089, 0.685, -0.723, 0.000], [0, 0, 0, 0], [ 9E9, 9E9, 9E9, 9E9, 9E9, 9E9] ], v1000, fine, pen\WObj:=platform;
    
    !!-0.42570788551706784, 0.005199999999999649;
    MoveL [ [1.425, 4.464, 49.756], [0.048, 0.923, -0.383, 0.000], [0, 0, 0, 0], [ 9E9, 9E9, 9E9, 9E9, 9E9, 9E9] ], v1000, fine, pen\WObj:=platform;
    MoveL [ [-0.426, 0.005, -0.010], [0.048, 0.923, -0.383, 0.000], [0, 0, 0, 0], [ 9E9, 9E9, 9E9, 9E9, 9E9, 9E9] ], v30, fine, pen\WObj:=platform;
    MoveL [ [1.425, 4.464, 49.756], [0.048, 0.923, -0.383, 0.000], [0, 0, 0, 0], [ 9E9, 9E9, 9E9, 9E9, 9E9, 9E9] ], v1000, fine, pen\WObj:=platform;
    
    !!-0.3086212509254118, 0.005199999999999649;
    MoveL [ [-2.026, 3.283, 49.853], [0.037, 0.885, 0.464, 0.000], [0, 0, 0, 0], [ 9E9, 9E9, 9E9, 9E9, 9E9, 9E9] ], v1000, fine, pen\WObj:=platform;
    MoveL [ [-0.309, 0.005, -0.010], [0.037, 0.885, 0.464, 0.000], [0, 0, 0, 0], [ 9E9, 9E9, 9E9, 9E9, 9E9, 9E9] ], v30, fine, pen\WObj:=platform;
    MoveL [ [-2.026, 3.283, 49.853], [0.037, 0.885, 0.464, 0.000], [0, 0, 0, 0], [ 9E9, 9E9, 9E9, 9E9, 9E9, 9E9] ], v1000, fine, pen\WObj:=platform;
    
    !!-0.1915346163337553, 0.005199999999999649;
    MoveL [ [-2.007, 3.298, 49.848], [0.038, 0.875, 0.482, 0.000], [0, 0, 0, 0], [ 9E9, 9E9, 9E9, 9E9, 9E9, 9E9] ], v1000, fine, pen\WObj:=platform;
    MoveL [ [-0.192, 0.005, -0.010], [0.038, 0.875, 0.482, 0.000], [0, 0, 0, 0], [ 9E9, 9E9, 9E9, 9E9, 9E9, 9E9] ], v30, fine, pen\WObj:=platform;
    MoveL [ [-2.007, 3.298, 49.848], [0.038, 0.875, 0.482, 0.000], [0, 0, 0, 0], [ 9E9, 9E9, 9E9, 9E9, 9E9, 9E9] ], v1000, fine, pen\WObj:=platform;
    
    !!-0.07444798174209928, 0.005199999999999649;
    MoveL [ [-1.988, 3.313, 49.844], [0.038, 0.865, 0.500, 0.000], [0, 0, 0, 0], [ 9E9, 9E9, 9E9, 9E9, 9E9, 9E9] ], v1000, fine, pen\WObj:=platform;
    MoveL [ [-0.074, 0.005, -0.010], [0.038, 0.865, 0.500, 0.000], [0, 0, 0, 0], [ 9E9, 9E9, 9E9, 9E9, 9E9, 9E9] ], v30, fine, pen\WObj:=platform;
    MoveL [ [-1.988, 3.313, 49.844], [0.038, 0.865, 0.500, 0.000], [0, 0, 0, 0], [ 9E9, 9E9, 9E9, 9E9, 9E9, 9E9] ], v1000, fine, pen\WObj:=platform;
    
    !!0.04263865284955562, 0.005199999999999649;
    MoveL [ [-1.969, 3.328, 49.839], [0.039, 0.855, 0.518, 0.000], [0, 0, 0, 0], [ 9E9, 9E9, 9E9, 9E9, 9E9, 9E9] ], v1000, fine, pen\WObj:=platform;
    MoveL [ [0.043, 0.005, -0.010], [0.039, 0.855, 0.518, 0.000], [0, 0, 0, 0], [ 9E9, 9E9, 9E9, 9E9, 9E9, 9E9] ], v30, fine, pen\WObj:=platform;
    MoveL [ [-1.969, 3.328, 49.839], [0.039, 0.855, 0.518, 0.000], [0, 0, 0, 0], [ 9E9, 9E9, 9E9, 9E9, 9E9, 9E9] ], v1000, fine, pen\WObj:=platform;
    
    !!0.15972528744121217, 0.005199999999999649;
    MoveL [ [1.514, 4.572, 49.763], [0.048, 0.958, -0.284, 0.000], [0, 0, 0, 0], [ 9E9, 9E9, 9E9, 9E9, 9E9, 9E9] ], v1000, fine, pen\WObj:=platform;
    MoveL [ [0.160, 0.005, -0.010], [0.048, 0.958, -0.284, 0.000], [0, 0, 0, 0], [ 9E9, 9E9, 9E9, 9E9, 9E9, 9E9] ], v30, fine, pen\WObj:=platform;
    MoveL [ [1.514, 4.572, 49.763], [0.048, 0.958, -0.284, 0.000], [0, 0, 0, 0], [ 9E9, 9E9, 9E9, 9E9, 9E9, 9E9] ], v1000, fine, pen\WObj:=platform;
    
    !!0.2768119220328687, 0.005199999999999649;
    MoveL [ [1.532, 4.593, 49.763], [0.048, 0.963, -0.264, 0.000], [0, 0, 0, 0], [ 9E9, 9E9, 9E9, 9E9, 9E9, 9E9] ], v1000, fine, pen\WObj:=platform;
    MoveL [ [0.277, 0.005, -0.010], [0.048, 0.963, -0.264, 0.000], [0, 0, 0, 0], [ 9E9, 9E9, 9E9, 9E9, 9E9, 9E9] ], v30, fine, pen\WObj:=platform;
    MoveL [ [1.532, 4.593, 49.763], [0.048, 0.963, -0.264, 0.000], [0, 0, 0, 0], [ 9E9, 9E9, 9E9, 9E9, 9E9, 9E9] ], v1000, fine, pen\WObj:=platform;
    
    !!0.3938985566245252, 0.005199999999999649;
    MoveL [ [-1.912, 3.372, 49.823], [0.041, 0.824, 0.565, 0.000], [0, 0, 0, 0], [ 9E9, 9E9, 9E9, 9E9, 9E9, 9E9] ], v1000, fine, pen\WObj:=platform;
    MoveL [ [0.394, 0.005, -0.010], [0.041, 0.824, 0.565, 0.000], [0, 0, 0, 0], [ 9E9, 9E9, 9E9, 9E9, 9E9, 9E9] ], v30, fine, pen\WObj:=platform;
    MoveL [ [-1.912, 3.372, 49.823], [0.041, 0.824, 0.565, 0.000], [0, 0, 0, 0], [ 9E9, 9E9, 9E9, 9E9, 9E9, 9E9] ], v1000, fine, pen\WObj:=platform;
    
    !!0.5109851912161807, 0.005199999999999649;
    MoveL [ [-1.893, 3.387, 49.818], [0.042, 0.814, 0.579, 0.000], [0, 0, 0, 0], [ 9E9, 9E9, 9E9, 9E9, 9E9, 9E9] ], v1000, fine, pen\WObj:=platform;
    MoveL [ [0.511, 0.005, -0.010], [0.042, 0.814, 0.579, 0.000], [0, 0, 0, 0], [ 9E9, 9E9, 9E9, 9E9, 9E9, 9E9] ], v30, fine, pen\WObj:=platform;
    MoveL [ [-1.893, 3.387, 49.818], [0.042, 0.814, 0.579, 0.000], [0, 0, 0, 0], [ 9E9, 9E9, 9E9, 9E9, 9E9, 9E9] ], v1000, fine, pen\WObj:=platform;
    
    !!0.6280718258078372, 0.005199999999999649;
    MoveL [ [-1.874, 3.402, 49.812], [0.042, 0.804, 0.593, 0.000], [0, 0, 0, 0], [ 9E9, 9E9, 9E9, 9E9, 9E9, 9E9] ], v1000, fine, pen\WObj:=platform;
    MoveL [ [0.628, 0.005, -0.010], [0.042, 0.804, 0.593, 0.000], [0, 0, 0, 0], [ 9E9, 9E9, 9E9, 9E9, 9E9, 9E9] ], v30, fine, pen\WObj:=platform;
    MoveL [ [-1.874, 3.402, 49.812], [0.042, 0.804, 0.593, 0.000], [0, 0, 0, 0], [ 9E9, 9E9, 9E9, 9E9, 9E9, 9E9] ], v1000, fine, pen\WObj:=platform;
    
    !!0.7451584603994937, 0.005199999999999649;
    MoveL [ [-1.855, 3.417, 49.806], [0.043, 0.795, 0.606, 0.000], [0, 0, 0, 0], [ 9E9, 9E9, 9E9, 9E9, 9E9, 9E9] ], v1000, fine, pen\WObj:=platform;
    MoveL [ [0.745, 0.005, -0.010], [0.043, 0.795, 0.606, 0.000], [0, 0, 0, 0], [ 9E9, 9E9, 9E9, 9E9, 9E9, 9E9] ], v30, fine, pen\WObj:=platform;
    MoveL [ [-1.855, 3.417, 49.806], [0.043, 0.795, 0.606, 0.000], [0, 0, 0, 0], [ 9E9, 9E9, 9E9, 9E9, 9E9, 9E9] ], v1000, fine, pen\WObj:=platform;
    
    !!0.8622450949911492, 0.005199999999999649;
    MoveL [ [6.150, 6.499, 49.284], [0.084, 0.773, -0.629, 0.000], [0, 0, 0, 0], [ 9E9, 9E9, 9E9, 9E9, 9E9, 9E9] ], v1000, fine, pen\WObj:=platform;
    MoveL [ [0.862, 0.005, -0.010], [0.084, 0.773, -0.629, 0.000], [0, 0, 0, 0], [ 9E9, 9E9, 9E9, 9E9, 9E9, 9E9] ], v30, fine, pen\WObj:=platform;
    MoveL [ [6.150, 6.499, 49.284], [0.084, 0.773, -0.629, 0.000], [0, 0, 0, 0], [ 9E9, 9E9, 9E9, 9E9, 9E9, 9E9] ], v1000, fine, pen\WObj:=platform;
    
    !!0.9793317295828058, 0.005199999999999649;
    MoveL [ [-1.817, 3.446, 49.793], [0.044, 0.775, 0.630, 0.000], [0, 0, 0, 0], [ 9E9, 9E9, 9E9, 9E9, 9E9, 9E9] ], v1000, fine, pen\WObj:=platform;
    MoveL [ [0.979, 0.005, -0.010], [0.044, 0.775, 0.630, 0.000], [0, 0, 0, 0], [ 9E9, 9E9, 9E9, 9E9, 9E9, 9E9] ], v30, fine, pen\WObj:=platform;
    MoveL [ [-1.817, 3.446, 49.793], [0.044, 0.775, 0.630, 0.000], [0, 0, 0, 0], [ 9E9, 9E9, 9E9, 9E9, 9E9, 9E9] ], v1000, fine, pen\WObj:=platform;
    
    !!1.0964183641744611, 0.005199999999999649;
    MoveL [ [1.655, 4.743, 49.762], [0.048, 0.992, -0.117, 0.000], [0, 0, 0, 0], [ 9E9, 9E9, 9E9, 9E9, 9E9, 9E9] ], v1000, fine, pen\WObj:=platform;
    MoveL [ [1.096, 0.005, -0.010], [0.048, 0.992, -0.117, 0.000], [0, 0, 0, 0], [ 9E9, 9E9, 9E9, 9E9, 9E9, 9E9] ], v30, fine, pen\WObj:=platform;
    MoveL [ [1.655, 4.743, 49.762], [0.048, 0.992, -0.117, 0.000], [0, 0, 0, 0], [ 9E9, 9E9, 9E9, 9E9, 9E9, 9E9] ], v1000, fine, pen\WObj:=platform;
    
    !!1.2135049987661177, 0.005199999999999649;
    MoveL [ [1.672, 4.765, 49.761], [0.048, 0.994, -0.096, 0.000], [0, 0, 0, 0], [ 9E9, 9E9, 9E9, 9E9, 9E9, 9E9] ], v1000, fine, pen\WObj:=platform;
    MoveL [ [1.214, 0.005, -0.010], [0.048, 0.994, -0.096, 0.000], [0, 0, 0, 0], [ 9E9, 9E9, 9E9, 9E9, 9E9, 9E9] ], v30, fine, pen\WObj:=platform;
    MoveL [ [1.672, 4.765, 49.761], [0.048, 0.994, -0.096, 0.000], [0, 0, 0, 0], [ 9E9, 9E9, 9E9, 9E9, 9E9, 9E9] ], v1000, fine, pen\WObj:=platform;
    
    !!1.3305916333577734, 0.005199999999999649;
    MoveL [ [1.690, 4.786, 49.760], [0.048, 0.996, -0.075, 0.000], [0, 0, 0, 0], [ 9E9, 9E9, 9E9, 9E9, 9E9, 9E9] ], v1000, fine, pen\WObj:=platform;
    MoveL [ [1.331, 0.005, -0.010], [0.048, 0.996, -0.075, 0.000], [0, 0, 0, 0], [ 9E9, 9E9, 9E9, 9E9, 9E9, 9E9] ], v30, fine, pen\WObj:=platform;
    MoveL [ [1.690, 4.786, 49.760], [0.048, 0.996, -0.075, 0.000], [0, 0, 0, 0], [ 9E9, 9E9, 9E9, 9E9, 9E9, 9E9] ], v1000, fine, pen\WObj:=platform;
    
    !!1.4476782679494296, 0.005199999999999649;
    MoveL [ [-1.740, 3.504, 49.765], [0.047, 0.738, 0.673, 0.000], [0, 0, 0, 0], [ 9E9, 9E9, 9E9, 9E9, 9E9, 9E9] ], v1000, fine, pen\WObj:=platform;
    MoveL [ [1.448, 0.005, -0.010], [0.047, 0.738, 0.673, 0.000], [0, 0, 0, 0], [ 9E9, 9E9, 9E9, 9E9, 9E9, 9E9] ], v30, fine, pen\WObj:=platform;
    MoveL [ [-1.740, 3.504, 49.765], [0.047, 0.738, 0.673, 0.000], [0, 0, 0, 0], [ 9E9, 9E9, 9E9, 9E9, 9E9, 9E9] ], v1000, fine, pen\WObj:=platform;
    
    !!1.5647649025410861, 0.005199999999999649;
    MoveL [ [-1.721, 3.519, 49.758], [0.048, 0.730, 0.682, 0.000], [0, 0, 0, 0], [ 9E9, 9E9, 9E9, 9E9, 9E9, 9E9] ], v1000, fine, pen\WObj:=platform;
    MoveL [ [1.565, 0.005, -0.010], [0.048, 0.730, 0.682, 0.000], [0, 0, 0, 0], [ 9E9, 9E9, 9E9, 9E9, 9E9, 9E9] ], v30, fine, pen\WObj:=platform;
    MoveL [ [-1.721, 3.519, 49.758], [0.048, 0.730, 0.682, 0.000], [0, 0, 0, 0], [ 9E9, 9E9, 9E9, 9E9, 9E9, 9E9] ], v1000, fine, pen\WObj:=platform;
    
    !!1.6818515371327416, 0.005199999999999649;
    MoveL [ [-1.701, 3.533, 49.750], [0.049, 0.721, 0.691, 0.000], [0, 0, 0, 0], [ 9E9, 9E9, 9E9, 9E9, 9E9, 9E9] ], v1000, fine, pen\WObj:=platform;
    MoveL [ [1.682, 0.005, -0.010], [0.049, 0.721, 0.691, 0.000], [0, 0, 0, 0], [ 9E9, 9E9, 9E9, 9E9, 9E9, 9E9] ], v30, fine, pen\WObj:=platform;
    MoveL [ [-1.701, 3.533, 49.750], [0.049, 0.721, 0.691, 0.000], [0, 0, 0, 0], [ 9E9, 9E9, 9E9, 9E9, 9E9, 9E9] ], v1000, fine, pen\WObj:=platform;
    
    !!1.7989381717243982, 0.005199999999999649;
    MoveL [ [-1.682, 3.548, 49.743], [0.050, 0.712, 0.700, 0.000], [0, 0, 0, 0], [ 9E9, 9E9, 9E9, 9E9, 9E9, 9E9] ], v1000, fine, pen\WObj:=platform;
    MoveL [ [1.799, 0.005, -0.010], [0.050, 0.712, 0.700, 0.000], [0, 0, 0, 0], [ 9E9, 9E9, 9E9, 9E9, 9E9, 9E9] ], v30, fine, pen\WObj:=platform;
    MoveL [ [-1.682, 3.548, 49.743], [0.050, 0.712, 0.700, 0.000], [0, 0, 0, 0], [ 9E9, 9E9, 9E9, 9E9, 9E9, 9E9] ], v1000, fine, pen\WObj:=platform;
    
    !!1.9160248063160548, 0.005199999999999649;
    MoveL [ [-1.663, 3.562, 49.735], [0.051, 0.704, 0.708, 0.000], [0, 0, 0, 0], [ 9E9, 9E9, 9E9, 9E9, 9E9, 9E9] ], v1000, fine, pen\WObj:=platform;
    MoveL [ [1.916, 0.005, -0.010], [0.051, 0.704, 0.708, 0.000], [0, 0, 0, 0], [ 9E9, 9E9, 9E9, 9E9, 9E9, 9E9] ], v30, fine, pen\WObj:=platform;
    MoveL [ [-1.663, 3.562, 49.735], [0.051, 0.704, 0.708, 0.000], [0, 0, 0, 0], [ 9E9, 9E9, 9E9, 9E9, 9E9, 9E9] ], v1000, fine, pen\WObj:=platform;
    
    !!2.0331114409077116, 0.005199999999999649;
    MoveL [ [-1.643, 3.577, 49.727], [0.051, 0.696, 0.716, 0.000], [0, 0, 0, 0], [ 9E9, 9E9, 9E9, 9E9, 9E9, 9E9] ], v1000, fine, pen\WObj:=platform;
    MoveL [ [2.033, 0.005, -0.010], [0.051, 0.696, 0.716, 0.000], [0, 0, 0, 0], [ 9E9, 9E9, 9E9, 9E9, 9E9, 9E9] ], v30, fine, pen\WObj:=platform;
    MoveL [ [-1.643, 3.577, 49.727], [0.051, 0.696, 0.716, 0.000], [0, 0, 0, 0], [ 9E9, 9E9, 9E9, 9E9, 9E9, 9E9] ], v1000, fine, pen\WObj:=platform;
    
    !!2.150198075499366, 0.005199999999999649;
    MoveL [ [-1.624, 3.591, 49.718], [0.052, 0.688, 0.724, 0.000], [0, 0, 0, 0], [ 9E9, 9E9, 9E9, 9E9, 9E9, 9E9] ], v1000, fine, pen\WObj:=platform;
    MoveL [ [2.150, 0.005, -0.010], [0.052, 0.688, 0.724, 0.000], [0, 0, 0, 0], [ 9E9, 9E9, 9E9, 9E9, 9E9, 9E9] ], v30, fine, pen\WObj:=platform;
    MoveL [ [-1.624, 3.591, 49.718], [0.052, 0.688, 0.724, 0.000], [0, 0, 0, 0], [ 9E9, 9E9, 9E9, 9E9, 9E9, 9E9] ], v1000, fine, pen\WObj:=platform;
    
    !!2.2672847100910225, 0.005199999999999649;
    MoveL [ [-1.604, 3.606, 49.710], [0.053, 0.680, 0.731, 0.000], [0, 0, 0, 0], [ 9E9, 9E9, 9E9, 9E9, 9E9, 9E9] ], v1000, fine, pen\WObj:=platform;
    MoveL [ [2.267, 0.005, -0.010], [0.053, 0.680, 0.731, 0.000], [0, 0, 0, 0], [ 9E9, 9E9, 9E9, 9E9, 9E9, 9E9] ], v30, fine, pen\WObj:=platform;
    MoveL [ [-1.604, 3.606, 49.710], [0.053, 0.680, 0.731, 0.000], [0, 0, 0, 0], [ 9E9, 9E9, 9E9, 9E9, 9E9, 9E9] ], v1000, fine, pen\WObj:=platform;
    
    !!2.3843713446826786, 0.005199999999999649;
    MoveL [ [-1.585, 3.620, 49.701], [0.054, 0.672, 0.738, 0.000], [0, 0, 0, 0], [ 9E9, 9E9, 9E9, 9E9, 9E9, 9E9] ], v1000, fine, pen\WObj:=platform;
    MoveL [ [2.384, 0.005, -0.010], [0.054, 0.672, 0.738, 0.000], [0, 0, 0, 0], [ 9E9, 9E9, 9E9, 9E9, 9E9, 9E9] ], v30, fine, pen\WObj:=platform;
    MoveL [ [-1.585, 3.620, 49.701], [0.054, 0.672, 0.738, 0.000], [0, 0, 0, 0], [ 9E9, 9E9, 9E9, 9E9, 9E9, 9E9] ], v1000, fine, pen\WObj:=platform;
    
    !!2.501457979274335, 0.005199999999999649;
    MoveL [ [-1.565, 3.634, 49.692], [0.055, 0.665, 0.745, 0.000], [0, 0, 0, 0], [ 9E9, 9E9, 9E9, 9E9, 9E9, 9E9] ], v1000, fine, pen\WObj:=platform;
    MoveL [ [2.501, 0.005, -0.010], [0.055, 0.665, 0.745, 0.000], [0, 0, 0, 0], [ 9E9, 9E9, 9E9, 9E9, 9E9, 9E9] ], v30, fine, pen\WObj:=platform;
    MoveL [ [-1.565, 3.634, 49.692], [0.055, 0.665, 0.745, 0.000], [0, 0, 0, 0], [ 9E9, 9E9, 9E9, 9E9, 9E9, 9E9] ], v1000, fine, pen\WObj:=platform;
    
    !!2.618544613865991, 0.005199999999999649;
    MoveL [ [4.297, -19.328, 46.071], [0.198, -0.977, -0.085, 0.000], [0, 0, 0, 0], [ 9E9, 9E9, 9E9, 9E9, 9E9, 9E9] ], v1000, fine, pen\WObj:=platform;
    MoveL [ [2.619, 0.005, -0.010], [0.198, -0.977, -0.085, 0.000], [0, 0, 0, 0], [ 9E9, 9E9, 9E9, 9E9, 9E9, 9E9] ], v30, fine, pen\WObj:=platform;
    MoveL [ [4.297, -19.328, 46.071], [0.198, -0.977, -0.085, 0.000], [0, 0, 0, 0], [ 9E9, 9E9, 9E9, 9E9, 9E9, 9E9] ], v1000, fine, pen\WObj:=platform;
    
    !!2.735631248457647, 0.005199999999999649;
    MoveL [ [-1.526, 3.663, 49.674], [0.056, 0.650, 0.758, 0.000], [0, 0, 0, 0], [ 9E9, 9E9, 9E9, 9E9, 9E9, 9E9] ], v1000, fine, pen\WObj:=platform;
    MoveL [ [2.736, 0.005, -0.010], [0.056, 0.650, 0.758, 0.000], [0, 0, 0, 0], [ 9E9, 9E9, 9E9, 9E9, 9E9, 9E9] ], v30, fine, pen\WObj:=platform;
    MoveL [ [-1.526, 3.663, 49.674], [0.056, 0.650, 0.758, 0.000], [0, 0, 0, 0], [ 9E9, 9E9, 9E9, 9E9, 9E9, 9E9] ], v1000, fine, pen\WObj:=platform;
    
    !!2.852717883049304, 0.005199999999999649;
    MoveL [ [-1.506, 3.677, 49.664], [0.057, 0.643, 0.764, 0.000], [0, 0, 0, 0], [ 9E9, 9E9, 9E9, 9E9, 9E9, 9E9] ], v1000, fine, pen\WObj:=platform;
    MoveL [ [2.853, 0.005, -0.010], [0.057, 0.643, 0.764, 0.000], [0, 0, 0, 0], [ 9E9, 9E9, 9E9, 9E9, 9E9, 9E9] ], v30, fine, pen\WObj:=platform;
    MoveL [ [-1.506, 3.677, 49.664], [0.057, 0.643, 0.764, 0.000], [0, 0, 0, 0], [ 9E9, 9E9, 9E9, 9E9, 9E9, 9E9] ], v1000, fine, pen\WObj:=platform;
    
    !!2.9698045176409593, 0.005199999999999649;
    MoveL [ [-1.487, 3.691, 49.654], [0.058, 0.636, 0.769, 0.000], [0, 0, 0, 0], [ 9E9, 9E9, 9E9, 9E9, 9E9, 9E9] ], v1000, fine, pen\WObj:=platform;
    MoveL [ [2.970, 0.005, -0.010], [0.058, 0.636, 0.769, 0.000], [0, 0, 0, 0], [ 9E9, 9E9, 9E9, 9E9, 9E9, 9E9] ], v30, fine, pen\WObj:=platform;
    MoveL [ [-1.487, 3.691, 49.654], [0.058, 0.636, 0.769, 0.000], [0, 0, 0, 0], [ 9E9, 9E9, 9E9, 9E9, 9E9, 9E9] ], v1000, fine, pen\WObj:=platform;
    
    !!3.086891152232616, 0.005199999999999649;
    MoveL [ [-1.467, 3.705, 49.645], [0.059, 0.629, 0.775, 0.000], [0, 0, 0, 0], [ 9E9, 9E9, 9E9, 9E9, 9E9, 9E9] ], v1000, fine, pen\WObj:=platform;
    MoveL [ [3.087, 0.005, -0.010], [0.059, 0.629, 0.775, 0.000], [0, 0, 0, 0], [ 9E9, 9E9, 9E9, 9E9, 9E9, 9E9] ], v30, fine, pen\WObj:=platform;
    MoveL [ [-1.467, 3.705, 49.645], [0.059, 0.629, 0.775, 0.000], [0, 0, 0, 0], [ 9E9, 9E9, 9E9, 9E9, 9E9, 9E9] ], v1000, fine, pen\WObj:=platform;
    
    !!3.2039777868242716, 0.005199999999999649;
    MoveL [ [-1.447, 3.719, 49.634], [0.060, 0.623, 0.780, 0.000], [0, 0, 0, 0], [ 9E9, 9E9, 9E9, 9E9, 9E9, 9E9] ], v1000, fine, pen\WObj:=platform;
    MoveL [ [3.204, 0.005, -0.010], [0.060, 0.623, 0.780, 0.000], [0, 0, 0, 0], [ 9E9, 9E9, 9E9, 9E9, 9E9, 9E9] ], v30, fine, pen\WObj:=platform;
    MoveL [ [-1.447, 3.719, 49.634], [0.060, 0.623, 0.780, 0.000], [0, 0, 0, 0], [ 9E9, 9E9, 9E9, 9E9, 9E9, 9E9] ], v1000, fine, pen\WObj:=platform;
    
    !!3.3210644214159277, 0.005199999999999649;
    MoveL [ [-1.428, 3.733, 49.624], [0.060, 0.616, 0.785, 0.000], [0, 0, 0, 0], [ 9E9, 9E9, 9E9, 9E9, 9E9, 9E9] ], v1000, fine, pen\WObj:=platform;
    MoveL [ [3.321, 0.005, -0.010], [0.060, 0.616, 0.785, 0.000], [0, 0, 0, 0], [ 9E9, 9E9, 9E9, 9E9, 9E9, 9E9] ], v30, fine, pen\WObj:=platform;
    MoveL [ [-1.428, 3.733, 49.624], [0.060, 0.616, 0.785, 0.000], [0, 0, 0, 0], [ 9E9, 9E9, 9E9, 9E9, 9E9, 9E9] ], v1000, fine, pen\WObj:=platform;
    
    !!3.4381510560075834, 0.005199999999999649;
    MoveL [ [-1.408, 3.747, 49.614], [0.061, 0.610, 0.790, 0.000], [0, 0, 0, 0], [ 9E9, 9E9, 9E9, 9E9, 9E9, 9E9] ], v1000, fine, pen\WObj:=platform;
    MoveL [ [3.438, 0.005, -0.010], [0.061, 0.610, 0.790, 0.000], [0, 0, 0, 0], [ 9E9, 9E9, 9E9, 9E9, 9E9, 9E9] ], v30, fine, pen\WObj:=platform;
    MoveL [ [-1.408, 3.747, 49.614], [0.061, 0.610, 0.790, 0.000], [0, 0, 0, 0], [ 9E9, 9E9, 9E9, 9E9, 9E9, 9E9] ], v1000, fine, pen\WObj:=platform;
    
    !!3.55523769059924, 0.005199999999999649;
    MoveL [ [-1.388, 3.761, 49.603], [0.062, 0.604, 0.795, 0.000], [0, 0, 0, 0], [ 9E9, 9E9, 9E9, 9E9, 9E9, 9E9] ], v1000, fine, pen\WObj:=platform;
    MoveL [ [3.555, 0.005, -0.010], [0.062, 0.604, 0.795, 0.000], [0, 0, 0, 0], [ 9E9, 9E9, 9E9, 9E9, 9E9, 9E9] ], v30, fine, pen\WObj:=platform;
    MoveL [ [-1.388, 3.761, 49.603], [0.062, 0.604, 0.795, 0.000], [0, 0, 0, 0], [ 9E9, 9E9, 9E9, 9E9, 9E9, 9E9] ], v1000, fine, pen\WObj:=platform;
    
    !!3.6723243251908966, 0.005199999999999649;
    MoveL [ [-1.369, 3.775, 49.592], [0.063, 0.598, 0.799, 0.000], [0, 0, 0, 0], [ 9E9, 9E9, 9E9, 9E9, 9E9, 9E9] ], v1000, fine, pen\WObj:=platform;
    MoveL [ [3.672, 0.005, -0.010], [0.063, 0.598, 0.799, 0.000], [0, 0, 0, 0], [ 9E9, 9E9, 9E9, 9E9, 9E9, 9E9] ], v30, fine, pen\WObj:=platform;
    MoveL [ [-1.369, 3.775, 49.592], [0.063, 0.598, 0.799, 0.000], [0, 0, 0, 0], [ 9E9, 9E9, 9E9, 9E9, 9E9, 9E9] ], v1000, fine, pen\WObj:=platform;
    
    !!3.7894109597825514, 0.005199999999999649;
    MoveL [ [4.447, -19.659, 45.956], [0.201, -0.979, -0.033, 0.000], [0, 0, 0, 0], [ 9E9, 9E9, 9E9, 9E9, 9E9, 9E9] ], v1000, fine, pen\WObj:=platform;
    MoveL [ [3.789, 0.005, -0.010], [0.201, -0.979, -0.033, 0.000], [0, 0, 0, 0], [ 9E9, 9E9, 9E9, 9E9, 9E9, 9E9] ], v30, fine, pen\WObj:=platform;
    MoveL [ [4.447, -19.659, 45.956], [0.201, -0.979, -0.033, 0.000], [0, 0, 0, 0], [ 9E9, 9E9, 9E9, 9E9, 9E9, 9E9] ], v1000, fine, pen\WObj:=platform;
    
    !!3.906497594374208, 0.005199999999999649;
    MoveL [ [-3.812, 2.793, 49.312], [0.082, 0.339, 0.937, 0.000], [0, 0, 0, 0], [ 9E9, 9E9, 9E9, 9E9, 9E9, 9E9] ], v1000, fine, pen\WObj:=platform;
    MoveL [ [3.906, 0.005, -0.010], [0.082, 0.339, 0.937, 0.000], [0, 0, 0, 0], [ 9E9, 9E9, 9E9, 9E9, 9E9, 9E9] ], v30, fine, pen\WObj:=platform;
    MoveL [ [-3.812, 2.793, 49.312], [0.082, 0.339, 0.937, 0.000], [0, 0, 0, 0], [ 9E9, 9E9, 9E9, 9E9, 9E9, 9E9] ], v1000, fine, pen\WObj:=platform;
    
    !!4.0235842289658645, 0.005199999999999649;
    MoveL [ [-3.787, 2.803, 49.297], [0.083, 0.336, 0.938, 0.000], [0, 0, 0, 0], [ 9E9, 9E9, 9E9, 9E9, 9E9, 9E9] ], v1000, fine, pen\WObj:=platform;
    MoveL [ [4.024, 0.005, -0.010], [0.083, 0.336, 0.938, 0.000], [0, 0, 0, 0], [ 9E9, 9E9, 9E9, 9E9, 9E9, 9E9] ], v30, fine, pen\WObj:=platform;
    MoveL [ [-3.787, 2.803, 49.297], [0.083, 0.336, 0.938, 0.000], [0, 0, 0, 0], [ 9E9, 9E9, 9E9, 9E9, 9E9, 9E9] ], v1000, fine, pen\WObj:=platform;
    
    !!4.140670863557522, 0.005199999999999649;
    MoveL [ [4.490, -19.757, 45.917], [0.202, -0.979, -0.017, 0.000], [0, 0, 0, 0], [ 9E9, 9E9, 9E9, 9E9, 9E9, 9E9] ], v1000, fine, pen\WObj:=platform;
    MoveL [ [4.141, 0.005, -0.010], [0.202, -0.979, -0.017, 0.000], [0, 0, 0, 0], [ 9E9, 9E9, 9E9, 9E9, 9E9, 9E9] ], v30, fine, pen\WObj:=platform;
    MoveL [ [4.490, -19.757, 45.917], [0.202, -0.979, -0.017, 0.000], [0, 0, 0, 0], [ 9E9, 9E9, 9E9, 9E9, 9E9, 9E9] ], v1000, fine, pen\WObj:=platform;
    
    !!4.257757498149177, 0.005199999999999649;
    MoveL [ [-3.737, 2.824, 49.266], [0.085, 0.331, 0.940, 0.000], [0, 0, 0, 0], [ 9E9, 9E9, 9E9, 9E9, 9E9, 9E9] ], v1000, fine, pen\WObj:=platform;
    MoveL [ [4.258, 0.005, -0.010], [0.085, 0.331, 0.940, 0.000], [0, 0, 0, 0], [ 9E9, 9E9, 9E9, 9E9, 9E9, 9E9] ], v30, fine, pen\WObj:=platform;
    MoveL [ [-3.737, 2.824, 49.266], [0.085, 0.331, 0.940, 0.000], [0, 0, 0, 0], [ 9E9, 9E9, 9E9, 9E9, 9E9, 9E9] ], v1000, fine, pen\WObj:=platform;
    
    !!4.374844132740833, 0.005199999999999649;
    MoveL [ [-1.250, 3.858, 49.523], [0.068, 0.564, 0.823, 0.000], [0, 0, 0, 0], [ 9E9, 9E9, 9E9, 9E9, 9E9, 9E9] ], v1000, fine, pen\WObj:=platform;
    MoveL [ [4.375, 0.005, -0.010], [0.068, 0.564, 0.823, 0.000], [0, 0, 0, 0], [ 9E9, 9E9, 9E9, 9E9, 9E9, 9E9] ], v30, fine, pen\WObj:=platform;
    MoveL [ [-1.250, 3.858, 49.523], [0.068, 0.564, 0.823, 0.000], [0, 0, 0, 0], [ 9E9, 9E9, 9E9, 9E9, 9E9, 9E9] ], v1000, fine, pen\WObj:=platform;
    
    !!4.49193076733249, 0.005199999999999649;
    MoveL [ [-3.686, 2.844, 49.235], [0.087, 0.327, 0.941, 0.000], [0, 0, 0, 0], [ 9E9, 9E9, 9E9, 9E9, 9E9, 9E9] ], v1000, fine, pen\WObj:=platform;
    MoveL [ [4.492, 0.005, -0.010], [0.087, 0.327, 0.941, 0.000], [0, 0, 0, 0], [ 9E9, 9E9, 9E9, 9E9, 9E9, 9E9] ], v30, fine, pen\WObj:=platform;
    MoveL [ [-3.686, 2.844, 49.235], [0.087, 0.327, 0.941, 0.000], [0, 0, 0, 0], [ 9E9, 9E9, 9E9, 9E9, 9E9, 9E9] ], v1000, fine, pen\WObj:=platform;
    
    !!4.609017401924145, 0.005199999999999649;
    MoveL [ [-1.210, 3.886, 49.498], [0.070, 0.553, 0.830, 0.000], [0, 0, 0, 0], [ 9E9, 9E9, 9E9, 9E9, 9E9, 9E9] ], v1000, fine, pen\WObj:=platform;
    MoveL [ [4.609, 0.005, -0.010], [0.070, 0.553, 0.830, 0.000], [0, 0, 0, 0], [ 9E9, 9E9, 9E9, 9E9, 9E9, 9E9] ], v30, fine, pen\WObj:=platform;
    MoveL [ [-1.210, 3.886, 49.498], [0.070, 0.553, 0.830, 0.000], [0, 0, 0, 0], [ 9E9, 9E9, 9E9, 9E9, 9E9, 9E9] ], v1000, fine, pen\WObj:=platform;
    
    !!4.726104036515802, 0.005199999999999649;
    MoveL [ [-1.190, 3.899, 49.486], [0.071, 0.548, 0.833, 0.000], [0, 0, 0, 0], [ 9E9, 9E9, 9E9, 9E9, 9E9, 9E9] ], v1000, fine, pen\WObj:=platform;
    MoveL [ [4.726, 0.005, -0.010], [0.071, 0.548, 0.833, 0.000], [0, 0, 0, 0], [ 9E9, 9E9, 9E9, 9E9, 9E9, 9E9] ], v30, fine, pen\WObj:=platform;
    MoveL [ [-1.190, 3.899, 49.486], [0.071, 0.548, 0.833, 0.000], [0, 0, 0, 0], [ 9E9, 9E9, 9E9, 9E9, 9E9, 9E9] ], v1000, fine, pen\WObj:=platform;
    
    !!4.843190671107457, 0.005199999999999649;
    MoveL [ [-1.170, 3.913, 49.473], [0.072, 0.543, 0.836, 0.000], [0, 0, 0, 0], [ 9E9, 9E9, 9E9, 9E9, 9E9, 9E9] ], v1000, fine, pen\WObj:=platform;
    MoveL [ [4.843, 0.005, -0.010], [0.072, 0.543, 0.836, 0.000], [0, 0, 0, 0], [ 9E9, 9E9, 9E9, 9E9, 9E9, 9E9] ], v30, fine, pen\WObj:=platform;
    MoveL [ [-1.170, 3.913, 49.473], [0.072, 0.543, 0.836, 0.000], [0, 0, 0, 0], [ 9E9, 9E9, 9E9, 9E9, 9E9, 9E9] ], v1000, fine, pen\WObj:=platform;
    
    !!-4.816456682704172, -0.09620000000000073;
    MoveL [ [-2.721, 2.753, 49.865], [0.035, 0.805, -0.592, 0.000], [0, 0, 0, 0], [ 9E9, 9E9, 9E9, 9E9, 9E9, 9E9] ], v1000, fine, pen\WObj:=platform;
    MoveL [ [-4.816, -0.096, -0.010], [0.035, 0.805, -0.592, 0.000], [0, 0, 0, 0], [ 9E9, 9E9, 9E9, 9E9, 9E9, 9E9] ], v30, fine, pen\WObj:=platform;
    MoveL [ [-2.721, 2.753, 49.865], [0.035, 0.805, -0.592, 0.000], [0, 0, 0, 0], [ 9E9, 9E9, 9E9, 9E9, 9E9, 9E9] ], v1000, fine, pen\WObj:=platform;
    
    !!-4.699370048112516, -0.09620000000000073;
    MoveL [ [3.209, -17.085, 46.346], [0.191, -0.890, -0.414, 0.000], [0, 0, 0, 0], [ 9E9, 9E9, 9E9, 9E9, 9E9, 9E9] ], v1000, fine, pen\WObj:=platform;
    MoveL [ [-4.699, -0.096, -0.010], [0.191, -0.890, -0.414, 0.000], [0, 0, 0, 0], [ 9E9, 9E9, 9E9, 9E9, 9E9, 9E9] ], v30, fine, pen\WObj:=platform;
    MoveL [ [3.209, -17.085, 46.346], [0.191, -0.890, -0.414, 0.000], [0, 0, 0, 0], [ 9E9, 9E9, 9E9, 9E9, 9E9, 9E9] ], v1000, fine, pen\WObj:=platform;
    
    !!-4.5822834135208605, -0.09620000000000073;
    MoveL [ [5.056, 5.078, 48.779], [0.110, 0.470, -0.876, 0.000], [0, 0, 0, 0], [ 9E9, 9E9, 9E9, 9E9, 9E9, 9E9] ], v1000, fine, pen\WObj:=platform;
    MoveL [ [-4.582, -0.096, -0.010], [0.110, 0.470, -0.876, 0.000], [0, 0, 0, 0], [ 9E9, 9E9, 9E9, 9E9, 9E9, 9E9] ], v30, fine, pen\WObj:=platform;
    MoveL [ [5.056, 5.078, 48.779], [0.110, 0.470, -0.876, 0.000], [0, 0, 0, 0], [ 9E9, 9E9, 9E9, 9E9, 9E9, 9E9] ], v1000, fine, pen\WObj:=platform;
    
    !!-4.465196778929204, -0.09620000000000073;
    MoveL [ [3.247, -17.156, 46.353], [0.191, -0.894, -0.404, 0.000], [0, 0, 0, 0], [ 9E9, 9E9, 9E9, 9E9, 9E9, 9E9] ], v1000, fine, pen\WObj:=platform;
    MoveL [ [-4.465, -0.096, -0.010], [0.191, -0.894, -0.404, 0.000], [0, 0, 0, 0], [ 9E9, 9E9, 9E9, 9E9, 9E9, 9E9] ], v30, fine, pen\WObj:=platform;
    MoveL [ [3.247, -17.156, 46.353], [0.191, -0.894, -0.404, 0.000], [0, 0, 0, 0], [ 9E9, 9E9, 9E9, 9E9, 9E9, 9E9] ], v1000, fine, pen\WObj:=platform;
    
    !!-4.348110144337548, -0.09620000000000073;
    MoveL [ [-2.655, 2.814, 49.876], [0.034, 0.864, -0.503, 0.000], [0, 0, 0, 0], [ 9E9, 9E9, 9E9, 9E9, 9E9, 9E9] ], v1000, fine, pen\WObj:=platform;
    MoveL [ [-4.348, -0.096, -0.010], [0.034, 0.864, -0.503, 0.000], [0, 0, 0, 0], [ 9E9, 9E9, 9E9, 9E9, 9E9, 9E9] ], v30, fine, pen\WObj:=platform;
    MoveL [ [-2.655, 2.814, 49.876], [0.034, 0.864, -0.503, 0.000], [0, 0, 0, 0], [ 9E9, 9E9, 9E9, 9E9, 9E9, 9E9] ], v1000, fine, pen\WObj:=platform;
    
    !!-4.231023509745891, -0.09620000000000073;
    MoveL [ [3.286, -17.226, 46.359], [0.191, -0.899, -0.394, 0.000], [0, 0, 0, 0], [ 9E9, 9E9, 9E9, 9E9, 9E9, 9E9] ], v1000, fine, pen\WObj:=platform;
    MoveL [ [-4.231, -0.096, -0.010], [0.191, -0.899, -0.394, 0.000], [0, 0, 0, 0], [ 9E9, 9E9, 9E9, 9E9, 9E9, 9E9] ], v30, fine, pen\WObj:=platform;
    MoveL [ [3.286, -17.226, 46.359], [0.191, -0.899, -0.394, 0.000], [0, 0, 0, 0], [ 9E9, 9E9, 9E9, 9E9, 9E9, 9E9] ], v1000, fine, pen\WObj:=platform;
    
    !!-4.113936875154235, -0.09620000000000073;
    MoveL [ [5.152, 5.204, 48.837], [0.107, 0.494, -0.863, 0.000], [0, 0, 0, 0], [ 9E9, 9E9, 9E9, 9E9, 9E9, 9E9] ], v1000, fine, pen\WObj:=platform;
    MoveL [ [-4.114, -0.096, -0.010], [0.107, 0.494, -0.863, 0.000], [0, 0, 0, 0], [ 9E9, 9E9, 9E9, 9E9, 9E9, 9E9] ], v30, fine, pen\WObj:=platform;
    MoveL [ [5.152, 5.204, 48.837], [0.107, 0.494, -0.863, 0.000], [0, 0, 0, 0], [ 9E9, 9E9, 9E9, 9E9, 9E9, 9E9] ], v1000, fine, pen\WObj:=platform;
    
    !!-3.9968502405625794, -0.09620000000000073;
    MoveL [ [5.175, 5.236, 48.851], [0.107, 0.500, -0.860, 0.000], [0, 0, 0, 0], [ 9E9, 9E9, 9E9, 9E9, 9E9, 9E9] ], v1000, fine, pen\WObj:=platform;
    MoveL [ [-3.997, -0.096, -0.010], [0.107, 0.500, -0.860, 0.000], [0, 0, 0, 0], [ 9E9, 9E9, 9E9, 9E9, 9E9, 9E9] ], v30, fine, pen\WObj:=platform;
    MoveL [ [5.175, 5.236, 48.851], [0.107, 0.500, -0.860, 0.000], [0, 0, 0, 0], [ 9E9, 9E9, 9E9, 9E9, 9E9, 9E9] ], v1000, fine, pen\WObj:=platform;
    
    !!-3.8797636059709233, -0.09620000000000073;
    MoveL [ [5.199, 5.267, 48.865], [0.106, 0.506, -0.856, 0.000], [0, 0, 0, 0], [ 9E9, 9E9, 9E9, 9E9, 9E9, 9E9] ], v1000, fine, pen\WObj:=platform;
    MoveL [ [-3.880, -0.096, -0.010], [0.106, 0.506, -0.856, 0.000], [0, 0, 0, 0], [ 9E9, 9E9, 9E9, 9E9, 9E9, 9E9] ], v30, fine, pen\WObj:=platform;
    MoveL [ [5.199, 5.267, 48.865], [0.106, 0.506, -0.856, 0.000], [0, 0, 0, 0], [ 9E9, 9E9, 9E9, 9E9, 9E9, 9E9] ], v1000, fine, pen\WObj:=platform;
    
    !!-3.7626769713792676, -0.09620000000000073;
    MoveL [ [5.223, 5.299, 48.879], [0.105, 0.512, -0.853, 0.000], [0, 0, 0, 0], [ 9E9, 9E9, 9E9, 9E9, 9E9, 9E9] ], v1000, fine, pen\WObj:=platform;
    MoveL [ [-3.763, -0.096, -0.010], [0.105, 0.512, -0.853, 0.000], [0, 0, 0, 0], [ 9E9, 9E9, 9E9, 9E9, 9E9, 9E9] ], v30, fine, pen\WObj:=platform;
    MoveL [ [5.223, 5.299, 48.879], [0.105, 0.512, -0.853, 0.000], [0, 0, 0, 0], [ 9E9, 9E9, 9E9, 9E9, 9E9, 9E9] ], v1000, fine, pen\WObj:=platform;
    
    !!-3.6455903367876115, -0.09620000000000073;
    MoveL [ [5.247, 5.331, 48.893], [0.105, 0.518, -0.849, 0.000], [0, 0, 0, 0], [ 9E9, 9E9, 9E9, 9E9, 9E9, 9E9] ], v1000, fine, pen\WObj:=platform;
    MoveL [ [-3.646, -0.096, -0.010], [0.105, 0.518, -0.849, 0.000], [0, 0, 0, 0], [ 9E9, 9E9, 9E9, 9E9, 9E9, 9E9] ], v30, fine, pen\WObj:=platform;
    MoveL [ [5.247, 5.331, 48.893], [0.105, 0.518, -0.849, 0.000], [0, 0, 0, 0], [ 9E9, 9E9, 9E9, 9E9, 9E9, 9E9] ], v1000, fine, pen\WObj:=platform;
    
    !!-3.5285037021959553, -0.09620000000000073;
    MoveL [ [-2.535, 2.921, 49.889], [0.032, 0.949, -0.313, 0.000], [0, 0, 0, 0], [ 9E9, 9E9, 9E9, 9E9, 9E9, 9E9] ], v1000, fine, pen\WObj:=platform;
    MoveL [ [-3.529, -0.096, -0.010], [0.032, 0.949, -0.313, 0.000], [0, 0, 0, 0], [ 9E9, 9E9, 9E9, 9E9, 9E9, 9E9] ], v30, fine, pen\WObj:=platform;
    MoveL [ [-2.535, 2.921, 49.889], [0.032, 0.949, -0.313, 0.000], [0, 0, 0, 0], [ 9E9, 9E9, 9E9, 9E9, 9E9, 9E9] ], v1000, fine, pen\WObj:=platform;
    
    !!-3.411417067604299, -0.09620000000000073;
    MoveL [ [5.294, 5.395, 48.919], [0.103, 0.531, -0.841, 0.000], [0, 0, 0, 0], [ 9E9, 9E9, 9E9, 9E9, 9E9, 9E9] ], v1000, fine, pen\WObj:=platform;
    MoveL [ [-3.411, -0.096, -0.010], [0.103, 0.531, -0.841, 0.000], [0, 0, 0, 0], [ 9E9, 9E9, 9E9, 9E9, 9E9, 9E9] ], v30, fine, pen\WObj:=platform;
    MoveL [ [5.294, 5.395, 48.919], [0.103, 0.531, -0.841, 0.000], [0, 0, 0, 0], [ 9E9, 9E9, 9E9, 9E9, 9E9, 9E9] ], v1000, fine, pen\WObj:=platform;
    
    !!-3.2943304330126426, -0.09620000000000073;
    MoveL [ [-2.501, 2.952, 49.891], [0.032, 0.967, -0.252, 0.000], [0, 0, 0, 0], [ 9E9, 9E9, 9E9, 9E9, 9E9, 9E9] ], v1000, fine, pen\WObj:=platform;
    MoveL [ [-3.294, -0.096, -0.010], [0.032, 0.967, -0.252, 0.000], [0, 0, 0, 0], [ 9E9, 9E9, 9E9, 9E9, 9E9, 9E9] ], v30, fine, pen\WObj:=platform;
    MoveL [ [-2.501, 2.952, 49.891], [0.032, 0.967, -0.252, 0.000], [0, 0, 0, 0], [ 9E9, 9E9, 9E9, 9E9, 9E9, 9E9] ], v1000, fine, pen\WObj:=platform;
    
    !!-3.177243798420987, -0.09620000000000073;
    MoveL [ [5.341, 5.460, 48.945], [0.102, 0.543, -0.833, 0.000], [0, 0, 0, 0], [ 9E9, 9E9, 9E9, 9E9, 9E9, 9E9] ], v1000, fine, pen\WObj:=platform;
    MoveL [ [-3.177, -0.096, -0.010], [0.102, 0.543, -0.833, 0.000], [0, 0, 0, 0], [ 9E9, 9E9, 9E9, 9E9, 9E9, 9E9] ], v30, fine, pen\WObj:=platform;
    MoveL [ [5.341, 5.460, 48.945], [0.102, 0.543, -0.833, 0.000], [0, 0, 0, 0], [ 9E9, 9E9, 9E9, 9E9, 9E9, 9E9] ], v1000, fine, pen\WObj:=platform;
    
    !!-3.060157163829331, -0.09620000000000073;
    MoveL [ [-2.466, 2.982, 49.892], [0.031, 0.981, -0.190, 0.000], [0, 0, 0, 0], [ 9E9, 9E9, 9E9, 9E9, 9E9, 9E9] ], v1000, fine, pen\WObj:=platform;
    MoveL [ [-3.060, -0.096, -0.010], [0.031, 0.981, -0.190, 0.000], [0, 0, 0, 0], [ 9E9, 9E9, 9E9, 9E9, 9E9, 9E9] ], v30, fine, pen\WObj:=platform;
    MoveL [ [-2.466, 2.982, 49.892], [0.031, 0.981, -0.190, 0.000], [0, 0, 0, 0], [ 9E9, 9E9, 9E9, 9E9, 9E9, 9E9] ], v1000, fine, pen\WObj:=platform;
    
    !!-2.943070529237674, -0.09620000000000073;
    MoveL [ [-2.448, 2.997, 49.892], [0.031, 0.987, -0.158, 0.000], [0, 0, 0, 0], [ 9E9, 9E9, 9E9, 9E9, 9E9, 9E9] ], v1000, fine, pen\WObj:=platform;
    MoveL [ [-2.943, -0.096, -0.010], [0.031, 0.987, -0.158, 0.000], [0, 0, 0, 0], [ 9E9, 9E9, 9E9, 9E9, 9E9, 9E9] ], v30, fine, pen\WObj:=platform;
    MoveL [ [-2.448, 2.997, 49.892], [0.031, 0.987, -0.158, 0.000], [0, 0, 0, 0], [ 9E9, 9E9, 9E9, 9E9, 9E9, 9E9] ], v1000, fine, pen\WObj:=platform;
    
    !!-2.8259838946460185, -0.09620000000000073;
    MoveL [ [3.515, -17.650, 46.376], [0.190, -0.923, -0.334, 0.000], [0, 0, 0, 0], [ 9E9, 9E9, 9E9, 9E9, 9E9, 9E9] ], v1000, fine, pen\WObj:=platform;
    MoveL [ [-2.826, -0.096, -0.010], [0.190, -0.923, -0.334, 0.000], [0, 0, 0, 0], [ 9E9, 9E9, 9E9, 9E9, 9E9, 9E9] ], v30, fine, pen\WObj:=platform;
    MoveL [ [3.515, -17.650, 46.376], [0.190, -0.923, -0.334, 0.000], [0, 0, 0, 0], [ 9E9, 9E9, 9E9, 9E9, 9E9, 9E9] ], v1000, fine, pen\WObj:=platform;
    
    !!-2.708897260054362, -0.09620000000000073;
    MoveL [ [-2.413, 3.028, 49.891], [0.031, 0.995, -0.094, 0.000], [0, 0, 0, 0], [ 9E9, 9E9, 9E9, 9E9, 9E9, 9E9] ], v1000, fine, pen\WObj:=platform;
    MoveL [ [-2.709, -0.096, -0.010], [0.031, 0.995, -0.094, 0.000], [0, 0, 0, 0], [ 9E9, 9E9, 9E9, 9E9, 9E9, 9E9] ], v30, fine, pen\WObj:=platform;
    MoveL [ [-2.413, 3.028, 49.891], [0.031, 0.995, -0.094, 0.000], [0, 0, 0, 0], [ 9E9, 9E9, 9E9, 9E9, 9E9, 9E9] ], v1000, fine, pen\WObj:=platform;
    
    !!-2.5918106254627062, -0.09620000000000073;
    MoveL [ [3.552, -17.720, 46.376], [0.190, -0.927, -0.323, 0.000], [0, 0, 0, 0], [ 9E9, 9E9, 9E9, 9E9, 9E9, 9E9] ], v1000, fine, pen\WObj:=platform;
    MoveL [ [-2.592, -0.096, -0.010], [0.190, -0.927, -0.323, 0.000], [0, 0, 0, 0], [ 9E9, 9E9, 9E9, 9E9, 9E9, 9E9] ], v30, fine, pen\WObj:=platform;
    MoveL [ [3.552, -17.720, 46.376], [0.190, -0.927, -0.323, 0.000], [0, 0, 0, 0], [ 9E9, 9E9, 9E9, 9E9, 9E9, 9E9] ], v1000, fine, pen\WObj:=platform;
    
    !!-2.47472399087105, -0.09620000000000073;
    MoveL [ [3.571, -17.755, 46.375], [0.190, -0.929, -0.318, 0.000], [0, 0, 0, 0], [ 9E9, 9E9, 9E9, 9E9, 9E9, 9E9] ], v1000, fine, pen\WObj:=platform;
    MoveL [ [-2.475, -0.096, -0.010], [0.190, -0.929, -0.318, 0.000], [0, 0, 0, 0], [ 9E9, 9E9, 9E9, 9E9, 9E9, 9E9] ], v30, fine, pen\WObj:=platform;
    MoveL [ [3.571, -17.755, 46.375], [0.190, -0.929, -0.318, 0.000], [0, 0, 0, 0], [ 9E9, 9E9, 9E9, 9E9, 9E9, 9E9] ], v1000, fine, pen\WObj:=platform;
    
    !!-2.3576373562793944, -0.09620000000000073;
    MoveL [ [-2.359, 3.073, 49.889], [0.032, 0.999, 0.001, 0.000], [0, 0, 0, 0], [ 9E9, 9E9, 9E9, 9E9, 9E9, 9E9] ], v1000, fine, pen\WObj:=platform;
    MoveL [ [-2.358, -0.096, -0.010], [0.032, 0.999, 0.001, 0.000], [0, 0, 0, 0], [ 9E9, 9E9, 9E9, 9E9, 9E9, 9E9] ], v30, fine, pen\WObj:=platform;
    MoveL [ [-2.359, 3.073, 49.889], [0.032, 0.999, 0.001, 0.000], [0, 0, 0, 0], [ 9E9, 9E9, 9E9, 9E9, 9E9, 9E9] ], v1000, fine, pen\WObj:=platform;
    
    !!-2.240550721687738, -0.09620000000000073;
    MoveL [ [-2.341, 3.088, 49.888], [0.032, 0.999, 0.032, 0.000], [0, 0, 0, 0], [ 9E9, 9E9, 9E9, 9E9, 9E9, 9E9] ], v1000, fine, pen\WObj:=platform;
    MoveL [ [-2.241, -0.096, -0.010], [0.032, 0.999, 0.032, 0.000], [0, 0, 0, 0], [ 9E9, 9E9, 9E9, 9E9, 9E9, 9E9] ], v30, fine, pen\WObj:=platform;
    MoveL [ [-2.341, 3.088, 49.888], [0.032, 0.999, 0.032, 0.000], [0, 0, 0, 0], [ 9E9, 9E9, 9E9, 9E9, 9E9, 9E9] ], v1000, fine, pen\WObj:=platform;
    
    !!-2.1234640870960817, -0.09620000000000073;
    MoveL [ [5.552, 5.753, 49.050], [0.097, 0.603, -0.792, 0.000], [0, 0, 0, 0], [ 9E9, 9E9, 9E9, 9E9, 9E9, 9E9] ], v1000, fine, pen\WObj:=platform;
    MoveL [ [-2.123, -0.096, -0.010], [0.097, 0.603, -0.792, 0.000], [0, 0, 0, 0], [ 9E9, 9E9, 9E9, 9E9, 9E9, 9E9] ], v30, fine, pen\WObj:=platform;
    MoveL [ [5.552, 5.753, 49.050], [0.097, 0.603, -0.792, 0.000], [0, 0, 0, 0], [ 9E9, 9E9, 9E9, 9E9, 9E9, 9E9] ], v1000, fine, pen\WObj:=platform;
    
    !!-2.0063774525044256, -0.09620000000000073;
    MoveL [ [5.575, 5.786, 49.061], [0.096, 0.610, -0.786, 0.000], [0, 0, 0, 0], [ 9E9, 9E9, 9E9, 9E9, 9E9, 9E9] ], v1000, fine, pen\WObj:=platform;
    MoveL [ [-2.006, -0.096, -0.010], [0.096, 0.610, -0.786, 0.000], [0, 0, 0, 0], [ 9E9, 9E9, 9E9, 9E9, 9E9, 9E9] ], v30, fine, pen\WObj:=platform;
    MoveL [ [5.575, 5.786, 49.061], [0.096, 0.610, -0.786, 0.000], [0, 0, 0, 0], [ 9E9, 9E9, 9E9, 9E9, 9E9, 9E9] ], v1000, fine, pen\WObj:=platform;
    
    !!-1.8892908179127696, -0.09620000000000073;
    MoveL [ [5.598, 5.819, 49.071], [0.096, 0.617, -0.781, 0.000], [0, 0, 0, 0], [ 9E9, 9E9, 9E9, 9E9, 9E9, 9E9] ], v1000, fine, pen\WObj:=platform;
    MoveL [ [-1.889, -0.096, -0.010], [0.096, 0.617, -0.781, 0.000], [0, 0, 0, 0], [ 9E9, 9E9, 9E9, 9E9, 9E9, 9E9] ], v30, fine, pen\WObj:=platform;
    MoveL [ [5.598, 5.819, 49.071], [0.096, 0.617, -0.781, 0.000], [0, 0, 0, 0], [ 9E9, 9E9, 9E9, 9E9, 9E9, 9E9] ], v1000, fine, pen\WObj:=platform;
    
    !!-1.7722041833211135, -0.09620000000000073;
    MoveL [ [5.621, 5.852, 49.081], [0.095, 0.624, -0.776, 0.000], [0, 0, 0, 0], [ 9E9, 9E9, 9E9, 9E9, 9E9, 9E9] ], v1000, fine, pen\WObj:=platform;
    MoveL [ [-1.772, -0.096, -0.010], [0.095, 0.624, -0.776, 0.000], [0, 0, 0, 0], [ 9E9, 9E9, 9E9, 9E9, 9E9, 9E9] ], v30, fine, pen\WObj:=platform;
    MoveL [ [5.621, 5.852, 49.081], [0.095, 0.624, -0.776, 0.000], [0, 0, 0, 0], [ 9E9, 9E9, 9E9, 9E9, 9E9, 9E9] ], v1000, fine, pen\WObj:=platform;
    
    !!-1.655117548729457, -0.09620000000000073;
    MoveL [ [-2.251, 3.164, 49.880], [0.033, 0.983, 0.180, 0.000], [0, 0, 0, 0], [ 9E9, 9E9, 9E9, 9E9, 9E9, 9E9] ], v1000, fine, pen\WObj:=platform;
    MoveL [ [-1.655, -0.096, -0.010], [0.033, 0.983, 0.180, 0.000], [0, 0, 0, 0], [ 9E9, 9E9, 9E9, 9E9, 9E9, 9E9] ], v30, fine, pen\WObj:=platform;
    MoveL [ [-2.251, 3.164, 49.880], [0.033, 0.983, 0.180, 0.000], [0, 0, 0, 0], [ 9E9, 9E9, 9E9, 9E9, 9E9, 9E9] ], v1000, fine, pen\WObj:=platform;
    
    !!-1.5380309141378012, -0.09620000000000073;
    MoveL [ [5.667, 5.918, 49.101], [0.094, 0.638, -0.764, 0.000], [0, 0, 0, 0], [ 9E9, 9E9, 9E9, 9E9, 9E9, 9E9] ], v1000, fine, pen\WObj:=platform;
    MoveL [ [-1.538, -0.096, -0.010], [0.094, 0.638, -0.764, 0.000], [0, 0, 0, 0], [ 9E9, 9E9, 9E9, 9E9, 9E9, 9E9] ], v30, fine, pen\WObj:=platform;
    MoveL [ [5.667, 5.918, 49.101], [0.094, 0.638, -0.764, 0.000], [0, 0, 0, 0], [ 9E9, 9E9, 9E9, 9E9, 9E9, 9E9] ], v1000, fine, pen\WObj:=platform;
    
    !!-1.4209442795461447, -0.09620000000000073;
    MoveL [ [5.690, 5.951, 49.111], [0.094, 0.645, -0.758, 0.000], [0, 0, 0, 0], [ 9E9, 9E9, 9E9, 9E9, 9E9, 9E9] ], v1000, fine, pen\WObj:=platform;
    MoveL [ [-1.421, -0.096, -0.010], [0.094, 0.645, -0.758, 0.000], [0, 0, 0, 0], [ 9E9, 9E9, 9E9, 9E9, 9E9, 9E9] ], v30, fine, pen\WObj:=platform;
    MoveL [ [5.690, 5.951, 49.111], [0.094, 0.645, -0.758, 0.000], [0, 0, 0, 0], [ 9E9, 9E9, 9E9, 9E9, 9E9, 9E9] ], v1000, fine, pen\WObj:=platform;
    
    !!-1.3038576449544892, -0.09620000000000073;
    MoveL [ [5.712, 5.984, 49.120], [0.093, 0.652, -0.752, 0.000], [0, 0, 0, 0], [ 9E9, 9E9, 9E9, 9E9, 9E9, 9E9] ], v1000, fine, pen\WObj:=platform;
    MoveL [ [-1.304, -0.096, -0.010], [0.093, 0.652, -0.752, 0.000], [0, 0, 0, 0], [ 9E9, 9E9, 9E9, 9E9, 9E9, 9E9] ], v30, fine, pen\WObj:=platform;
    MoveL [ [5.712, 5.984, 49.120], [0.093, 0.652, -0.752, 0.000], [0, 0, 0, 0], [ 9E9, 9E9, 9E9, 9E9, 9E9, 9E9] ], v1000, fine, pen\WObj:=platform;
    
    !!-1.1867710103628326, -0.09620000000000073;
    MoveL [ [-2.178, 3.224, 49.870], [0.035, 0.958, 0.286, 0.000], [0, 0, 0, 0], [ 9E9, 9E9, 9E9, 9E9, 9E9, 9E9] ], v1000, fine, pen\WObj:=platform;
    MoveL [ [-1.187, -0.096, -0.010], [0.035, 0.958, 0.286, 0.000], [0, 0, 0, 0], [ 9E9, 9E9, 9E9, 9E9, 9E9, 9E9] ], v30, fine, pen\WObj:=platform;
    MoveL [ [-2.178, 3.224, 49.870], [0.035, 0.958, 0.286, 0.000], [0, 0, 0, 0], [ 9E9, 9E9, 9E9, 9E9, 9E9, 9E9] ], v1000, fine, pen\WObj:=platform;
    
    !!-1.0696843757711765, -0.09620000000000073;
    MoveL [ [5.758, 6.051, 49.139], [0.092, 0.666, -0.740, 0.000], [0, 0, 0, 0], [ 9E9, 9E9, 9E9, 9E9, 9E9, 9E9] ], v1000, fine, pen\WObj:=platform;
    MoveL [ [-1.070, -0.096, -0.010], [0.092, 0.666, -0.740, 0.000], [0, 0, 0, 0], [ 9E9, 9E9, 9E9, 9E9, 9E9, 9E9] ], v30, fine, pen\WObj:=platform;
    MoveL [ [5.758, 6.051, 49.139], [0.092, 0.666, -0.740, 0.000], [0, 0, 0, 0], [ 9E9, 9E9, 9E9, 9E9, 9E9, 9E9] ], v1000, fine, pen\WObj:=platform;
    
    !!-0.9525977411795206, -0.09620000000000073;
    MoveL [ [5.780, 6.084, 49.148], [0.092, 0.673, -0.734, 0.000], [0, 0, 0, 0], [ 9E9, 9E9, 9E9, 9E9, 9E9, 9E9] ], v1000, fine, pen\WObj:=platform;
    MoveL [ [-0.953, -0.096, -0.010], [0.092, 0.673, -0.734, 0.000], [0, 0, 0, 0], [ 9E9, 9E9, 9E9, 9E9, 9E9, 9E9] ], v30, fine, pen\WObj:=platform;
    MoveL [ [5.780, 6.084, 49.148], [0.092, 0.673, -0.734, 0.000], [0, 0, 0, 0], [ 9E9, 9E9, 9E9, 9E9, 9E9, 9E9] ], v1000, fine, pen\WObj:=platform;
    
    !!-0.8355111065878645, -0.09620000000000073;
    MoveL [ [5.803, 6.118, 49.156], [0.091, 0.681, -0.727, 0.000], [0, 0, 0, 0], [ 9E9, 9E9, 9E9, 9E9, 9E9, 9E9] ], v1000, fine, pen\WObj:=platform;
    MoveL [ [-0.836, -0.096, -0.010], [0.091, 0.681, -0.727, 0.000], [0, 0, 0, 0], [ 9E9, 9E9, 9E9, 9E9, 9E9, 9E9] ], v30, fine, pen\WObj:=platform;
    MoveL [ [5.803, 6.118, 49.156], [0.091, 0.681, -0.727, 0.000], [0, 0, 0, 0], [ 9E9, 9E9, 9E9, 9E9, 9E9, 9E9] ], v1000, fine, pen\WObj:=platform;
    
    !!-0.7184244719962086, -0.09620000000000073;
    MoveL [ [5.825, 6.151, 49.165], [0.091, 0.688, -0.720, 0.000], [0, 0, 0, 0], [ 9E9, 9E9, 9E9, 9E9, 9E9, 9E9] ], v1000, fine, pen\WObj:=platform;
    MoveL [ [-0.718, -0.096, -0.010], [0.091, 0.688, -0.720, 0.000], [0, 0, 0, 0], [ 9E9, 9E9, 9E9, 9E9, 9E9, 9E9] ], v30, fine, pen\WObj:=platform;
    MoveL [ [5.825, 6.151, 49.165], [0.091, 0.688, -0.720, 0.000], [0, 0, 0, 0], [ 9E9, 9E9, 9E9, 9E9, 9E9, 9E9] ], v1000, fine, pen\WObj:=platform;
    
    !!-0.601337837404552, -0.09620000000000073;
    MoveL [ [5.847, 6.185, 49.173], [0.090, 0.695, -0.713, 0.000], [0, 0, 0, 0], [ 9E9, 9E9, 9E9, 9E9, 9E9, 9E9] ], v1000, fine, pen\WObj:=platform;
    MoveL [ [-0.601, -0.096, -0.010], [0.090, 0.695, -0.713, 0.000], [0, 0, 0, 0], [ 9E9, 9E9, 9E9, 9E9, 9E9, 9E9] ], v30, fine, pen\WObj:=platform;
    MoveL [ [5.847, 6.185, 49.173], [0.090, 0.695, -0.713, 0.000], [0, 0, 0, 0], [ 9E9, 9E9, 9E9, 9E9, 9E9, 9E9] ], v1000, fine, pen\WObj:=platform;
    
    !!-0.484251202812896, -0.09620000000000073;
    MoveL [ [5.870, 6.218, 49.181], [0.090, 0.702, -0.706, 0.000], [0, 0, 0, 0], [ 9E9, 9E9, 9E9, 9E9, 9E9, 9E9] ], v1000, fine, pen\WObj:=platform;
    MoveL [ [-0.484, -0.096, -0.010], [0.090, 0.702, -0.706, 0.000], [0, 0, 0, 0], [ 9E9, 9E9, 9E9, 9E9, 9E9, 9E9] ], v30, fine, pen\WObj:=platform;
    MoveL [ [5.870, 6.218, 49.181], [0.090, 0.702, -0.706, 0.000], [0, 0, 0, 0], [ 9E9, 9E9, 9E9, 9E9, 9E9, 9E9] ], v1000, fine, pen\WObj:=platform;
    
    !!-0.36716456822123955, -0.09620000000000073;
    MoveL [ [5.892, 6.252, 49.189], [0.090, 0.709, -0.699, 0.000], [0, 0, 0, 0], [ 9E9, 9E9, 9E9, 9E9, 9E9, 9E9] ], v1000, fine, pen\WObj:=platform;
    MoveL [ [-0.367, -0.096, -0.010], [0.090, 0.709, -0.699, 0.000], [0, 0, 0, 0], [ 9E9, 9E9, 9E9, 9E9, 9E9, 9E9] ], v30, fine, pen\WObj:=platform;
    MoveL [ [5.892, 6.252, 49.189], [0.090, 0.709, -0.699, 0.000], [0, 0, 0, 0], [ 9E9, 9E9, 9E9, 9E9, 9E9, 9E9] ], v1000, fine, pen\WObj:=platform;
    
    !!-0.2500779336295835, -0.09620000000000073;
    MoveL [ [5.914, 6.286, 49.196], [0.089, 0.716, -0.692, 0.000], [0, 0, 0, 0], [ 9E9, 9E9, 9E9, 9E9, 9E9, 9E9] ], v1000, fine, pen\WObj:=platform;
    MoveL [ [-0.250, -0.096, -0.010], [0.089, 0.716, -0.692, 0.000], [0, 0, 0, 0], [ 9E9, 9E9, 9E9, 9E9, 9E9, 9E9] ], v30, fine, pen\WObj:=platform;
    MoveL [ [5.914, 6.286, 49.196], [0.089, 0.716, -0.692, 0.000], [0, 0, 0, 0], [ 9E9, 9E9, 9E9, 9E9, 9E9, 9E9] ], v1000, fine, pen\WObj:=platform;
    
    !!-0.13299129903792756, -0.09620000000000073;
    MoveL [ [5.936, 6.319, 49.204], [0.089, 0.724, -0.685, 0.000], [0, 0, 0, 0], [ 9E9, 9E9, 9E9, 9E9, 9E9, 9E9] ], v1000, fine, pen\WObj:=platform;
    MoveL [ [-0.133, -0.096, -0.010], [0.089, 0.724, -0.685, 0.000], [0, 0, 0, 0], [ 9E9, 9E9, 9E9, 9E9, 9E9, 9E9] ], v30, fine, pen\WObj:=platform;
    MoveL [ [5.936, 6.319, 49.204], [0.089, 0.724, -0.685, 0.000], [0, 0, 0, 0], [ 9E9, 9E9, 9E9, 9E9, 9E9, 9E9] ], v1000, fine, pen\WObj:=platform;
    
    !!-0.0159046644462721, -0.09620000000000073;
    MoveL [ [5.958, 6.353, 49.211], [0.088, 0.731, -0.677, 0.000], [0, 0, 0, 0], [ 9E9, 9E9, 9E9, 9E9, 9E9, 9E9] ], v1000, fine, pen\WObj:=platform;
    MoveL [ [-0.016, -0.096, -0.010], [0.088, 0.731, -0.677, 0.000], [0, 0, 0, 0], [ 9E9, 9E9, 9E9, 9E9, 9E9, 9E9] ], v30, fine, pen\WObj:=platform;
    MoveL [ [5.958, 6.353, 49.211], [0.088, 0.731, -0.677, 0.000], [0, 0, 0, 0], [ 9E9, 9E9, 9E9, 9E9, 9E9, 9E9] ], v1000, fine, pen\WObj:=platform;
    
    !!0.10118197014538388, -0.09620000000000073;
    MoveL [ [5.980, 6.387, 49.218], [0.088, 0.738, -0.669, 0.000], [0, 0, 0, 0], [ 9E9, 9E9, 9E9, 9E9, 9E9, 9E9] ], v1000, fine, pen\WObj:=platform;
    MoveL [ [0.101, -0.096, -0.010], [0.088, 0.738, -0.669, 0.000], [0, 0, 0, 0], [ 9E9, 9E9, 9E9, 9E9, 9E9, 9E9] ], v30, fine, pen\WObj:=platform;
    MoveL [ [5.980, 6.387, 49.218], [0.088, 0.738, -0.669, 0.000], [0, 0, 0, 0], [ 9E9, 9E9, 9E9, 9E9, 9E9, 9E9] ], v1000, fine, pen\WObj:=platform;
    
    !!0.2182686047370404, -0.09620000000000073;
    MoveL [ [6.001, 6.421, 49.225], [0.087, 0.745, -0.661, 0.000], [0, 0, 0, 0], [ 9E9, 9E9, 9E9, 9E9, 9E9, 9E9] ], v1000, fine, pen\WObj:=platform;
    MoveL [ [0.218, -0.096, -0.010], [0.087, 0.745, -0.661, 0.000], [0, 0, 0, 0], [ 9E9, 9E9, 9E9, 9E9, 9E9, 9E9] ], v30, fine, pen\WObj:=platform;
    MoveL [ [6.001, 6.421, 49.225], [0.087, 0.745, -0.661, 0.000], [0, 0, 0, 0], [ 9E9, 9E9, 9E9, 9E9, 9E9, 9E9] ], v1000, fine, pen\WObj:=platform;
    
    !!0.33535523932869693, -0.09620000000000073;
    MoveL [ [6.023, 6.455, 49.232], [0.087, 0.752, -0.653, 0.000], [0, 0, 0, 0], [ 9E9, 9E9, 9E9, 9E9, 9E9, 9E9] ], v1000, fine, pen\WObj:=platform;
    MoveL [ [0.335, -0.096, -0.010], [0.087, 0.752, -0.653, 0.000], [0, 0, 0, 0], [ 9E9, 9E9, 9E9, 9E9, 9E9, 9E9] ], v30, fine, pen\WObj:=platform;
    MoveL [ [6.023, 6.455, 49.232], [0.087, 0.752, -0.653, 0.000], [0, 0, 0, 0], [ 9E9, 9E9, 9E9, 9E9, 9E9, 9E9] ], v1000, fine, pen\WObj:=platform;
    
    !!0.4524418739203524, -0.09620000000000073;
    MoveL [ [-1.916, 3.432, 49.809], [0.043, 0.830, 0.557, 0.000], [0, 0, 0, 0], [ 9E9, 9E9, 9E9, 9E9, 9E9, 9E9] ], v1000, fine, pen\WObj:=platform;
    MoveL [ [0.452, -0.096, -0.010], [0.043, 0.830, 0.557, 0.000], [0, 0, 0, 0], [ 9E9, 9E9, 9E9, 9E9, 9E9, 9E9] ], v30, fine, pen\WObj:=platform;
    MoveL [ [-1.916, 3.432, 49.809], [0.043, 0.830, 0.557, 0.000], [0, 0, 0, 0], [ 9E9, 9E9, 9E9, 9E9, 9E9, 9E9] ], v1000, fine, pen\WObj:=platform;
    
    !!0.569528508512009, -0.09620000000000073;
    MoveL [ [6.066, 6.523, 49.244], [0.086, 0.766, -0.636, 0.000], [0, 0, 0, 0], [ 9E9, 9E9, 9E9, 9E9, 9E9, 9E9] ], v1000, fine, pen\WObj:=platform;
    MoveL [ [0.570, -0.096, -0.010], [0.086, 0.766, -0.636, 0.000], [0, 0, 0, 0], [ 9E9, 9E9, 9E9, 9E9, 9E9, 9E9] ], v30, fine, pen\WObj:=platform;
    MoveL [ [6.066, 6.523, 49.244], [0.086, 0.766, -0.636, 0.000], [0, 0, 0, 0], [ 9E9, 9E9, 9E9, 9E9, 9E9, 9E9] ], v1000, fine, pen\WObj:=platform;
    
    !!0.6866151431036654, -0.09620000000000073;
    MoveL [ [-1.877, 3.462, 49.797], [0.044, 0.811, 0.584, 0.000], [0, 0, 0, 0], [ 9E9, 9E9, 9E9, 9E9, 9E9, 9E9] ], v1000, fine, pen\WObj:=platform;
    MoveL [ [0.687, -0.096, -0.010], [0.044, 0.811, 0.584, 0.000], [0, 0, 0, 0], [ 9E9, 9E9, 9E9, 9E9, 9E9, 9E9] ], v30, fine, pen\WObj:=platform;
    MoveL [ [-1.877, 3.462, 49.797], [0.044, 0.811, 0.584, 0.000], [0, 0, 0, 0], [ 9E9, 9E9, 9E9, 9E9, 9E9, 9E9] ], v1000, fine, pen\WObj:=platform;
    
    !!0.803701777695322, -0.09620000000000073;
    MoveL [ [-1.858, 3.477, 49.791], [0.045, 0.801, 0.597, 0.000], [0, 0, 0, 0], [ 9E9, 9E9, 9E9, 9E9, 9E9, 9E9] ], v1000, fine, pen\WObj:=platform;
    MoveL [ [0.804, -0.096, -0.010], [0.045, 0.801, 0.597, 0.000], [0, 0, 0, 0], [ 9E9, 9E9, 9E9, 9E9, 9E9, 9E9] ], v30, fine, pen\WObj:=platform;
    MoveL [ [-1.858, 3.477, 49.791], [0.045, 0.801, 0.597, 0.000], [0, 0, 0, 0], [ 9E9, 9E9, 9E9, 9E9, 9E9, 9E9] ], v1000, fine, pen\WObj:=platform;
    
    !!0.9207884122869775, -0.09620000000000073;
    MoveL [ [6.130, 6.625, 49.262], [0.085, 0.788, -0.610, 0.000], [0, 0, 0, 0], [ 9E9, 9E9, 9E9, 9E9, 9E9, 9E9] ], v1000, fine, pen\WObj:=platform;
    MoveL [ [0.921, -0.096, -0.010], [0.085, 0.788, -0.610, 0.000], [0, 0, 0, 0], [ 9E9, 9E9, 9E9, 9E9, 9E9, 9E9] ], v30, fine, pen\WObj:=platform;
    MoveL [ [6.130, 6.625, 49.262], [0.085, 0.788, -0.610, 0.000], [0, 0, 0, 0], [ 9E9, 9E9, 9E9, 9E9, 9E9, 9E9] ], v1000, fine, pen\WObj:=platform;
    
    !!1.037875046878633, -0.09620000000000073;
    MoveL [ [6.151, 6.659, 49.267], [0.085, 0.794, -0.601, 0.000], [0, 0, 0, 0], [ 9E9, 9E9, 9E9, 9E9, 9E9, 9E9] ], v1000, fine, pen\WObj:=platform;
    MoveL [ [1.038, -0.096, -0.010], [0.085, 0.794, -0.601, 0.000], [0, 0, 0, 0], [ 9E9, 9E9, 9E9, 9E9, 9E9, 9E9] ], v30, fine, pen\WObj:=platform;
    MoveL [ [6.151, 6.659, 49.267], [0.085, 0.794, -0.601, 0.000], [0, 0, 0, 0], [ 9E9, 9E9, 9E9, 9E9, 9E9, 9E9] ], v1000, fine, pen\WObj:=platform;
    
    !!1.1549616814702894, -0.09620000000000073;
    MoveL [ [-1.801, 3.520, 49.771], [0.047, 0.773, 0.632, 0.000], [0, 0, 0, 0], [ 9E9, 9E9, 9E9, 9E9, 9E9, 9E9] ], v1000, fine, pen\WObj:=platform;
    MoveL [ [1.155, -0.096, -0.010], [0.047, 0.773, 0.632, 0.000], [0, 0, 0, 0], [ 9E9, 9E9, 9E9, 9E9, 9E9, 9E9] ], v30, fine, pen\WObj:=platform;
    MoveL [ [-1.801, 3.520, 49.771], [0.047, 0.773, 0.632, 0.000], [0, 0, 0, 0], [ 9E9, 9E9, 9E9, 9E9, 9E9, 9E9] ], v1000, fine, pen\WObj:=platform;
    
    !!1.272048316061945, -0.09620000000000073;
    MoveL [ [-1.782, 3.535, 49.764], [0.047, 0.764, 0.643, 0.000], [0, 0, 0, 0], [ 9E9, 9E9, 9E9, 9E9, 9E9, 9E9] ], v1000, fine, pen\WObj:=platform;
    MoveL [ [1.272, -0.096, -0.010], [0.047, 0.764, 0.643, 0.000], [0, 0, 0, 0], [ 9E9, 9E9, 9E9, 9E9, 9E9, 9E9] ], v30, fine, pen\WObj:=platform;
    MoveL [ [-1.782, 3.535, 49.764], [0.047, 0.764, 0.643, 0.000], [0, 0, 0, 0], [ 9E9, 9E9, 9E9, 9E9, 9E9, 9E9] ], v1000, fine, pen\WObj:=platform;
    
    !!1.3891349506536013, -0.09620000000000073;
    MoveL [ [6.213, 6.762, 49.282], [0.084, 0.815, -0.573, 0.000], [0, 0, 0, 0], [ 9E9, 9E9, 9E9, 9E9, 9E9, 9E9] ], v1000, fine, pen\WObj:=platform;
    MoveL [ [1.389, -0.096, -0.010], [0.084, 0.815, -0.573, 0.000], [0, 0, 0, 0], [ 9E9, 9E9, 9E9, 9E9, 9E9, 9E9] ], v30, fine, pen\WObj:=platform;
    MoveL [ [6.213, 6.762, 49.282], [0.084, 0.815, -0.573, 0.000], [0, 0, 0, 0], [ 9E9, 9E9, 9E9, 9E9, 9E9, 9E9] ], v1000, fine, pen\WObj:=platform;
    
    !!1.5062215852452578, -0.09620000000000073;
    MoveL [ [-1.743, 3.564, 49.750], [0.049, 0.747, 0.663, 0.000], [0, 0, 0, 0], [ 9E9, 9E9, 9E9, 9E9, 9E9, 9E9] ], v1000, fine, pen\WObj:=platform;
    MoveL [ [1.506, -0.096, -0.010], [0.049, 0.747, 0.663, 0.000], [0, 0, 0, 0], [ 9E9, 9E9, 9E9, 9E9, 9E9, 9E9] ], v30, fine, pen\WObj:=platform;
    MoveL [ [-1.743, 3.564, 49.750], [0.049, 0.747, 0.663, 0.000], [0, 0, 0, 0], [ 9E9, 9E9, 9E9, 9E9, 9E9, 9E9] ], v1000, fine, pen\WObj:=platform;
    
    !!1.6233082198369144, -0.09620000000000073;
    MoveL [ [4.194, -18.972, 46.219], [0.194, -0.972, -0.132, 0.000], [0, 0, 0, 0], [ 9E9, 9E9, 9E9, 9E9, 9E9, 9E9] ], v1000, fine, pen\WObj:=platform;
    MoveL [ [1.623, -0.096, -0.010], [0.194, -0.972, -0.132, 0.000], [0, 0, 0, 0], [ 9E9, 9E9, 9E9, 9E9, 9E9, 9E9] ], v30, fine, pen\WObj:=platform;
    MoveL [ [4.194, -18.972, 46.219], [0.194, -0.972, -0.132, 0.000], [0, 0, 0, 0], [ 9E9, 9E9, 9E9, 9E9, 9E9, 9E9] ], v1000, fine, pen\WObj:=platform;
    
    !!1.74039485442857, -0.09620000000000073;
    MoveL [ [-1.704, 3.593, 49.735], [0.051, 0.730, 0.682, 0.000], [0, 0, 0, 0], [ 9E9, 9E9, 9E9, 9E9, 9E9, 9E9] ], v1000, fine, pen\WObj:=platform;
    MoveL [ [1.740, -0.096, -0.010], [0.051, 0.730, 0.682, 0.000], [0, 0, 0, 0], [ 9E9, 9E9, 9E9, 9E9, 9E9, 9E9] ], v30, fine, pen\WObj:=platform;
    MoveL [ [-1.704, 3.593, 49.735], [0.051, 0.730, 0.682, 0.000], [0, 0, 0, 0], [ 9E9, 9E9, 9E9, 9E9, 9E9, 9E9] ], v1000, fine, pen\WObj:=platform;
    
    !!1.8574814890202265, -0.09620000000000073;
    MoveL [ [4.227, -19.041, 46.201], [0.195, -0.973, -0.122, 0.000], [0, 0, 0, 0], [ 9E9, 9E9, 9E9, 9E9, 9E9, 9E9] ], v1000, fine, pen\WObj:=platform;
    MoveL [ [1.857, -0.096, -0.010], [0.195, -0.973, -0.122, 0.000], [0, 0, 0, 0], [ 9E9, 9E9, 9E9, 9E9, 9E9, 9E9] ], v30, fine, pen\WObj:=platform;
    MoveL [ [4.227, -19.041, 46.201], [0.195, -0.973, -0.122, 0.000], [0, 0, 0, 0], [ 9E9, 9E9, 9E9, 9E9, 9E9, 9E9] ], v1000, fine, pen\WObj:=platform;
    
    !!1.974568123611883, -0.09620000000000073;
    MoveL [ [6.315, 6.934, 49.303], [0.083, 0.848, -0.523, 0.000], [0, 0, 0, 0], [ 9E9, 9E9, 9E9, 9E9, 9E9, 9E9] ], v1000, fine, pen\WObj:=platform;
    MoveL [ [1.975, -0.096, -0.010], [0.083, 0.848, -0.523, 0.000], [0, 0, 0, 0], [ 9E9, 9E9, 9E9, 9E9, 9E9, 9E9] ], v30, fine, pen\WObj:=platform;
    MoveL [ [6.315, 6.934, 49.303], [0.083, 0.848, -0.523, 0.000], [0, 0, 0, 0], [ 9E9, 9E9, 9E9, 9E9, 9E9, 9E9] ], v1000, fine, pen\WObj:=platform;
    
    !!2.0916547582035387, -0.09620000000000073;
    MoveL [ [-1.646, 3.636, 49.710], [0.053, 0.706, 0.707, 0.000], [0, 0, 0, 0], [ 9E9, 9E9, 9E9, 9E9, 9E9, 9E9] ], v1000, fine, pen\WObj:=platform;
    MoveL [ [2.092, -0.096, -0.010], [0.053, 0.706, 0.707, 0.000], [0, 0, 0, 0], [ 9E9, 9E9, 9E9, 9E9, 9E9, 9E9] ], v30, fine, pen\WObj:=platform;
    MoveL [ [-1.646, 3.636, 49.710], [0.053, 0.706, 0.707, 0.000], [0, 0, 0, 0], [ 9E9, 9E9, 9E9, 9E9, 9E9, 9E9] ], v1000, fine, pen\WObj:=platform;
    
    !!2.208741392795194, -0.09620000000000073;
    MoveL [ [-1.626, 3.650, 49.702], [0.054, 0.698, 0.714, 0.000], [0, 0, 0, 0], [ 9E9, 9E9, 9E9, 9E9, 9E9, 9E9] ], v1000, fine, pen\WObj:=platform;
    MoveL [ [2.209, -0.096, -0.010], [0.054, 0.698, 0.714, 0.000], [0, 0, 0, 0], [ 9E9, 9E9, 9E9, 9E9, 9E9, 9E9] ], v30, fine, pen\WObj:=platform;
    MoveL [ [-1.626, 3.650, 49.702], [0.054, 0.698, 0.714, 0.000], [0, 0, 0, 0], [ 9E9, 9E9, 9E9, 9E9, 9E9, 9E9] ], v1000, fine, pen\WObj:=platform;
    
    !!2.3258280273868506, -0.09620000000000073;
    MoveL [ [4.291, -19.176, 46.165], [0.196, -0.976, -0.100, 0.000], [0, 0, 0, 0], [ 9E9, 9E9, 9E9, 9E9, 9E9, 9E9] ], v1000, fine, pen\WObj:=platform;
    MoveL [ [2.326, -0.096, -0.010], [0.196, -0.976, -0.100, 0.000], [0, 0, 0, 0], [ 9E9, 9E9, 9E9, 9E9, 9E9, 9E9] ], v30, fine, pen\WObj:=platform;
    MoveL [ [4.291, -19.176, 46.165], [0.196, -0.976, -0.100, 0.000], [0, 0, 0, 0], [ 9E9, 9E9, 9E9, 9E9, 9E9, 9E9] ], v1000, fine, pen\WObj:=platform;
    
    !!2.4429146619785067, -0.09620000000000073;
    MoveL [ [-1.587, 3.679, 49.684], [0.055, 0.683, 0.729, 0.000], [0, 0, 0, 0], [ 9E9, 9E9, 9E9, 9E9, 9E9, 9E9] ], v1000, fine, pen\WObj:=platform;
    MoveL [ [2.443, -0.096, -0.010], [0.055, 0.683, 0.729, 0.000], [0, 0, 0, 0], [ 9E9, 9E9, 9E9, 9E9, 9E9, 9E9] ], v30, fine, pen\WObj:=platform;
    MoveL [ [-1.587, 3.679, 49.684], [0.055, 0.683, 0.729, 0.000], [0, 0, 0, 0], [ 9E9, 9E9, 9E9, 9E9, 9E9, 9E9] ], v1000, fine, pen\WObj:=platform;
    
    !!2.5600012965701624, -0.09620000000000073;
    MoveL [ [4.323, -19.243, 46.145], [0.196, -0.976, -0.090, 0.000], [0, 0, 0, 0], [ 9E9, 9E9, 9E9, 9E9, 9E9, 9E9] ], v1000, fine, pen\WObj:=platform;
    MoveL [ [2.560, -0.096, -0.010], [0.196, -0.976, -0.090, 0.000], [0, 0, 0, 0], [ 9E9, 9E9, 9E9, 9E9, 9E9, 9E9] ], v30, fine, pen\WObj:=platform;
    MoveL [ [4.323, -19.243, 46.145], [0.196, -0.976, -0.090, 0.000], [0, 0, 0, 0], [ 9E9, 9E9, 9E9, 9E9, 9E9, 9E9] ], v1000, fine, pen\WObj:=platform;
    
    !!2.677087931161819, -0.09620000000000073;
    MoveL [ [-1.548, 3.707, 49.666], [0.057, 0.668, 0.742, 0.000], [0, 0, 0, 0], [ 9E9, 9E9, 9E9, 9E9, 9E9, 9E9] ], v1000, fine, pen\WObj:=platform;
    MoveL [ [2.677, -0.096, -0.010], [0.057, 0.668, 0.742, 0.000], [0, 0, 0, 0], [ 9E9, 9E9, 9E9, 9E9, 9E9, 9E9] ], v30, fine, pen\WObj:=platform;
    MoveL [ [-1.548, 3.707, 49.666], [0.057, 0.668, 0.742, 0.000], [0, 0, 0, 0], [ 9E9, 9E9, 9E9, 9E9, 9E9, 9E9] ], v1000, fine, pen\WObj:=platform;
    
    !!2.7941745657534756, -0.09620000000000073;
    MoveL [ [-4.056, 2.730, 49.438], [0.074, 0.380, 0.922, 0.000], [0, 0, 0, 0], [ 9E9, 9E9, 9E9, 9E9, 9E9, 9E9] ], v1000, fine, pen\WObj:=platform;
    MoveL [ [2.794, -0.096, -0.010], [0.074, 0.380, 0.922, 0.000], [0, 0, 0, 0], [ 9E9, 9E9, 9E9, 9E9, 9E9, 9E9] ], v30, fine, pen\WObj:=platform;
    MoveL [ [-4.056, 2.730, 49.438], [0.074, 0.380, 0.922, 0.000], [0, 0, 0, 0], [ 9E9, 9E9, 9E9, 9E9, 9E9, 9E9] ], v1000, fine, pen\WObj:=platform;
    
    !!2.911261200345132, -0.09620000000000073;
    MoveL [ [4.369, -19.344, 46.114], [0.197, -0.978, -0.074, 0.000], [0, 0, 0, 0], [ 9E9, 9E9, 9E9, 9E9, 9E9, 9E9] ], v1000, fine, pen\WObj:=platform;
    MoveL [ [2.911, -0.096, -0.010], [0.197, -0.978, -0.074, 0.000], [0, 0, 0, 0], [ 9E9, 9E9, 9E9, 9E9, 9E9, 9E9] ], v30, fine, pen\WObj:=platform;
    MoveL [ [4.369, -19.344, 46.114], [0.197, -0.978, -0.074, 0.000], [0, 0, 0, 0], [ 9E9, 9E9, 9E9, 9E9, 9E9, 9E9] ], v1000, fine, pen\WObj:=platform;
    
    !!3.0283478349367874, -0.09620000000000073;
    MoveL [ [-1.489, 3.750, 49.637], [0.059, 0.647, 0.760, 0.000], [0, 0, 0, 0], [ 9E9, 9E9, 9E9, 9E9, 9E9, 9E9] ], v1000, fine, pen\WObj:=platform;
    MoveL [ [3.028, -0.096, -0.010], [0.059, 0.647, 0.760, 0.000], [0, 0, 0, 0], [ 9E9, 9E9, 9E9, 9E9, 9E9, 9E9] ], v30, fine, pen\WObj:=platform;
    MoveL [ [-1.489, 3.750, 49.637], [0.059, 0.647, 0.760, 0.000], [0, 0, 0, 0], [ 9E9, 9E9, 9E9, 9E9, 9E9, 9E9] ], v1000, fine, pen\WObj:=platform;
    
    !!3.1454344695284444, -0.09620000000000073;
    MoveL [ [4.400, -19.411, 46.092], [0.197, -0.978, -0.064, 0.000], [0, 0, 0, 0], [ 9E9, 9E9, 9E9, 9E9, 9E9, 9E9] ], v1000, fine, pen\WObj:=platform;
    MoveL [ [3.145, -0.096, -0.010], [0.197, -0.978, -0.064, 0.000], [0, 0, 0, 0], [ 9E9, 9E9, 9E9, 9E9, 9E9, 9E9] ], v30, fine, pen\WObj:=platform;
    MoveL [ [4.400, -19.411, 46.092], [0.197, -0.978, -0.064, 0.000], [0, 0, 0, 0], [ 9E9, 9E9, 9E9, 9E9, 9E9, 9E9] ], v1000, fine, pen\WObj:=platform;
    
    !!3.2625211041200997, -0.09620000000000073;
    MoveL [ [6.526, 7.315, 49.330], [0.081, 0.912, -0.402, 0.000], [0, 0, 0, 0], [ 9E9, 9E9, 9E9, 9E9, 9E9, 9E9] ], v1000, fine, pen\WObj:=platform;
    MoveL [ [3.263, -0.096, -0.010], [0.081, 0.912, -0.402, 0.000], [0, 0, 0, 0], [ 9E9, 9E9, 9E9, 9E9, 9E9, 9E9] ], v30, fine, pen\WObj:=platform;
    MoveL [ [6.526, 7.315, 49.330], [0.081, 0.912, -0.402, 0.000], [0, 0, 0, 0], [ 9E9, 9E9, 9E9, 9E9, 9E9, 9E9] ], v1000, fine, pen\WObj:=platform;
    
    !!3.379607738711755, -0.09620000000000073;
    MoveL [ [6.545, 7.350, 49.331], [0.081, 0.917, -0.390, 0.000], [0, 0, 0, 0], [ 9E9, 9E9, 9E9, 9E9, 9E9, 9E9] ], v1000, fine, pen\WObj:=platform;
    MoveL [ [3.380, -0.096, -0.010], [0.081, 0.917, -0.390, 0.000], [0, 0, 0, 0], [ 9E9, 9E9, 9E9, 9E9, 9E9, 9E9] ], v30, fine, pen\WObj:=platform;
    MoveL [ [6.545, 7.350, 49.331], [0.081, 0.917, -0.390, 0.000], [0, 0, 0, 0], [ 9E9, 9E9, 9E9, 9E9, 9E9, 9E9] ], v1000, fine, pen\WObj:=platform;
    
    !!3.496694373303412, -0.09620000000000073;
    MoveL [ [-1.410, 3.806, 49.595], [0.063, 0.621, 0.781, 0.000], [0, 0, 0, 0], [ 9E9, 9E9, 9E9, 9E9, 9E9, 9E9] ], v1000, fine, pen\WObj:=platform;
    MoveL [ [3.497, -0.096, -0.010], [0.063, 0.621, 0.781, 0.000], [0, 0, 0, 0], [ 9E9, 9E9, 9E9, 9E9, 9E9, 9E9] ], v30, fine, pen\WObj:=platform;
    MoveL [ [-1.410, 3.806, 49.595], [0.063, 0.621, 0.781, 0.000], [0, 0, 0, 0], [ 9E9, 9E9, 9E9, 9E9, 9E9, 9E9] ], v1000, fine, pen\WObj:=platform;
    
    !!3.613781007895068, -0.09620000000000073;
    MoveL [ [6.581, 7.419, 49.333], [0.081, 0.927, -0.366, 0.000], [0, 0, 0, 0], [ 9E9, 9E9, 9E9, 9E9, 9E9, 9E9] ], v1000, fine, pen\WObj:=platform;
    MoveL [ [3.614, -0.096, -0.010], [0.081, 0.927, -0.366, 0.000], [0, 0, 0, 0], [ 9E9, 9E9, 9E9, 9E9, 9E9, 9E9] ], v30, fine, pen\WObj:=platform;
    MoveL [ [6.581, 7.419, 49.333], [0.081, 0.927, -0.366, 0.000], [0, 0, 0, 0], [ 9E9, 9E9, 9E9, 9E9, 9E9, 9E9] ], v1000, fine, pen\WObj:=platform;
    
    !!3.730867642486724, -0.09620000000000073;
    MoveL [ [-1.371, 3.834, 49.574], [0.065, 0.609, 0.791, 0.000], [0, 0, 0, 0], [ 9E9, 9E9, 9E9, 9E9, 9E9, 9E9] ], v1000, fine, pen\WObj:=platform;
    MoveL [ [3.731, -0.096, -0.010], [0.065, 0.609, 0.791, 0.000], [0, 0, 0, 0], [ 9E9, 9E9, 9E9, 9E9, 9E9, 9E9] ], v30, fine, pen\WObj:=platform;
    MoveL [ [-1.371, 3.834, 49.574], [0.065, 0.609, 0.791, 0.000], [0, 0, 0, 0], [ 9E9, 9E9, 9E9, 9E9, 9E9, 9E9] ], v1000, fine, pen\WObj:=platform;
    
    !!3.84795427707838, -0.09620000000000073;
    MoveL [ [-3.833, 2.823, 49.310], [0.082, 0.354, 0.932, 0.000], [0, 0, 0, 0], [ 9E9, 9E9, 9E9, 9E9, 9E9, 9E9] ], v1000, fine, pen\WObj:=platform;
    MoveL [ [3.848, -0.096, -0.010], [0.082, 0.354, 0.932, 0.000], [0, 0, 0, 0], [ 9E9, 9E9, 9E9, 9E9, 9E9, 9E9] ], v30, fine, pen\WObj:=platform;
    MoveL [ [-3.833, 2.823, 49.310], [0.082, 0.354, 0.932, 0.000], [0, 0, 0, 0], [ 9E9, 9E9, 9E9, 9E9, 9E9, 9E9] ], v1000, fine, pen\WObj:=platform;
    
    !!3.9650409116700365, -0.09620000000000073;
    MoveL [ [-3.808, 2.833, 49.295], [0.083, 0.351, 0.933, 0.000], [0, 0, 0, 0], [ 9E9, 9E9, 9E9, 9E9, 9E9, 9E9] ], v1000, fine, pen\WObj:=platform;
    MoveL [ [3.965, -0.096, -0.010], [0.083, 0.351, 0.933, 0.000], [0, 0, 0, 0], [ 9E9, 9E9, 9E9, 9E9, 9E9, 9E9] ], v30, fine, pen\WObj:=platform;
    MoveL [ [-3.808, 2.833, 49.295], [0.083, 0.351, 0.933, 0.000], [0, 0, 0, 0], [ 9E9, 9E9, 9E9, 9E9, 9E9, 9E9] ], v1000, fine, pen\WObj:=platform;
    
    !!4.082127546261693, -0.09620000000000073;
    MoveL [ [4.516, -19.675, 45.995], [0.200, -0.980, -0.022, 0.000], [0, 0, 0, 0], [ 9E9, 9E9, 9E9, 9E9, 9E9, 9E9] ], v1000, fine, pen\WObj:=platform;
    MoveL [ [4.082, -0.096, -0.010], [0.200, -0.980, -0.022, 0.000], [0, 0, 0, 0], [ 9E9, 9E9, 9E9, 9E9, 9E9, 9E9] ], v30, fine, pen\WObj:=platform;
    MoveL [ [4.516, -19.675, 45.995], [0.200, -0.980, -0.022, 0.000], [0, 0, 0, 0], [ 9E9, 9E9, 9E9, 9E9, 9E9, 9E9] ], v1000, fine, pen\WObj:=platform;
    
    !!4.199214180853349, -0.09620000000000073;
    MoveL [ [-3.758, 2.853, 49.265], [0.085, 0.346, 0.934, 0.000], [0, 0, 0, 0], [ 9E9, 9E9, 9E9, 9E9, 9E9, 9E9] ], v1000, fine, pen\WObj:=platform;
    MoveL [ [4.199, -0.096, -0.010], [0.085, 0.346, 0.934, 0.000], [0, 0, 0, 0], [ 9E9, 9E9, 9E9, 9E9, 9E9, 9E9] ], v30, fine, pen\WObj:=platform;
    MoveL [ [-3.758, 2.853, 49.265], [0.085, 0.346, 0.934, 0.000], [0, 0, 0, 0], [ 9E9, 9E9, 9E9, 9E9, 9E9, 9E9] ], v1000, fine, pen\WObj:=platform;
    
    !!4.316300815445005, -0.09620000000000073;
    MoveL [ [4.544, -19.740, 45.969], [0.201, -0.980, -0.011, 0.000], [0, 0, 0, 0], [ 9E9, 9E9, 9E9, 9E9, 9E9, 9E9] ], v1000, fine, pen\WObj:=platform;
    MoveL [ [4.316, -0.096, -0.010], [0.201, -0.980, -0.011, 0.000], [0, 0, 0, 0], [ 9E9, 9E9, 9E9, 9E9, 9E9, 9E9] ], v30, fine, pen\WObj:=platform;
    MoveL [ [4.544, -19.740, 45.969], [0.201, -0.980, -0.011, 0.000], [0, 0, 0, 0], [ 9E9, 9E9, 9E9, 9E9, 9E9, 9E9] ], v1000, fine, pen\WObj:=platform;
    
    !!4.433387450036662, -0.09620000000000073;
    MoveL [ [6.702, 7.663, 49.332], [0.081, 0.957, -0.280, 0.000], [0, 0, 0, 0], [ 9E9, 9E9, 9E9, 9E9, 9E9, 9E9] ], v1000, fine, pen\WObj:=platform;
    MoveL [ [4.433, -0.096, -0.010], [0.081, 0.957, -0.280, 0.000], [0, 0, 0, 0], [ 9E9, 9E9, 9E9, 9E9, 9E9, 9E9] ], v30, fine, pen\WObj:=platform;
    MoveL [ [6.702, 7.663, 49.332], [0.081, 0.957, -0.280, 0.000], [0, 0, 0, 0], [ 9E9, 9E9, 9E9, 9E9, 9E9, 9E9] ], v1000, fine, pen\WObj:=platform;
    
    !!4.550474084628318, -0.09620000000000073;
    MoveL [ [4.571, -19.805, 45.942], [0.201, -0.980, -0.001, 0.000], [0, 0, 0, 0], [ 9E9, 9E9, 9E9, 9E9, 9E9, 9E9] ], v1000, fine, pen\WObj:=platform;
    MoveL [ [4.550, -0.096, -0.010], [0.201, -0.980, -0.001, 0.000], [0, 0, 0, 0], [ 9E9, 9E9, 9E9, 9E9, 9E9, 9E9] ], v30, fine, pen\WObj:=platform;
    MoveL [ [4.571, -19.805, 45.942], [0.201, -0.980, -0.001, 0.000], [0, 0, 0, 0], [ 9E9, 9E9, 9E9, 9E9, 9E9, 9E9] ], v1000, fine, pen\WObj:=platform;
    
    !!4.667560719219973, -0.09620000000000073;
    MoveL [ [4.585, -19.837, 45.928], [0.202, -0.979, 0.004, 0.000], [0, 0, 0, 0], [ 9E9, 9E9, 9E9, 9E9, 9E9, 9E9] ], v1000, fine, pen\WObj:=platform;
    MoveL [ [4.668, -0.096, -0.010], [0.202, -0.979, 0.004, 0.000], [0, 0, 0, 0], [ 9E9, 9E9, 9E9, 9E9, 9E9, 9E9] ], v30, fine, pen\WObj:=platform;
    MoveL [ [4.585, -19.837, 45.928], [0.202, -0.979, 0.004, 0.000], [0, 0, 0, 0], [ 9E9, 9E9, 9E9, 9E9, 9E9, 9E9] ], v1000, fine, pen\WObj:=platform;
    
    !!4.784647353811628, -0.09620000000000073;
    MoveL [ [-1.192, 3.957, 49.466], [0.072, 0.560, 0.825, 0.000], [0, 0, 0, 0], [ 9E9, 9E9, 9E9, 9E9, 9E9, 9E9] ], v1000, fine, pen\WObj:=platform;
    MoveL [ [4.785, -0.096, -0.010], [0.072, 0.560, 0.825, 0.000], [0, 0, 0, 0], [ 9E9, 9E9, 9E9, 9E9, 9E9, 9E9] ], v30, fine, pen\WObj:=platform;
    MoveL [ [-1.192, 3.957, 49.466], [0.072, 0.560, 0.825, 0.000], [0, 0, 0, 0], [ 9E9, 9E9, 9E9, 9E9, 9E9, 9E9] ], v1000, fine, pen\WObj:=platform;
    
    !!-4.875, -0.1976;
    MoveL [ [-2.743, 2.800, 49.855], [0.037, 0.814, -0.579, 0.000], [0, 0, 0, 0], [ 9E9, 9E9, 9E9, 9E9, 9E9, 9E9] ], v1000, fine, pen\WObj:=platform;
    MoveL [ [-4.875, -0.198, -0.010], [0.037, 0.814, -0.579, 0.000], [0, 0, 0, 0], [ 9E9, 9E9, 9E9, 9E9, 9E9, 9E9] ], v30, fine, pen\WObj:=platform;
    MoveL [ [-2.743, 2.800, 49.855], [0.037, 0.814, -0.579, 0.000], [0, 0, 0, 0], [ 9E9, 9E9, 9E9, 9E9, 9E9, 9E9] ], v1000, fine, pen\WObj:=platform;
    
    !!-4.757913365408345, -0.1976;
    MoveL [ [4.993, 5.133, 48.739], [0.112, 0.477, -0.872, 0.000], [0, 0, 0, 0], [ 9E9, 9E9, 9E9, 9E9, 9E9, 9E9] ], v1000, fine, pen\WObj:=platform;
    MoveL [ [-4.758, -0.198, -0.010], [0.112, 0.477, -0.872, 0.000], [0, 0, 0, 0], [ 9E9, 9E9, 9E9, 9E9, 9E9, 9E9] ], v30, fine, pen\WObj:=platform;
    MoveL [ [4.993, 5.133, 48.739], [0.112, 0.477, -0.872, 0.000], [0, 0, 0, 0], [ 9E9, 9E9, 9E9, 9E9, 9E9, 9E9] ], v1000, fine, pen\WObj:=platform;
    
    !!-4.640826730816689, -0.1976;
    MoveL [ [-2.709, 2.830, 49.861], [0.036, 0.843, -0.537, 0.000], [0, 0, 0, 0], [ 9E9, 9E9, 9E9, 9E9, 9E9, 9E9] ], v1000, fine, pen\WObj:=platform;
    MoveL [ [-4.641, -0.198, -0.010], [0.036, 0.843, -0.537, 0.000], [0, 0, 0, 0], [ 9E9, 9E9, 9E9, 9E9, 9E9, 9E9] ], v30, fine, pen\WObj:=platform;
    MoveL [ [-2.709, 2.830, 49.861], [0.036, 0.843, -0.537, 0.000], [0, 0, 0, 0], [ 9E9, 9E9, 9E9, 9E9, 9E9, 9E9] ], v1000, fine, pen\WObj:=platform;
    
    !!-4.523740096225032, -0.1976;
    MoveL [ [-2.693, 2.845, 49.864], [0.036, 0.856, -0.515, 0.000], [0, 0, 0, 0], [ 9E9, 9E9, 9E9, 9E9, 9E9, 9E9] ], v1000, fine, pen\WObj:=platform;
    MoveL [ [-4.524, -0.198, -0.010], [0.036, 0.856, -0.515, 0.000], [0, 0, 0, 0], [ 9E9, 9E9, 9E9, 9E9, 9E9, 9E9] ], v30, fine, pen\WObj:=platform;
    MoveL [ [-2.693, 2.845, 49.864], [0.036, 0.856, -0.515, 0.000], [0, 0, 0, 0], [ 9E9, 9E9, 9E9, 9E9, 9E9, 9E9] ], v1000, fine, pen\WObj:=platform;
    
    !!-4.4066534616333755, -0.1976;
    MoveL [ [3.287, -17.102, 46.413], [0.189, -0.894, -0.407, 0.000], [0, 0, 0, 0], [ 9E9, 9E9, 9E9, 9E9, 9E9, 9E9] ], v1000, fine, pen\WObj:=platform;
    MoveL [ [-4.407, -0.198, -0.010], [0.189, -0.894, -0.407, 0.000], [0, 0, 0, 0], [ 9E9, 9E9, 9E9, 9E9, 9E9, 9E9] ], v30, fine, pen\WObj:=platform;
    MoveL [ [3.287, -17.102, 46.413], [0.189, -0.894, -0.407, 0.000], [0, 0, 0, 0], [ 9E9, 9E9, 9E9, 9E9, 9E9, 9E9] ], v1000, fine, pen\WObj:=platform;
    
    !!-4.289566827041719, -0.1976;
    MoveL [ [-2.659, 2.876, 49.869], [0.035, 0.883, -0.468, 0.000], [0, 0, 0, 0], [ 9E9, 9E9, 9E9, 9E9, 9E9, 9E9] ], v1000, fine, pen\WObj:=platform;
    MoveL [ [-4.290, -0.198, -0.010], [0.035, 0.883, -0.468, 0.000], [0, 0, 0, 0], [ 9E9, 9E9, 9E9, 9E9, 9E9, 9E9] ], v30, fine, pen\WObj:=platform;
    MoveL [ [-2.659, 2.876, 49.869], [0.035, 0.883, -0.468, 0.000], [0, 0, 0, 0], [ 9E9, 9E9, 9E9, 9E9, 9E9, 9E9] ], v1000, fine, pen\WObj:=platform;
    
    !!-4.172480192450063, -0.1976;
    MoveL [ [-2.642, 2.891, 49.871], [0.034, 0.896, -0.444, 0.000], [0, 0, 0, 0], [ 9E9, 9E9, 9E9, 9E9, 9E9, 9E9] ], v1000, fine, pen\WObj:=platform;
    MoveL [ [-4.172, -0.198, -0.010], [0.034, 0.896, -0.444, 0.000], [0, 0, 0, 0], [ 9E9, 9E9, 9E9, 9E9, 9E9, 9E9] ], v30, fine, pen\WObj:=platform;
    MoveL [ [-2.642, 2.891, 49.871], [0.034, 0.896, -0.444, 0.000], [0, 0, 0, 0], [ 9E9, 9E9, 9E9, 9E9, 9E9, 9E9] ], v1000, fine, pen\WObj:=platform;
    
    !!-4.055393557858408, -0.1976;
    MoveL [ [-2.625, 2.906, 49.873], [0.034, 0.908, -0.418, 0.000], [0, 0, 0, 0], [ 9E9, 9E9, 9E9, 9E9, 9E9, 9E9] ], v1000, fine, pen\WObj:=platform;
    MoveL [ [-4.055, -0.198, -0.010], [0.034, 0.908, -0.418, 0.000], [0, 0, 0, 0], [ 9E9, 9E9, 9E9, 9E9, 9E9, 9E9] ], v30, fine, pen\WObj:=platform;
    MoveL [ [-2.625, 2.906, 49.873], [0.034, 0.908, -0.418, 0.000], [0, 0, 0, 0], [ 9E9, 9E9, 9E9, 9E9, 9E9, 9E9] ], v1000, fine, pen\WObj:=platform;
    
    !!-3.938306923266751, -0.1976;
    MoveL [ [3.364, -17.243, 46.424], [0.189, -0.903, -0.387, 0.000], [0, 0, 0, 0], [ 9E9, 9E9, 9E9, 9E9, 9E9, 9E9] ], v1000, fine, pen\WObj:=platform;
    MoveL [ [-3.938, -0.198, -0.010], [0.189, -0.903, -0.387, 0.000], [0, 0, 0, 0], [ 9E9, 9E9, 9E9, 9E9, 9E9, 9E9] ], v30, fine, pen\WObj:=platform;
    MoveL [ [3.364, -17.243, 46.424], [0.189, -0.903, -0.387, 0.000], [0, 0, 0, 0], [ 9E9, 9E9, 9E9, 9E9, 9E9, 9E9] ], v1000, fine, pen\WObj:=platform;
    
    !!-3.8212202886750957, -0.1976;
    MoveL [ [-2.591, 2.937, 49.876], [0.034, 0.930, -0.365, 0.000], [0, 0, 0, 0], [ 9E9, 9E9, 9E9, 9E9, 9E9, 9E9] ], v1000, fine, pen\WObj:=platform;
    MoveL [ [-3.821, -0.198, -0.010], [0.034, 0.930, -0.365, 0.000], [0, 0, 0, 0], [ 9E9, 9E9, 9E9, 9E9, 9E9, 9E9] ], v30, fine, pen\WObj:=platform;
    MoveL [ [-2.591, 2.937, 49.876], [0.034, 0.930, -0.365, 0.000], [0, 0, 0, 0], [ 9E9, 9E9, 9E9, 9E9, 9E9, 9E9] ], v1000, fine, pen\WObj:=platform;
    
    !!-3.7041336540834395, -0.1976;
    MoveL [ [5.207, 5.419, 48.868], [0.106, 0.530, -0.841, 0.000], [0, 0, 0, 0], [ 9E9, 9E9, 9E9, 9E9, 9E9, 9E9] ], v1000, fine, pen\WObj:=platform;
    MoveL [ [-3.704, -0.198, -0.010], [0.106, 0.530, -0.841, 0.000], [0, 0, 0, 0], [ 9E9, 9E9, 9E9, 9E9, 9E9, 9E9] ], v30, fine, pen\WObj:=platform;
    MoveL [ [5.207, 5.419, 48.868], [0.106, 0.530, -0.841, 0.000], [0, 0, 0, 0], [ 9E9, 9E9, 9E9, 9E9, 9E9, 9E9] ], v1000, fine, pen\WObj:=platform;
    
    !!-3.587047019491783, -0.1976;
    MoveL [ [3.422, -17.349, 46.430], [0.189, -0.909, -0.371, 0.000], [0, 0, 0, 0], [ 9E9, 9E9, 9E9, 9E9, 9E9, 9E9] ], v1000, fine, pen\WObj:=platform;
    MoveL [ [-3.587, -0.198, -0.010], [0.189, -0.909, -0.371, 0.000], [0, 0, 0, 0], [ 9E9, 9E9, 9E9, 9E9, 9E9, 9E9] ], v30, fine, pen\WObj:=platform;
    MoveL [ [3.422, -17.349, 46.430], [0.189, -0.909, -0.371, 0.000], [0, 0, 0, 0], [ 9E9, 9E9, 9E9, 9E9, 9E9, 9E9] ], v1000, fine, pen\WObj:=platform;
    
    !!-3.4699603849001273, -0.1976;
    MoveL [ [5.254, 5.484, 48.894], [0.105, 0.543, -0.833, 0.000], [0, 0, 0, 0], [ 9E9, 9E9, 9E9, 9E9, 9E9, 9E9] ], v1000, fine, pen\WObj:=platform;
    MoveL [ [-3.470, -0.198, -0.010], [0.105, 0.543, -0.833, 0.000], [0, 0, 0, 0], [ 9E9, 9E9, 9E9, 9E9, 9E9, 9E9] ], v30, fine, pen\WObj:=platform;
    MoveL [ [5.254, 5.484, 48.894], [0.105, 0.543, -0.833, 0.000], [0, 0, 0, 0], [ 9E9, 9E9, 9E9, 9E9, 9E9, 9E9] ], v1000, fine, pen\WObj:=platform;
    
    !!-3.352873750308471, -0.1976;
    MoveL [ [-2.522, 2.998, 49.881], [0.033, 0.967, -0.252, 0.000], [0, 0, 0, 0], [ 9E9, 9E9, 9E9, 9E9, 9E9, 9E9] ], v1000, fine, pen\WObj:=platform;
    MoveL [ [-3.353, -0.198, -0.010], [0.033, 0.967, -0.252, 0.000], [0, 0, 0, 0], [ 9E9, 9E9, 9E9, 9E9, 9E9, 9E9] ], v30, fine, pen\WObj:=platform;
    MoveL [ [-2.522, 2.998, 49.881], [0.033, 0.967, -0.252, 0.000], [0, 0, 0, 0], [ 9E9, 9E9, 9E9, 9E9, 9E9, 9E9] ], v1000, fine, pen\WObj:=platform;
    
    !!-3.235787115716815, -0.1976;
    MoveL [ [5.301, 5.548, 48.920], [0.103, 0.555, -0.825, 0.000], [0, 0, 0, 0], [ 9E9, 9E9, 9E9, 9E9, 9E9, 9E9] ], v1000, fine, pen\WObj:=platform;
    MoveL [ [-3.236, -0.198, -0.010], [0.103, 0.555, -0.825, 0.000], [0, 0, 0, 0], [ 9E9, 9E9, 9E9, 9E9, 9E9, 9E9] ], v30, fine, pen\WObj:=platform;
    MoveL [ [5.301, 5.548, 48.920], [0.103, 0.555, -0.825, 0.000], [0, 0, 0, 0], [ 9E9, 9E9, 9E9, 9E9, 9E9, 9E9] ], v1000, fine, pen\WObj:=platform;
    
    !!-3.118700481125159, -0.1976;
    MoveL [ [3.498, -17.490, 46.435], [0.189, -0.917, -0.351, 0.000], [0, 0, 0, 0], [ 9E9, 9E9, 9E9, 9E9, 9E9, 9E9] ], v1000, fine, pen\WObj:=platform;
    MoveL [ [-3.119, -0.198, -0.010], [0.189, -0.917, -0.351, 0.000], [0, 0, 0, 0], [ 9E9, 9E9, 9E9, 9E9, 9E9, 9E9] ], v30, fine, pen\WObj:=platform;
    MoveL [ [3.498, -17.490, 46.435], [0.189, -0.917, -0.351, 0.000], [0, 0, 0, 0], [ 9E9, 9E9, 9E9, 9E9, 9E9, 9E9] ], v1000, fine, pen\WObj:=platform;
    
    !!-3.0016138465335023, -0.1976;
    MoveL [ [3.517, -17.526, 46.436], [0.189, -0.919, -0.346, 0.000], [0, 0, 0, 0], [ 9E9, 9E9, 9E9, 9E9, 9E9, 9E9] ], v1000, fine, pen\WObj:=platform;
    MoveL [ [-3.002, -0.198, -0.010], [0.189, -0.919, -0.346, 0.000], [0, 0, 0, 0], [ 9E9, 9E9, 9E9, 9E9, 9E9, 9E9] ], v30, fine, pen\WObj:=platform;
    MoveL [ [3.517, -17.526, 46.436], [0.189, -0.919, -0.346, 0.000], [0, 0, 0, 0], [ 9E9, 9E9, 9E9, 9E9, 9E9, 9E9] ], v1000, fine, pen\WObj:=platform;
    
    !!-2.8845272119418466, -0.1976;
    MoveL [ [-2.452, 3.059, 49.882], [0.033, 0.991, -0.132, 0.000], [0, 0, 0, 0], [ 9E9, 9E9, 9E9, 9E9, 9E9, 9E9] ], v1000, fine, pen\WObj:=platform;
    MoveL [ [-2.885, -0.198, -0.010], [0.033, 0.991, -0.132, 0.000], [0, 0, 0, 0], [ 9E9, 9E9, 9E9, 9E9, 9E9, 9E9] ], v30, fine, pen\WObj:=platform;
    MoveL [ [-2.452, 3.059, 49.882], [0.033, 0.991, -0.132, 0.000], [0, 0, 0, 0], [ 9E9, 9E9, 9E9, 9E9, 9E9, 9E9] ], v1000, fine, pen\WObj:=platform;
    
    !!-2.7674405773501904, -0.1976;
    MoveL [ [-2.434, 3.074, 49.882], [0.033, 0.994, -0.101, 0.000], [0, 0, 0, 0], [ 9E9, 9E9, 9E9, 9E9, 9E9, 9E9] ], v1000, fine, pen\WObj:=platform;
    MoveL [ [-2.767, -0.198, -0.010], [0.033, 0.994, -0.101, 0.000], [0, 0, 0, 0], [ 9E9, 9E9, 9E9, 9E9, 9E9, 9E9] ], v30, fine, pen\WObj:=platform;
    MoveL [ [-2.434, 3.074, 49.882], [0.033, 0.994, -0.101, 0.000], [0, 0, 0, 0], [ 9E9, 9E9, 9E9, 9E9, 9E9, 9E9] ], v1000, fine, pen\WObj:=platform;
    
    !!-2.650353942758534, -0.1976;
    MoveL [ [-5.102, 2.257, 49.869], [0.035, 0.707, 0.706, 0.000], [0, 0, 0, 0], [ 9E9, 9E9, 9E9, 9E9, 9E9, 9E9] ], v1000, fine, pen\WObj:=platform;
    MoveL [ [-2.650, -0.198, -0.010], [0.035, 0.707, 0.706, 0.000], [0, 0, 0, 0], [ 9E9, 9E9, 9E9, 9E9, 9E9, 9E9] ], v30, fine, pen\WObj:=platform;
    MoveL [ [-5.102, 2.257, 49.869], [0.035, 0.707, 0.706, 0.000], [0, 0, 0, 0], [ 9E9, 9E9, 9E9, 9E9, 9E9, 9E9] ], v1000, fine, pen\WObj:=platform;
    
    !!-2.5332673081668777, -0.1976;
    MoveL [ [-2.399, 3.104, 49.881], [0.033, 0.999, -0.041, 0.000], [0, 0, 0, 0], [ 9E9, 9E9, 9E9, 9E9, 9E9, 9E9] ], v1000, fine, pen\WObj:=platform;
    MoveL [ [-2.533, -0.198, -0.010], [0.033, 0.999, -0.041, 0.000], [0, 0, 0, 0], [ 9E9, 9E9, 9E9, 9E9, 9E9, 9E9] ], v30, fine, pen\WObj:=platform;
    MoveL [ [-2.399, 3.104, 49.881], [0.033, 0.999, -0.041, 0.000], [0, 0, 0, 0], [ 9E9, 9E9, 9E9, 9E9, 9E9, 9E9] ], v1000, fine, pen\WObj:=platform;
    
    !!-2.4161806735752225, -0.1976;
    MoveL [ [3.612, -17.702, 46.436], [0.189, -0.929, -0.320, 0.000], [0, 0, 0, 0], [ 9E9, 9E9, 9E9, 9E9, 9E9, 9E9] ], v1000, fine, pen\WObj:=platform;
    MoveL [ [-2.416, -0.198, -0.010], [0.189, -0.929, -0.320, 0.000], [0, 0, 0, 0], [ 9E9, 9E9, 9E9, 9E9, 9E9, 9E9] ], v30, fine, pen\WObj:=platform;
    MoveL [ [3.612, -17.702, 46.436], [0.189, -0.929, -0.320, 0.000], [0, 0, 0, 0], [ 9E9, 9E9, 9E9, 9E9, 9E9, 9E9] ], v1000, fine, pen\WObj:=platform;
    
    !!-2.299094038983566, -0.1976;
    MoveL [ [-2.363, 3.134, 49.879], [0.033, 0.999, 0.019, 0.000], [0, 0, 0, 0], [ 9E9, 9E9, 9E9, 9E9, 9E9, 9E9] ], v1000, fine, pen\WObj:=platform;
    MoveL [ [-2.299, -0.198, -0.010], [0.033, 0.999, 0.019, 0.000], [0, 0, 0, 0], [ 9E9, 9E9, 9E9, 9E9, 9E9, 9E9] ], v30, fine, pen\WObj:=platform;
    MoveL [ [-2.363, 3.134, 49.879], [0.033, 0.999, 0.019, 0.000], [0, 0, 0, 0], [ 9E9, 9E9, 9E9, 9E9, 9E9, 9E9] ], v1000, fine, pen\WObj:=platform;
    
    !!-2.1820074043919098, -0.1976;
    MoveL [ [3.649, -17.772, 46.435], [0.189, -0.932, -0.309, 0.000], [0, 0, 0, 0], [ 9E9, 9E9, 9E9, 9E9, 9E9, 9E9] ], v1000, fine, pen\WObj:=platform;
    MoveL [ [-2.182, -0.198, -0.010], [0.189, -0.932, -0.309, 0.000], [0, 0, 0, 0], [ 9E9, 9E9, 9E9, 9E9, 9E9, 9E9] ], v30, fine, pen\WObj:=platform;
    MoveL [ [3.649, -17.772, 46.435], [0.189, -0.932, -0.309, 0.000], [0, 0, 0, 0], [ 9E9, 9E9, 9E9, 9E9, 9E9, 9E9] ], v1000, fine, pen\WObj:=platform;
    
    !!-2.064920769800253, -0.1976;
    MoveL [ [-2.327, 3.165, 49.876], [0.034, 0.996, 0.078, 0.000], [0, 0, 0, 0], [ 9E9, 9E9, 9E9, 9E9, 9E9, 9E9] ], v1000, fine, pen\WObj:=platform;
    MoveL [ [-2.065, -0.198, -0.010], [0.034, 0.996, 0.078, 0.000], [0, 0, 0, 0], [ 9E9, 9E9, 9E9, 9E9, 9E9, 9E9] ], v30, fine, pen\WObj:=platform;
    MoveL [ [-2.327, 3.165, 49.876], [0.034, 0.996, 0.078, 0.000], [0, 0, 0, 0], [ 9E9, 9E9, 9E9, 9E9, 9E9, 9E9] ], v1000, fine, pen\WObj:=platform;
    
    !!-1.9478341352085973, -0.1976;
    MoveL [ [5.557, 5.908, 49.045], [0.097, 0.628, -0.772, 0.000], [0, 0, 0, 0], [ 9E9, 9E9, 9E9, 9E9, 9E9, 9E9] ], v1000, fine, pen\WObj:=platform;
    MoveL [ [-1.948, -0.198, -0.010], [0.097, 0.628, -0.772, 0.000], [0, 0, 0, 0], [ 9E9, 9E9, 9E9, 9E9, 9E9, 9E9] ], v30, fine, pen\WObj:=platform;
    MoveL [ [5.557, 5.908, 49.045], [0.097, 0.628, -0.772, 0.000], [0, 0, 0, 0], [ 9E9, 9E9, 9E9, 9E9, 9E9, 9E9] ], v1000, fine, pen\WObj:=platform;
    
    !!-1.8307475006169414, -0.1976;
    MoveL [ [5.580, 5.941, 49.055], [0.097, 0.635, -0.766, 0.000], [0, 0, 0, 0], [ 9E9, 9E9, 9E9, 9E9, 9E9, 9E9] ], v1000, fine, pen\WObj:=platform;
    MoveL [ [-1.831, -0.198, -0.010], [0.097, 0.635, -0.766, 0.000], [0, 0, 0, 0], [ 9E9, 9E9, 9E9, 9E9, 9E9, 9E9] ], v30, fine, pen\WObj:=platform;
    MoveL [ [5.580, 5.941, 49.055], [0.097, 0.635, -0.766, 0.000], [0, 0, 0, 0], [ 9E9, 9E9, 9E9, 9E9, 9E9, 9E9] ], v1000, fine, pen\WObj:=platform;
    
    !!-1.7136608660252852, -0.1976;
    MoveL [ [5.603, 5.974, 49.065], [0.096, 0.642, -0.761, 0.000], [0, 0, 0, 0], [ 9E9, 9E9, 9E9, 9E9, 9E9, 9E9] ], v1000, fine, pen\WObj:=platform;
    MoveL [ [-1.714, -0.198, -0.010], [0.096, 0.642, -0.761, 0.000], [0, 0, 0, 0], [ 9E9, 9E9, 9E9, 9E9, 9E9, 9E9] ], v30, fine, pen\WObj:=platform;
    MoveL [ [5.603, 5.974, 49.065], [0.096, 0.642, -0.761, 0.000], [0, 0, 0, 0], [ 9E9, 9E9, 9E9, 9E9, 9E9, 9E9] ], v1000, fine, pen\WObj:=platform;
    
    !!-1.5965742314336293, -0.1976;
    MoveL [ [5.626, 6.008, 49.075], [0.096, 0.649, -0.755, 0.000], [0, 0, 0, 0], [ 9E9, 9E9, 9E9, 9E9, 9E9, 9E9] ], v1000, fine, pen\WObj:=platform;
    MoveL [ [-1.597, -0.198, -0.010], [0.096, 0.649, -0.755, 0.000], [0, 0, 0, 0], [ 9E9, 9E9, 9E9, 9E9, 9E9, 9E9] ], v30, fine, pen\WObj:=platform;
    MoveL [ [5.626, 6.008, 49.075], [0.096, 0.649, -0.755, 0.000], [0, 0, 0, 0], [ 9E9, 9E9, 9E9, 9E9, 9E9, 9E9] ], v1000, fine, pen\WObj:=platform;
    
    !!-1.479487596841973, -0.1976;
    MoveL [ [-2.236, 3.240, 49.866], [0.035, 0.976, 0.215, 0.000], [0, 0, 0, 0], [ 9E9, 9E9, 9E9, 9E9, 9E9, 9E9] ], v1000, fine, pen\WObj:=platform;
    MoveL [ [-1.479, -0.198, -0.010], [0.035, 0.976, 0.215, 0.000], [0, 0, 0, 0], [ 9E9, 9E9, 9E9, 9E9, 9E9, 9E9] ], v30, fine, pen\WObj:=platform;
    MoveL [ [-2.236, 3.240, 49.866], [0.035, 0.976, 0.215, 0.000], [0, 0, 0, 0], [ 9E9, 9E9, 9E9, 9E9, 9E9, 9E9] ], v1000, fine, pen\WObj:=platform;
    
    !!-1.3624009622503175, -0.1976;
    MoveL [ [5.671, 6.074, 49.094], [0.095, 0.663, -0.743, 0.000], [0, 0, 0, 0], [ 9E9, 9E9, 9E9, 9E9, 9E9, 9E9] ], v1000, fine, pen\WObj:=platform;
    MoveL [ [-1.362, -0.198, -0.010], [0.095, 0.663, -0.743, 0.000], [0, 0, 0, 0], [ 9E9, 9E9, 9E9, 9E9, 9E9, 9E9] ], v30, fine, pen\WObj:=platform;
    MoveL [ [5.671, 6.074, 49.094], [0.095, 0.663, -0.743, 0.000], [0, 0, 0, 0], [ 9E9, 9E9, 9E9, 9E9, 9E9, 9E9] ], v1000, fine, pen\WObj:=platform;
    
    !!-1.245314327658661, -0.1976;
    MoveL [ [5.694, 6.108, 49.103], [0.094, 0.669, -0.737, 0.000], [0, 0, 0, 0], [ 9E9, 9E9, 9E9, 9E9, 9E9, 9E9] ], v1000, fine, pen\WObj:=platform;
    MoveL [ [-1.245, -0.198, -0.010], [0.094, 0.669, -0.737, 0.000], [0, 0, 0, 0], [ 9E9, 9E9, 9E9, 9E9, 9E9, 9E9] ], v30, fine, pen\WObj:=platform;
    MoveL [ [5.694, 6.108, 49.103], [0.094, 0.669, -0.737, 0.000], [0, 0, 0, 0], [ 9E9, 9E9, 9E9, 9E9, 9E9, 9E9] ], v1000, fine, pen\WObj:=platform;
    
    !!-1.128227693067005, -0.1976;
    MoveL [ [5.717, 6.141, 49.112], [0.094, 0.676, -0.730, 0.000], [0, 0, 0, 0], [ 9E9, 9E9, 9E9, 9E9, 9E9, 9E9] ], v1000, fine, pen\WObj:=platform;
    MoveL [ [-1.128, -0.198, -0.010], [0.094, 0.676, -0.730, 0.000], [0, 0, 0, 0], [ 9E9, 9E9, 9E9, 9E9, 9E9, 9E9] ], v30, fine, pen\WObj:=platform;
    MoveL [ [5.717, 6.141, 49.112], [0.094, 0.676, -0.730, 0.000], [0, 0, 0, 0], [ 9E9, 9E9, 9E9, 9E9, 9E9, 9E9] ], v1000, fine, pen\WObj:=platform;
    
    !!-1.0111410584753484, -0.1976;
