MODULE MainModule
  PERS wobjdata platform := [ FALSE, TRUE, "", [ [800, 0, 600], [1, 0, 0 ,0] ], [ [0, 0, 0], [1, 0, 0 ,0] ] ];
  PERS tooldata pen := [ TRUE, [[0, 0, 100], [1, 0, 0 ,0]], [0.8,[0, 0, 30], [1, 0, 0, 0], 0, 0, 0]];
  PROC main()
    ConfL\Off;
    ConfJ\Off;
    SingArea\Wrist;
    !!-0.16887495373796527, -3.9000000000000004;
    MoveL [ [1.347, -6.419, 49.903], [0.029, -0.856, -0.515, 0.000], [0, 0, 0, 0], [ 9E9, 9E9, 9E9, 9E9, 9E9, 9E9] ], v1000, fine, pen\WObj:=platform;
    MoveL [ [-0.169, -3.900, -0.010], [0.029, -0.856, -0.515, 0.000], [0, 0, 0, 0], [ 9E9, 9E9, 9E9, 9E9, 9E9, 9E9] ], v30, fine, pen\WObj:=platform;
    MoveL [ [1.347, -6.419, 49.903], [0.029, -0.856, -0.515, 0.000], [0, 0, 0, 0], [ 9E9, 9E9, 9E9, 9E9, 9E9, 9E9] ], v1000, fine, pen\WObj:=platform;
    
    !!-0.6754998149518625, -3.022500000000001;
    MoveL [ [-8.407, -5.708, 49.316], [0.082, -0.327, 0.941, 0.000], [0, 0, 0, 0], [ 9E9, 9E9, 9E9, 9E9, 9E9, 9E9] ], v1000, fine, pen\WObj:=platform;
    MoveL [ [-0.675, -3.023, -0.010], [0.082, -0.327, 0.941, 0.000], [0, 0, 0, 0], [ 9E9, 9E9, 9E9, 9E9, 9E9, 9E9] ], v30, fine, pen\WObj:=platform;
    MoveL [ [-8.407, -5.708, 49.316], [0.082, -0.327, 0.941, 0.000], [0, 0, 0, 0], [ 9E9, 9E9, 9E9, 9E9, 9E9, 9E9] ], v1000, fine, pen\WObj:=platform;
    
    !!-0.7317914661978507, -2.9250000000000003;
    MoveL [ [-7.097, -4.724, 49.550], [0.066, -0.271, 0.960, 0.000], [0, 0, 0, 0], [ 9E9, 9E9, 9E9, 9E9, 9E9, 9E9] ], v1000, fine, pen\WObj:=platform;
    MoveL [ [-0.732, -2.925, -0.010], [0.066, -0.271, 0.960, 0.000], [0, 0, 0, 0], [ 9E9, 9E9, 9E9, 9E9, 9E9, 9E9] ], v30, fine, pen\WObj:=platform;
    MoveL [ [-7.097, -4.724, 49.550], [0.066, -0.271, 0.960, 0.000], [0, 0, 0, 0], [ 9E9, 9E9, 9E9, 9E9, 9E9, 9E9] ], v1000, fine, pen\WObj:=platform;
    
    !!-0.7880831174438395, -2.8275000000000006;
    MoveL [ [-8.382, -5.944, 49.312], [0.082, -0.378, 0.922, 0.000], [0, 0, 0, 0], [ 9E9, 9E9, 9E9, 9E9, 9E9, 9E9] ], v1000, fine, pen\WObj:=platform;
    MoveL [ [-0.788, -2.828, -0.010], [0.082, -0.378, 0.922, 0.000], [0, 0, 0, 0], [ 9E9, 9E9, 9E9, 9E9, 9E9, 9E9] ], v30, fine, pen\WObj:=platform;
    MoveL [ [-8.382, -5.944, 49.312], [0.082, -0.378, 0.922, 0.000], [0, 0, 0, 0], [ 9E9, 9E9, 9E9, 9E9, 9E9, 9E9] ], v1000, fine, pen\WObj:=platform;
    
    !!-0.8443747686898277, -2.7300000000000004;
    MoveL [ [-8.370, -6.062, 49.308], [0.083, -0.403, 0.911, 0.000], [0, 0, 0, 0], [ 9E9, 9E9, 9E9, 9E9, 9E9, 9E9] ], v1000, fine, pen\WObj:=platform;
    MoveL [ [-0.844, -2.730, -0.010], [0.083, -0.403, 0.911, 0.000], [0, 0, 0, 0], [ 9E9, 9E9, 9E9, 9E9, 9E9, 9E9] ], v30, fine, pen\WObj:=platform;
    MoveL [ [-8.370, -6.062, 49.308], [0.083, -0.403, 0.911, 0.000], [0, 0, 0, 0], [ 9E9, 9E9, 9E9, 9E9, 9E9, 9E9] ], v1000, fine, pen\WObj:=platform;
    
    !!-0.900666419935816, -2.632500000000001;
    MoveL [ [-8.357, -6.180, 49.303], [0.083, -0.428, 0.900, 0.000], [0, 0, 0, 0], [ 9E9, 9E9, 9E9, 9E9, 9E9, 9E9] ], v1000, fine, pen\WObj:=platform;
    MoveL [ [-0.901, -2.633, -0.010], [0.083, -0.428, 0.900, 0.000], [0, 0, 0, 0], [ 9E9, 9E9, 9E9, 9E9, 9E9, 9E9] ], v30, fine, pen\WObj:=platform;
    MoveL [ [-8.357, -6.180, 49.303], [0.083, -0.428, 0.900, 0.000], [0, 0, 0, 0], [ 9E9, 9E9, 9E9, 9E9, 9E9, 9E9] ], v1000, fine, pen\WObj:=platform;
    
    !!-0.9569580711818042, -2.5350000000000006;
    MoveL [ [-2.175, -21.681, 46.163], [0.196, -0.979, 0.062, 0.000], [0, 0, 0, 0], [ 9E9, 9E9, 9E9, 9E9, 9E9, 9E9] ], v1000, fine, pen\WObj:=platform;
    MoveL [ [-0.957, -2.535, -0.010], [0.196, -0.979, 0.062, 0.000], [0, 0, 0, 0], [ 9E9, 9E9, 9E9, 9E9, 9E9, 9E9] ], v30, fine, pen\WObj:=platform;
    MoveL [ [-2.175, -21.681, 46.163], [0.196, -0.979, 0.062, 0.000], [0, 0, 0, 0], [ 9E9, 9E9, 9E9, 9E9, 9E9, 9E9] ], v1000, fine, pen\WObj:=platform;
    
    !!-1.0132497224277937, -2.4375;
    MoveL [ [-6.330, 9.902, 48.151], [0.136, 0.910, 0.392, 0.000], [0, 0, 0, 0], [ 9E9, 9E9, 9E9, 9E9, 9E9, 9E9] ], v1000, fine, pen\WObj:=platform;
    MoveL [ [-1.013, -2.438, -0.010], [0.136, 0.910, 0.392, 0.000], [0, 0, 0, 0], [ 9E9, 9E9, 9E9, 9E9, 9E9, 9E9] ], v30, fine, pen\WObj:=platform;
    MoveL [ [-6.330, 9.902, 48.151], [0.136, 0.910, 0.392, 0.000], [0, 0, 0, 0], [ 9E9, 9E9, 9E9, 9E9, 9E9, 9E9] ], v1000, fine, pen\WObj:=platform;
    
    !!-1.0695413736737818, -2.3400000000000003;
    MoveL [ [-4.822, -11.934, 48.917], [0.104, -0.926, 0.362, 0.000], [0, 0, 0, 0], [ 9E9, 9E9, 9E9, 9E9, 9E9, 9E9] ], v1000, fine, pen\WObj:=platform;
    MoveL [ [-1.070, -2.340, -0.010], [0.104, -0.926, 0.362, 0.000], [0, 0, 0, 0], [ 9E9, 9E9, 9E9, 9E9, 9E9, 9E9] ], v30, fine, pen\WObj:=platform;
    MoveL [ [-4.822, -11.934, 48.917], [0.104, -0.926, 0.362, 0.000], [0, 0, 0, 0], [ 9E9, 9E9, 9E9, 9E9, 9E9, 9E9] ], v1000, fine, pen\WObj:=platform;
    
    !!-1.12583302491977, -2.2425;
    MoveL [ [-5.910, -9.109, 49.285], [0.084, -0.818, 0.570, 0.000], [0, 0, 0, 0], [ 9E9, 9E9, 9E9, 9E9, 9E9, 9E9] ], v1000, fine, pen\WObj:=platform;
    MoveL [ [-1.126, -2.243, -0.010], [0.084, -0.818, 0.570, 0.000], [0, 0, 0, 0], [ 9E9, 9E9, 9E9, 9E9, 9E9, 9E9] ], v30, fine, pen\WObj:=platform;
    MoveL [ [-5.910, -9.109, 49.285], [0.084, -0.818, 0.570, 0.000], [0, 0, 0, 0], [ 9E9, 9E9, 9E9, 9E9, 9E9, 9E9] ], v1000, fine, pen\WObj:=platform;
    
    !!-1.1821246761657591, -2.1450000000000005;
    MoveL [ [-7.323, -13.295, 48.342], [0.128, -0.869, 0.478, 0.000], [0, 0, 0, 0], [ 9E9, 9E9, 9E9, 9E9, 9E9, 9E9] ], v1000, fine, pen\WObj:=platform;
    MoveL [ [-1.182, -2.145, -0.010], [0.128, -0.869, 0.478, 0.000], [0, 0, 0, 0], [ 9E9, 9E9, 9E9, 9E9, 9E9, 9E9] ], v30, fine, pen\WObj:=platform;
    MoveL [ [-7.323, -13.295, 48.342], [0.128, -0.869, 0.478, 0.000], [0, 0, 0, 0], [ 9E9, 9E9, 9E9, 9E9, 9E9, 9E9] ], v1000, fine, pen\WObj:=platform;
    
    !!-0.2251666049839535, -3.8025;
    MoveL [ [1.352, -6.659, 49.883], [0.033, -0.875, -0.483, 0.000], [0, 0, 0, 0], [ 9E9, 9E9, 9E9, 9E9, 9E9, 9E9] ], v1000, fine, pen\WObj:=platform;
    MoveL [ [-0.225, -3.803, -0.010], [0.033, -0.875, -0.483, 0.000], [0, 0, 0, 0], [ 9E9, 9E9, 9E9, 9E9, 9E9, 9E9] ], v30, fine, pen\WObj:=platform;
    MoveL [ [1.352, -6.659, 49.883], [0.033, -0.875, -0.483, 0.000], [0, 0, 0, 0], [ 9E9, 9E9, 9E9, 9E9, 9E9, 9E9] ], v1000, fine, pen\WObj:=platform;
    
    !!-1.238416327411747, -2.0475000000000003;
    MoveL [ [-6.118, 9.318, 48.436], [0.125, 0.912, 0.391, 0.000], [0, 0, 0, 0], [ 9E9, 9E9, 9E9, 9E9, 9E9, 9E9] ], v1000, fine, pen\WObj:=platform;
    MoveL [ [-1.238, -2.048, -0.010], [0.125, 0.912, 0.391, 0.000], [0, 0, 0, 0], [ 9E9, 9E9, 9E9, 9E9, 9E9, 9E9] ], v30, fine, pen\WObj:=platform;
    MoveL [ [-6.118, 9.318, 48.436], [0.125, 0.912, 0.391, 0.000], [0, 0, 0, 0], [ 9E9, 9E9, 9E9, 9E9, 9E9, 9E9] ], v1000, fine, pen\WObj:=platform;
    
    !!-1.2947079786577362, -1.9500000000000004;
    MoveL [ [-2.042, -5.001, 49.891], [0.031, -0.971, 0.238, 0.000], [0, 0, 0, 0], [ 9E9, 9E9, 9E9, 9E9, 9E9, 9E9] ], v1000, fine, pen\WObj:=platform;
    MoveL [ [-1.295, -1.950, -0.010], [0.031, -0.971, 0.238, 0.000], [0, 0, 0, 0], [ 9E9, 9E9, 9E9, 9E9, 9E9, 9E9] ], v30, fine, pen\WObj:=platform;
    MoveL [ [-2.042, -5.001, 49.891], [0.031, -0.971, 0.238, 0.000], [0, 0, 0, 0], [ 9E9, 9E9, 9E9, 9E9, 9E9, 9E9] ], v1000, fine, pen\WObj:=platform;
    
    !!-1.3509996299037241, -1.8525;
    MoveL [ [-2.021, -5.194, 49.874], [0.034, -0.980, 0.197, 0.000], [0, 0, 0, 0], [ 9E9, 9E9, 9E9, 9E9, 9E9, 9E9] ], v1000, fine, pen\WObj:=platform;
    MoveL [ [-1.351, -1.853, -0.010], [0.034, -0.980, 0.197, 0.000], [0, 0, 0, 0], [ 9E9, 9E9, 9E9, 9E9, 9E9, 9E9] ], v30, fine, pen\WObj:=platform;
    MoveL [ [-2.021, -5.194, 49.874], [0.034, -0.980, 0.197, 0.000], [0, 0, 0, 0], [ 9E9, 9E9, 9E9, 9E9, 9E9, 9E9] ], v1000, fine, pen\WObj:=platform;
    
    !!-1.4072912811497122, -1.7550000000000003;
    MoveL [ [-1.715, 1.085, 49.908], [0.029, 0.994, 0.108, 0.000], [0, 0, 0, 0], [ 9E9, 9E9, 9E9, 9E9, 9E9, 9E9] ], v1000, fine, pen\WObj:=platform;
    MoveL [ [-1.407, -1.755, -0.010], [0.029, 0.994, 0.108, 0.000], [0, 0, 0, 0], [ 9E9, 9E9, 9E9, 9E9, 9E9, 9E9] ], v30, fine, pen\WObj:=platform;
    MoveL [ [-1.715, 1.085, 49.908], [0.029, 0.994, 0.108, 0.000], [0, 0, 0, 0], [ 9E9, 9E9, 9E9, 9E9, 9E9, 9E9] ], v1000, fine, pen\WObj:=platform;
    
    !!-1.463582932395702, -1.6575000000000002;
    MoveL [ [-5.950, -8.263, 49.348], [0.080, -0.825, 0.560, 0.000], [0, 0, 0, 0], [ 9E9, 9E9, 9E9, 9E9, 9E9, 9E9] ], v1000, fine, pen\WObj:=platform;
    MoveL [ [-1.464, -1.658, -0.010], [0.080, -0.825, 0.560, 0.000], [0, 0, 0, 0], [ 9E9, 9E9, 9E9, 9E9, 9E9, 9E9] ], v30, fine, pen\WObj:=platform;
    MoveL [ [-5.950, -8.263, 49.348], [0.080, -0.825, 0.560, 0.000], [0, 0, 0, 0], [ 9E9, 9E9, 9E9, 9E9, 9E9, 9E9] ], v1000, fine, pen\WObj:=platform;
    
    !!-1.5198745836416903, -1.5600000000000003;
    MoveL [ [-5.846, -6.757, 49.531], [0.068, -0.767, 0.638, 0.000], [0, 0, 0, 0], [ 9E9, 9E9, 9E9, 9E9, 9E9, 9E9] ], v1000, fine, pen\WObj:=platform;
    MoveL [ [-1.520, -1.560, -0.010], [0.068, -0.767, 0.638, 0.000], [0, 0, 0, 0], [ 9E9, 9E9, 9E9, 9E9, 9E9, 9E9] ], v30, fine, pen\WObj:=platform;
    MoveL [ [-5.846, -6.757, 49.531], [0.068, -0.767, 0.638, 0.000], [0, 0, 0, 0], [ 9E9, 9E9, 9E9, 9E9, 9E9, 9E9] ], v1000, fine, pen\WObj:=platform;
    
    !!-1.5761662348876784, -1.4625;
    MoveL [ [-6.213, -8.032, 49.339], [0.081, -0.814, 0.575, 0.000], [0, 0, 0, 0], [ 9E9, 9E9, 9E9, 9E9, 9E9, 9E9] ], v1000, fine, pen\WObj:=platform;
    MoveL [ [-1.576, -1.462, -0.010], [0.081, -0.814, 0.575, 0.000], [0, 0, 0, 0], [ 9E9, 9E9, 9E9, 9E9, 9E9, 9E9] ], v30, fine, pen\WObj:=platform;
    MoveL [ [-6.213, -8.032, 49.339], [0.081, -0.814, 0.575, 0.000], [0, 0, 0, 0], [ 9E9, 9E9, 9E9, 9E9, 9E9, 9E9] ], v1000, fine, pen\WObj:=platform;
    
    !!-1.6324578861336667, -1.3650000000000007;
    MoveL [ [-5.813, -7.043, 49.490], [0.071, -0.803, 0.591, 0.000], [0, 0, 0, 0], [ 9E9, 9E9, 9E9, 9E9, 9E9, 9E9] ], v1000, fine, pen\WObj:=platform;
    MoveL [ [-1.632, -1.365, -0.010], [0.071, -0.803, 0.591, 0.000], [0, 0, 0, 0], [ 9E9, 9E9, 9E9, 9E9, 9E9, 9E9] ], v30, fine, pen\WObj:=platform;
    MoveL [ [-5.813, -7.043, 49.490], [0.071, -0.803, 0.591, 0.000], [0, 0, 0, 0], [ 9E9, 9E9, 9E9, 9E9, 9E9, 9E9] ], v1000, fine, pen\WObj:=platform;
    
    !!-1.6887495373796555, -1.2675000000000003;
    MoveL [ [-6.185, -8.303, 49.288], [0.084, -0.840, 0.537, 0.000], [0, 0, 0, 0], [ 9E9, 9E9, 9E9, 9E9, 9E9, 9E9] ], v1000, fine, pen\WObj:=platform;
    MoveL [ [-1.689, -1.268, -0.010], [0.084, -0.840, 0.537, 0.000], [0, 0, 0, 0], [ 9E9, 9E9, 9E9, 9E9, 9E9, 9E9] ], v30, fine, pen\WObj:=platform;
    MoveL [ [-6.185, -8.303, 49.288], [0.084, -0.840, 0.537, 0.000], [0, 0, 0, 0], [ 9E9, 9E9, 9E9, 9E9, 9E9, 9E9] ], v1000, fine, pen\WObj:=platform;
    
    !!-1.7450411886256436, -1.1700000000000004;
    MoveL [ [-6.121, -7.643, 49.376], [0.078, -0.826, 0.558, 0.000], [0, 0, 0, 0], [ 9E9, 9E9, 9E9, 9E9, 9E9, 9E9] ], v1000, fine, pen\WObj:=platform;
    MoveL [ [-1.745, -1.170, -0.010], [0.078, -0.826, 0.558, 0.000], [0, 0, 0, 0], [ 9E9, 9E9, 9E9, 9E9, 9E9, 9E9] ], v30, fine, pen\WObj:=platform;
    MoveL [ [-6.121, -7.643, 49.376], [0.078, -0.826, 0.558, 0.000], [0, 0, 0, 0], [ 9E9, 9E9, 9E9, 9E9, 9E9, 9E9] ], v1000, fine, pen\WObj:=platform;
    
    !!-0.281458256229943, -3.705;
    MoveL [ [-9.568, -12.469, 48.332], [0.129, -0.681, 0.721, 0.000], [0, 0, 0, 0], [ 9E9, 9E9, 9E9, 9E9, 9E9, 9E9] ], v1000, fine, pen\WObj:=platform;
    MoveL [ [-0.281, -3.705, -0.010], [0.129, -0.681, 0.721, 0.000], [0, 0, 0, 0], [ 9E9, 9E9, 9E9, 9E9, 9E9, 9E9] ], v30, fine, pen\WObj:=platform;
    MoveL [ [-9.568, -12.469, 48.332], [0.129, -0.681, 0.721, 0.000], [0, 0, 0, 0], [ 9E9, 9E9, 9E9, 9E9, 9E9, 9E9] ], v1000, fine, pen\WObj:=platform;
    
    !!-1.8013328398716324, -1.0725000000000002;
    MoveL [ [-5.872, -9.086, 49.175], [0.090, -0.888, 0.451, 0.000], [0, 0, 0, 0], [ 9E9, 9E9, 9E9, 9E9, 9E9, 9E9] ], v1000, fine, pen\WObj:=platform;
    MoveL [ [-1.801, -1.073, -0.010], [0.090, -0.888, 0.451, 0.000], [0, 0, 0, 0], [ 9E9, 9E9, 9E9, 9E9, 9E9, 9E9] ], v30, fine, pen\WObj:=platform;
    MoveL [ [-5.872, -9.086, 49.175], [0.090, -0.888, 0.451, 0.000], [0, 0, 0, 0], [ 9E9, 9E9, 9E9, 9E9, 9E9, 9E9] ], v1000, fine, pen\WObj:=platform;
    
    !!-1.8576244911176216, -0.9750000000000003;
    MoveL [ [-5.859, -9.222, 49.143], [0.092, -0.896, 0.435, 0.000], [0, 0, 0, 0], [ 9E9, 9E9, 9E9, 9E9, 9E9, 9E9] ], v1000, fine, pen\WObj:=platform;
    MoveL [ [-1.858, -0.975, -0.010], [0.092, -0.896, 0.435, 0.000], [0, 0, 0, 0], [ 9E9, 9E9, 9E9, 9E9, 9E9, 9E9] ], v30, fine, pen\WObj:=platform;
    MoveL [ [-5.859, -9.222, 49.143], [0.092, -0.896, 0.435, 0.000], [0, 0, 0, 0], [ 9E9, 9E9, 9E9, 9E9, 9E9, 9E9] ], v1000, fine, pen\WObj:=platform;
    
    !!-1.9139161423636097, -0.8775;
    MoveL [ [-5.487, -9.082, 49.183], [0.090, -0.913, 0.398, 0.000], [0, 0, 0, 0], [ 9E9, 9E9, 9E9, 9E9, 9E9, 9E9] ], v1000, fine, pen\WObj:=platform;
    MoveL [ [-1.914, -0.877, -0.010], [0.090, -0.913, 0.398, 0.000], [0, 0, 0, 0], [ 9E9, 9E9, 9E9, 9E9, 9E9, 9E9] ], v30, fine, pen\WObj:=platform;
    MoveL [ [-5.487, -9.082, 49.183], [0.090, -0.913, 0.398, 0.000], [0, 0, 0, 0], [ 9E9, 9E9, 9E9, 9E9, 9E9, 9E9] ], v1000, fine, pen\WObj:=platform;
    
    !!-1.9702077936095979, -0.7799999999999996;
    MoveL [ [-6.058, -8.188, 49.269], [0.085, -0.872, 0.481, 0.000], [0, 0, 0, 0], [ 9E9, 9E9, 9E9, 9E9, 9E9, 9E9] ], v1000, fine, pen\WObj:=platform;
    MoveL [ [-1.970, -0.780, -0.010], [0.085, -0.872, 0.481, 0.000], [0, 0, 0, 0], [ 9E9, 9E9, 9E9, 9E9, 9E9, 9E9] ], v30, fine, pen\WObj:=platform;
    MoveL [ [-6.058, -8.188, 49.269], [0.085, -0.872, 0.481, 0.000], [0, 0, 0, 0], [ 9E9, 9E9, 9E9, 9E9, 9E9, 9E9] ], v1000, fine, pen\WObj:=platform;
    
    !!-2.026499444855587, -0.6825000000000003;
    MoveL [ [-5.395, -8.544, 49.253], [0.086, -0.916, 0.392, 0.000], [0, 0, 0, 0], [ 9E9, 9E9, 9E9, 9E9, 9E9, 9E9] ], v1000, fine, pen\WObj:=platform;
    MoveL [ [-2.026, -0.683, -0.010], [0.086, -0.916, 0.392, 0.000], [0, 0, 0, 0], [ 9E9, 9E9, 9E9, 9E9, 9E9, 9E9] ], v30, fine, pen\WObj:=platform;
    MoveL [ [-5.395, -8.544, 49.253], [0.086, -0.916, 0.392, 0.000], [0, 0, 0, 0], [ 9E9, 9E9, 9E9, 9E9, 9E9, 9E9] ], v1000, fine, pen\WObj:=platform;
    
    !!-2.082791096101575, -0.5850000000000005;
    MoveL [ [-5.379, -8.685, 49.219], [0.088, -0.923, 0.376, 0.000], [0, 0, 0, 0], [ 9E9, 9E9, 9E9, 9E9, 9E9, 9E9] ], v1000, fine, pen\WObj:=platform;
    MoveL [ [-2.083, -0.585, -0.010], [0.088, -0.923, 0.376, 0.000], [0, 0, 0, 0], [ 9E9, 9E9, 9E9, 9E9, 9E9, 9E9] ], v30, fine, pen\WObj:=platform;
    MoveL [ [-5.379, -8.685, 49.219], [0.088, -0.923, 0.376, 0.000], [0, 0, 0, 0], [ 9E9, 9E9, 9E9, 9E9, 9E9, 9E9] ], v1000, fine, pen\WObj:=platform;
    
    !!-0.33774990747593125, -3.607500000000001;
    MoveL [ [1.359, -7.137, 49.836], [0.039, -0.901, -0.433, 0.000], [0, 0, 0, 0], [ 9E9, 9E9, 9E9, 9E9, 9E9, 9E9] ], v1000, fine, pen\WObj:=platform;
    MoveL [ [-0.338, -3.608, -0.010], [0.039, -0.901, -0.433, 0.000], [0, 0, 0, 0], [ 9E9, 9E9, 9E9, 9E9, 9E9, 9E9] ], v30, fine, pen\WObj:=platform;
    MoveL [ [1.359, -7.137, 49.836], [0.039, -0.901, -0.433, 0.000], [0, 0, 0, 0], [ 9E9, 9E9, 9E9, 9E9, 9E9, 9E9] ], v1000, fine, pen\WObj:=platform;
    
    !!-0.3940415587219195, -3.5100000000000002;
    MoveL [ [-4.854, -10.186, 49.341], [0.081, -0.829, 0.554, 0.000], [0, 0, 0, 0], [ 9E9, 9E9, 9E9, 9E9, 9E9, 9E9] ], v1000, fine, pen\WObj:=platform;
    MoveL [ [-0.394, -3.510, -0.010], [0.081, -0.829, 0.554, 0.000], [0, 0, 0, 0], [ 9E9, 9E9, 9E9, 9E9, 9E9, 9E9] ], v30, fine, pen\WObj:=platform;
    MoveL [ [-4.854, -10.186, 49.341], [0.081, -0.829, 0.554, 0.000], [0, 0, 0, 0], [ 9E9, 9E9, 9E9, 9E9, 9E9, 9E9] ], v1000, fine, pen\WObj:=platform;
    
    !!-0.4503332099679083, -3.4125000000000005;
    MoveL [ [-3.590, 7.731, 48.631], [0.117, 0.956, 0.269, 0.000], [0, 0, 0, 0], [ 9E9, 9E9, 9E9, 9E9, 9E9, 9E9] ], v1000, fine, pen\WObj:=platform;
    MoveL [ [-0.450, -3.413, -0.010], [0.117, 0.956, 0.269, 0.000], [0, 0, 0, 0], [ 9E9, 9E9, 9E9, 9E9, 9E9, 9E9] ], v30, fine, pen\WObj:=platform;
    MoveL [ [-3.590, 7.731, 48.631], [0.117, 0.956, 0.269, 0.000], [0, 0, 0, 0], [ 9E9, 9E9, 9E9, 9E9, 9E9, 9E9] ], v1000, fine, pen\WObj:=platform;
    
    !!-0.5066248612138966, -3.3150000000000004;
    MoveL [ [-5.246, 0.794, 49.595], [0.063, 0.654, 0.754, 0.000], [0, 0, 0, 0], [ 9E9, 9E9, 9E9, 9E9, 9E9, 9E9] ], v1000, fine, pen\WObj:=platform;
    MoveL [ [-0.507, -3.315, -0.010], [0.063, 0.654, 0.754, 0.000], [0, 0, 0, 0], [ 9E9, 9E9, 9E9, 9E9, 9E9, 9E9] ], v30, fine, pen\WObj:=platform;
    MoveL [ [-5.246, 0.794, 49.595], [0.063, 0.654, 0.754, 0.000], [0, 0, 0, 0], [ 9E9, 9E9, 9E9, 9E9, 9E9, 9E9] ], v1000, fine, pen\WObj:=platform;
    
    !!-0.5629165124598847, -3.217500000000001;
    MoveL [ [-4.845, -10.631, 49.252], [0.086, -0.863, 0.498, 0.000], [0, 0, 0, 0], [ 9E9, 9E9, 9E9, 9E9, 9E9, 9E9] ], v1000, fine, pen\WObj:=platform;
    MoveL [ [-0.563, -3.218, -0.010], [0.086, -0.863, 0.498, 0.000], [0, 0, 0, 0], [ 9E9, 9E9, 9E9, 9E9, 9E9, 9E9] ], v30, fine, pen\WObj:=platform;
    MoveL [ [-4.845, -10.631, 49.252], [0.086, -0.863, 0.498, 0.000], [0, 0, 0, 0], [ 9E9, 9E9, 9E9, 9E9, 9E9, 9E9] ], v1000, fine, pen\WObj:=platform;
    
    !!-0.6192081637058743, -3.1200000000000006;
    MoveL [ [-8.420, -5.590, 49.316], [0.082, -0.301, 0.950, 0.000], [0, 0, 0, 0], [ 9E9, 9E9, 9E9, 9E9, 9E9, 9E9] ], v1000, fine, pen\WObj:=platform;
    MoveL [ [-0.619, -3.120, -0.010], [0.082, -0.301, 0.950, 0.000], [0, 0, 0, 0], [ 9E9, 9E9, 9E9, 9E9, 9E9, 9E9] ], v30, fine, pen\WObj:=platform;
    MoveL [ [-8.420, -5.590, 49.316], [0.082, -0.301, 0.950, 0.000], [0, 0, 0, 0], [ 9E9, 9E9, 9E9, 9E9, 9E9, 9E9] ], v1000, fine, pen\WObj:=platform;
    
    !!-0.11258330249197708, -3.9975000000000005;
    MoveL [ [-7.833, 0.368, 49.197], [0.089, 0.490, 0.867, 0.000], [0, 0, 0, 0], [ 9E9, 9E9, 9E9, 9E9, 9E9, 9E9] ], v1000, fine, pen\WObj:=platform;
    MoveL [ [-0.113, -3.998, -0.010], [0.089, 0.490, 0.867, 0.000], [0, 0, 0, 0], [ 9E9, 9E9, 9E9, 9E9, 9E9, 9E9] ], v30, fine, pen\WObj:=platform;
    MoveL [ [-7.833, 0.368, 49.197], [0.089, 0.490, 0.867, 0.000], [0, 0, 0, 0], [ 9E9, 9E9, 9E9, 9E9, 9E9, 9E9] ], v1000, fine, pen\WObj:=platform;
    
    !!-0.056291651245988214, -4.095000000000001;
    MoveL [ [-9.091, 5.844, 48.152], [0.136, 0.733, 0.666, 0.000], [0, 0, 0, 0], [ 9E9, 9E9, 9E9, 9E9, 9E9, 9E9] ], v1000, fine, pen\WObj:=platform;
    MoveL [ [-0.056, -4.095, -0.010], [0.136, 0.733, 0.666, 0.000], [0, 0, 0, 0], [ 9E9, 9E9, 9E9, 9E9, 9E9, 9E9] ], v30, fine, pen\WObj:=platform;
    MoveL [ [-9.091, 5.844, 48.152], [0.136, 0.733, 0.666, 0.000], [0, 0, 0, 0], [ 9E9, 9E9, 9E9, 9E9, 9E9, 9E9] ], v1000, fine, pen\WObj:=platform;
    
    !!0.4503332099679083, -4.972500000000001;
    MoveL [ [-4.467, 10.424, 47.306], [0.164, 0.940, 0.300, 0.000], [0, 0, 0, 0], [ 9E9, 9E9, 9E9, 9E9, 9E9, 9E9] ], v1000, fine, pen\WObj:=platform;
    MoveL [ [0.450, -4.973, -0.010], [0.164, 0.940, 0.300, 0.000], [0, 0, 0, 0], [ 9E9, 9E9, 9E9, 9E9, 9E9, 9E9] ], v30, fine, pen\WObj:=platform;
    MoveL [ [-4.467, 10.424, 47.306], [0.164, 0.940, 0.300, 0.000], [0, 0, 0, 0], [ 9E9, 9E9, 9E9, 9E9, 9E9, 9E9] ], v1000, fine, pen\WObj:=platform;
    
    !!0.5066248612138966, -5.070000000000001;
    MoveL [ [-2.306, -8.211, 49.812], [0.042, -0.744, 0.667, 0.000], [0, 0, 0, 0], [ 9E9, 9E9, 9E9, 9E9, 9E9, 9E9] ], v1000, fine, pen\WObj:=platform;
    MoveL [ [0.507, -5.070, -0.010], [0.042, -0.744, 0.667, 0.000], [0, 0, 0, 0], [ 9E9, 9E9, 9E9, 9E9, 9E9, 9E9] ], v30, fine, pen\WObj:=platform;
    MoveL [ [-2.306, -8.211, 49.812], [0.042, -0.744, 0.667, 0.000], [0, 0, 0, 0], [ 9E9, 9E9, 9E9, 9E9, 9E9, 9E9] ], v1000, fine, pen\WObj:=platform;
    
    !!0.5629165124598847, -5.1675;
    MoveL [ [-4.576, 10.733, 47.115], [0.170, 0.938, 0.303, 0.000], [0, 0, 0, 0], [ 9E9, 9E9, 9E9, 9E9, 9E9, 9E9] ], v1000, fine, pen\WObj:=platform;
    MoveL [ [0.563, -5.168, -0.010], [0.170, 0.938, 0.303, 0.000], [0, 0, 0, 0], [ 9E9, 9E9, 9E9, 9E9, 9E9, 9E9] ], v30, fine, pen\WObj:=platform;
    MoveL [ [-4.576, 10.733, 47.115], [0.170, 0.938, 0.303, 0.000], [0, 0, 0, 0], [ 9E9, 9E9, 9E9, 9E9, 9E9, 9E9] ], v1000, fine, pen\WObj:=platform;
    
    !!0.6192081637058743, -5.265;
    MoveL [ [-2.310, -7.835, 49.838], [0.039, -0.659, 0.751, 0.000], [0, 0, 0, 0], [ 9E9, 9E9, 9E9, 9E9, 9E9, 9E9] ], v1000, fine, pen\WObj:=platform;
    MoveL [ [0.619, -5.265, -0.010], [0.039, -0.659, 0.751, 0.000], [0, 0, 0, 0], [ 9E9, 9E9, 9E9, 9E9, 9E9, 9E9] ], v30, fine, pen\WObj:=platform;
    MoveL [ [-2.310, -7.835, 49.838], [0.039, -0.659, 0.751, 0.000], [0, 0, 0, 0], [ 9E9, 9E9, 9E9, 9E9, 9E9, 9E9] ], v1000, fine, pen\WObj:=platform;
    
    !!0.6754998149518625, -5.362500000000001;
    MoveL [ [-7.767, 13.636, 45.463], [0.213, 0.893, 0.397, 0.000], [0, 0, 0, 0], [ 9E9, 9E9, 9E9, 9E9, 9E9, 9E9] ], v1000, fine, pen\WObj:=platform;
    MoveL [ [0.675, -5.363, -0.010], [0.213, 0.893, 0.397, 0.000], [0, 0, 0, 0], [ 9E9, 9E9, 9E9, 9E9, 9E9, 9E9] ], v30, fine, pen\WObj:=platform;
    MoveL [ [-7.767, 13.636, 45.463], [0.213, 0.893, 0.397, 0.000], [0, 0, 0, 0], [ 9E9, 9E9, 9E9, 9E9, 9E9, 9E9] ], v1000, fine, pen\WObj:=platform;
    
    !!0.7317914661978507, -5.460000000000001;
    MoveL [ [-9.396, -6.160, 48.949], [0.102, -0.069, 0.992, 0.000], [0, 0, 0, 0], [ 9E9, 9E9, 9E9, 9E9, 9E9, 9E9] ], v1000, fine, pen\WObj:=platform;
    MoveL [ [0.732, -5.460, -0.010], [0.102, -0.069, 0.992, 0.000], [0, 0, 0, 0], [ 9E9, 9E9, 9E9, 9E9, 9E9, 9E9] ], v30, fine, pen\WObj:=platform;
    MoveL [ [-9.396, -6.160, 48.949], [0.102, -0.069, 0.992, 0.000], [0, 0, 0, 0], [ 9E9, 9E9, 9E9, 9E9, 9E9, 9E9] ], v1000, fine, pen\WObj:=platform;
    
    !!0.7880831174438402, -5.557499999999999;
    MoveL [ [-3.521, -16.496, 48.588], [0.118, -0.924, 0.364, 0.000], [0, 0, 0, 0], [ 9E9, 9E9, 9E9, 9E9, 9E9, 9E9] ], v1000, fine, pen\WObj:=platform;
    MoveL [ [0.788, -5.557, -0.010], [0.118, -0.924, 0.364, 0.000], [0, 0, 0, 0], [ 9E9, 9E9, 9E9, 9E9, 9E9, 9E9] ], v30, fine, pen\WObj:=platform;
    MoveL [ [-3.521, -16.496, 48.588], [0.118, -0.924, 0.364, 0.000], [0, 0, 0, 0], [ 9E9, 9E9, 9E9, 9E9, 9E9, 9E9] ], v1000, fine, pen\WObj:=platform;
    
    !!0.8443747686898284, -5.655000000000001;
    MoveL [ [-9.407, -13.137, 48.353], [0.128, -0.585, 0.801, 0.000], [0, 0, 0, 0], [ 9E9, 9E9, 9E9, 9E9, 9E9, 9E9] ], v1000, fine, pen\WObj:=platform;
    MoveL [ [0.844, -5.655, -0.010], [0.128, -0.585, 0.801, 0.000], [0, 0, 0, 0], [ 9E9, 9E9, 9E9, 9E9, 9E9, 9E9] ], v30, fine, pen\WObj:=platform;
    MoveL [ [-9.407, -13.137, 48.353], [0.128, -0.585, 0.801, 0.000], [0, 0, 0, 0], [ 9E9, 9E9, 9E9, 9E9, 9E9, 9E9] ], v1000, fine, pen\WObj:=platform;
    
    !!0.9006664199358166, -5.7525;
    MoveL [ [-2.328, -6.887, 49.873], [0.034, -0.331, 0.943, 0.000], [0, 0, 0, 0], [ 9E9, 9E9, 9E9, 9E9, 9E9, 9E9] ], v1000, fine, pen\WObj:=platform;
    MoveL [ [0.901, -5.753, -0.010], [0.034, -0.331, 0.943, 0.000], [0, 0, 0, 0], [ 9E9, 9E9, 9E9, 9E9, 9E9, 9E9] ], v30, fine, pen\WObj:=platform;
    MoveL [ [-2.328, -6.887, 49.873], [0.034, -0.331, 0.943, 0.000], [0, 0, 0, 0], [ 9E9, 9E9, 9E9, 9E9, 9E9, 9E9] ], v1000, fine, pen\WObj:=platform;
    
    !!0.9569580711818049, -5.8500000000000005;
    MoveL [ [-6.460, 13.465, 45.509], [0.212, 0.912, 0.350, 0.000], [0, 0, 0, 0], [ 9E9, 9E9, 9E9, 9E9, 9E9, 9E9] ], v1000, fine, pen\WObj:=platform;
    MoveL [ [0.957, -5.850, -0.010], [0.212, 0.912, 0.350, 0.000], [0, 0, 0, 0], [ 9E9, 9E9, 9E9, 9E9, 9E9, 9E9] ], v30, fine, pen\WObj:=platform;
    MoveL [ [-6.460, 13.465, 45.509], [0.212, 0.912, 0.350, 0.000], [0, 0, 0, 0], [ 9E9, 9E9, 9E9, 9E9, 9E9, 9E9] ], v1000, fine, pen\WObj:=platform;
    
    !!0, -4.192500000000001;
    MoveL [ [-9.571, -11.995, 48.441], [0.124, -0.627, 0.769, 0.000], [0, 0, 0, 0], [ 9E9, 9E9, 9E9, 9E9, 9E9, 9E9] ], v1000, fine, pen\WObj:=platform;
    MoveL [ [0.000, -4.193, -0.010], [0.124, -0.627, 0.769, 0.000], [0, 0, 0, 0], [ 9E9, 9E9, 9E9, 9E9, 9E9, 9E9] ], v30, fine, pen\WObj:=platform;
    MoveL [ [-9.571, -11.995, 48.441], [0.124, -0.627, 0.769, 0.000], [0, 0, 0, 0], [ 9E9, 9E9, 9E9, 9E9, 9E9, 9E9] ], v1000, fine, pen\WObj:=platform;
    
    !!1.0132497224277932, -5.9475;
    MoveL [ [-6.508, 13.581, 45.400], [0.214, 0.912, 0.351, 0.000], [0, 0, 0, 0], [ 9E9, 9E9, 9E9, 9E9, 9E9, 9E9] ], v1000, fine, pen\WObj:=platform;
    MoveL [ [1.013, -5.947, -0.010], [0.214, 0.912, 0.351, 0.000], [0, 0, 0, 0], [ 9E9, 9E9, 9E9, 9E9, 9E9, 9E9] ], v30, fine, pen\WObj:=platform;
    MoveL [ [-6.508, 13.581, 45.400], [0.214, 0.912, 0.351, 0.000], [0, 0, 0, 0], [ 9E9, 9E9, 9E9, 9E9, 9E9, 9E9] ], v1000, fine, pen\WObj:=platform;
    
    !!1.069541373673781, -6.045000000000002;
    MoveL [ [1.943, 4.323, 48.895], [0.105, 0.991, -0.084, 0.000], [0, 0, 0, 0], [ 9E9, 9E9, 9E9, 9E9, 9E9, 9E9] ], v1000, fine, pen\WObj:=platform;
    MoveL [ [1.070, -6.045, -0.010], [0.105, 0.991, -0.084, 0.000], [0, 0, 0, 0], [ 9E9, 9E9, 9E9, 9E9, 9E9, 9E9] ], v30, fine, pen\WObj:=platform;
    MoveL [ [1.943, 4.323, 48.895], [0.105, 0.991, -0.084, 0.000], [0, 0, 0, 0], [ 9E9, 9E9, 9E9, 9E9, 9E9, 9E9] ], v1000, fine, pen\WObj:=platform;
    
    !!1.1258330249197694, -6.142500000000001;
    MoveL [ [1.337, 10.742, 47.052], [0.171, 0.985, -0.012, 0.000], [0, 0, 0, 0], [ 9E9, 9E9, 9E9, 9E9, 9E9, 9E9] ], v1000, fine, pen\WObj:=platform;
    MoveL [ [1.126, -6.143, -0.010], [0.171, 0.985, -0.012, 0.000], [0, 0, 0, 0], [ 9E9, 9E9, 9E9, 9E9, 9E9, 9E9] ], v30, fine, pen\WObj:=platform;
    MoveL [ [1.337, 10.742, 47.052], [0.171, 0.985, -0.012, 0.000], [0, 0, 0, 0], [ 9E9, 9E9, 9E9, 9E9, 9E9, 9E9] ], v1000, fine, pen\WObj:=platform;
    
    !!1.1821246761657591, -6.240000000000001;
    MoveL [ [-3.940, 9.746, 47.088], [0.170, 0.938, 0.301, 0.000], [0, 0, 0, 0], [ 9E9, 9E9, 9E9, 9E9, 9E9, 9E9] ], v1000, fine, pen\WObj:=platform;
    MoveL [ [1.182, -6.240, -0.010], [0.170, 0.938, 0.301, 0.000], [0, 0, 0, 0], [ 9E9, 9E9, 9E9, 9E9, 9E9, 9E9] ], v30, fine, pen\WObj:=platform;
    MoveL [ [-3.940, 9.746, 47.088], [0.170, 0.938, 0.301, 0.000], [0, 0, 0, 0], [ 9E9, 9E9, 9E9, 9E9, 9E9, 9E9] ], v1000, fine, pen\WObj:=platform;
    
    !!1.238416327411747, -6.3375;
    MoveL [ [-10.188, 0.942, 48.119], [0.137, 0.532, 0.835, 0.000], [0, 0, 0, 0], [ 9E9, 9E9, 9E9, 9E9, 9E9, 9E9] ], v1000, fine, pen\WObj:=platform;
    MoveL [ [1.238, -6.338, -0.010], [0.137, 0.532, 0.835, 0.000], [0, 0, 0, 0], [ 9E9, 9E9, 9E9, 9E9, 9E9, 9E9] ], v30, fine, pen\WObj:=platform;
    MoveL [ [-10.188, 0.942, 48.119], [0.137, 0.532, 0.835, 0.000], [0, 0, 0, 0], [ 9E9, 9E9, 9E9, 9E9, 9E9, 9E9] ], v1000, fine, pen\WObj:=platform;
    
    !!1.2947079786577353, -6.435000000000002;
    MoveL [ [-10.195, 1.035, 48.075], [0.138, 0.540, 0.830, 0.000], [0, 0, 0, 0], [ 9E9, 9E9, 9E9, 9E9, 9E9, 9E9] ], v1000, fine, pen\WObj:=platform;
    MoveL [ [1.295, -6.435, -0.010], [0.138, 0.540, 0.830, 0.000], [0, 0, 0, 0], [ 9E9, 9E9, 9E9, 9E9, 9E9, 9E9] ], v30, fine, pen\WObj:=platform;
    MoveL [ [-10.195, 1.035, 48.075], [0.138, 0.540, 0.830, 0.000], [0, 0, 0, 0], [ 9E9, 9E9, 9E9, 9E9, 9E9, 9E9] ], v1000, fine, pen\WObj:=platform;
    
    !!1.350999629903725, -6.532500000000001;
    MoveL [ [-6.729, 0.529, 48.825], [0.108, 0.654, 0.749, 0.000], [0, 0, 0, 0], [ 9E9, 9E9, 9E9, 9E9, 9E9, 9E9] ], v1000, fine, pen\WObj:=platform;
    MoveL [ [1.351, -6.533, -0.010], [0.108, 0.654, 0.749, 0.000], [0, 0, 0, 0], [ 9E9, 9E9, 9E9, 9E9, 9E9, 9E9] ], v30, fine, pen\WObj:=platform;
    MoveL [ [-6.729, 0.529, 48.825], [0.108, 0.654, 0.749, 0.000], [0, 0, 0, 0], [ 9E9, 9E9, 9E9, 9E9, 9E9, 9E9] ], v1000, fine, pen\WObj:=platform;
    
    !!1.4072912811497131, -6.630000000000001;
    MoveL [ [-7.015, 0.123, 48.811], [0.109, 0.622, 0.776, 0.000], [0, 0, 0, 0], [ 9E9, 9E9, 9E9, 9E9, 9E9, 9E9] ], v1000, fine, pen\WObj:=platform;
    MoveL [ [1.407, -6.630, -0.010], [0.109, 0.622, 0.776, 0.000], [0, 0, 0, 0], [ 9E9, 9E9, 9E9, 9E9, 9E9, 9E9] ], v30, fine, pen\WObj:=platform;
    MoveL [ [-7.015, 0.123, 48.811], [0.109, 0.622, 0.776, 0.000], [0, 0, 0, 0], [ 9E9, 9E9, 9E9, 9E9, 9E9, 9E9] ], v1000, fine, pen\WObj:=platform;
    
    !!1.4635829323957015, -6.727499999999999;
    MoveL [ [-6.986, -0.588, 48.887], [0.105, 0.585, 0.805, 0.000], [0, 0, 0, 0], [ 9E9, 9E9, 9E9, 9E9, 9E9, 9E9] ], v1000, fine, pen\WObj:=platform;
    MoveL [ [1.464, -6.727, -0.010], [0.105, 0.585, 0.805, 0.000], [0, 0, 0, 0], [ 9E9, 9E9, 9E9, 9E9, 9E9, 9E9] ], v30, fine, pen\WObj:=platform;
    MoveL [ [-6.986, -0.588, 48.887], [0.105, 0.585, 0.805, 0.000], [0, 0, 0, 0], [ 9E9, 9E9, 9E9, 9E9, 9E9, 9E9] ], v1000, fine, pen\WObj:=platform;
    
    !!1.5198745836416896, -6.825000000000001;
    MoveL [ [-6.448, 0.629, 48.785], [0.110, 0.679, 0.726, 0.000], [0, 0, 0, 0], [ 9E9, 9E9, 9E9, 9E9, 9E9, 9E9] ], v1000, fine, pen\WObj:=platform;
    MoveL [ [1.520, -6.825, -0.010], [0.110, 0.679, 0.726, 0.000], [0, 0, 0, 0], [ 9E9, 9E9, 9E9, 9E9, 9E9, 9E9] ], v30, fine, pen\WObj:=platform;
    MoveL [ [-6.448, 0.629, 48.785], [0.110, 0.679, 0.726, 0.000], [0, 0, 0, 0], [ 9E9, 9E9, 9E9, 9E9, 9E9, 9E9] ], v1000, fine, pen\WObj:=platform;
    
    !!0.056291651245988214, -4.290000000000001;
    MoveL [ [-5.312, -16.783, 48.105], [0.137, -0.910, 0.391, 0.000], [0, 0, 0, 0], [ 9E9, 9E9, 9E9, 9E9, 9E9, 9E9] ], v1000, fine, pen\WObj:=platform;
    MoveL [ [0.056, -4.290, -0.010], [0.137, -0.910, 0.391, 0.000], [0, 0, 0, 0], [ 9E9, 9E9, 9E9, 9E9, 9E9, 9E9] ], v30, fine, pen\WObj:=platform;
    MoveL [ [-5.312, -16.783, 48.105], [0.137, -0.910, 0.391, 0.000], [0, 0, 0, 0], [ 9E9, 9E9, 9E9, 9E9, 9E9, 9E9] ], v1000, fine, pen\WObj:=platform;
    
    !!1.576166234887678, -6.9225;
    MoveL [ [-6.799, 1.063, 48.632], [0.117, 0.685, 0.719, 0.000], [0, 0, 0, 0], [ 9E9, 9E9, 9E9, 9E9, 9E9, 9E9] ], v1000, fine, pen\WObj:=platform;
    MoveL [ [1.576, -6.923, -0.010], [0.117, 0.685, 0.719, 0.000], [0, 0, 0, 0], [ 9E9, 9E9, 9E9, 9E9, 9E9, 9E9] ], v30, fine, pen\WObj:=platform;
    MoveL [ [-6.799, 1.063, 48.632], [0.117, 0.685, 0.719, 0.000], [0, 0, 0, 0], [ 9E9, 9E9, 9E9, 9E9, 9E9, 9E9] ], v1000, fine, pen\WObj:=platform;
    
    !!1.632457886133666, -7.0200000000000005;
    MoveL [ [-7.078, 0.643, 48.626], [0.117, 0.656, 0.746, 0.000], [0, 0, 0, 0], [ 9E9, 9E9, 9E9, 9E9, 9E9, 9E9] ], v1000, fine, pen\WObj:=platform;
    MoveL [ [1.632, -7.020, -0.010], [0.117, 0.656, 0.746, 0.000], [0, 0, 0, 0], [ 9E9, 9E9, 9E9, 9E9, 9E9, 9E9] ], v30, fine, pen\WObj:=platform;
    MoveL [ [-7.078, 0.643, 48.626], [0.117, 0.656, 0.746, 0.000], [0, 0, 0, 0], [ 9E9, 9E9, 9E9, 9E9, 9E9, 9E9] ], v1000, fine, pen\WObj:=platform;
    
    !!1.6887495373796555, -7.1175000000000015;
    MoveL [ [-6.835, 1.326, 48.529], [0.121, 0.699, 0.705, 0.000], [0, 0, 0, 0], [ 9E9, 9E9, 9E9, 9E9, 9E9, 9E9] ], v1000, fine, pen\WObj:=platform;
    MoveL [ [1.689, -7.118, -0.010], [0.121, 0.699, 0.705, 0.000], [0, 0, 0, 0], [ 9E9, 9E9, 9E9, 9E9, 9E9, 9E9] ], v30, fine, pen\WObj:=platform;
    MoveL [ [-6.835, 1.326, 48.529], [0.121, 0.699, 0.705, 0.000], [0, 0, 0, 0], [ 9E9, 9E9, 9E9, 9E9, 9E9, 9E9] ], v1000, fine, pen\WObj:=platform;
    
    !!1.7450411886256436, -7.215000000000002;
    MoveL [ [-6.852, 1.456, 48.476], [0.123, 0.705, 0.699, 0.000], [0, 0, 0, 0], [ 9E9, 9E9, 9E9, 9E9, 9E9, 9E9] ], v1000, fine, pen\WObj:=platform;
    MoveL [ [1.745, -7.215, -0.010], [0.123, 0.705, 0.699, 0.000], [0, 0, 0, 0], [ 9E9, 9E9, 9E9, 9E9, 9E9, 9E9] ], v30, fine, pen\WObj:=platform;
    MoveL [ [-6.852, 1.456, 48.476], [0.123, 0.705, 0.699, 0.000], [0, 0, 0, 0], [ 9E9, 9E9, 9E9, 9E9, 9E9, 9E9] ], v1000, fine, pen\WObj:=platform;
    
    !!1.801332839871632, -7.312500000000001;
    MoveL [ [-6.870, 1.586, 48.422], [0.125, 0.711, 0.692, 0.000], [0, 0, 0, 0], [ 9E9, 9E9, 9E9, 9E9, 9E9, 9E9] ], v1000, fine, pen\WObj:=platform;
    MoveL [ [1.801, -7.313, -0.010], [0.125, 0.711, 0.692, 0.000], [0, 0, 0, 0], [ 9E9, 9E9, 9E9, 9E9, 9E9, 9E9] ], v30, fine, pen\WObj:=platform;
    MoveL [ [-6.870, 1.586, 48.422], [0.125, 0.711, 0.692, 0.000], [0, 0, 0, 0], [ 9E9, 9E9, 9E9, 9E9, 9E9, 9E9] ], v1000, fine, pen\WObj:=platform;
    
    !!1.8576244911176216, -7.410000000000001;
    MoveL [ [-6.557, 1.440, 48.476], [0.123, 0.719, 0.684, 0.000], [0, 0, 0, 0], [ 9E9, 9E9, 9E9, 9E9, 9E9, 9E9] ], v1000, fine, pen\WObj:=platform;
    MoveL [ [1.858, -7.410, -0.010], [0.123, 0.719, 0.684, 0.000], [0, 0, 0, 0], [ 9E9, 9E9, 9E9, 9E9, 9E9, 9E9] ], v30, fine, pen\WObj:=platform;
    MoveL [ [-6.557, 1.440, 48.476], [0.123, 0.719, 0.684, 0.000], [0, 0, 0, 0], [ 9E9, 9E9, 9E9, 9E9, 9E9, 9E9] ], v1000, fine, pen\WObj:=platform;
    
    !!1.9139161423636097, -7.507500000000001;
    MoveL [ [-6.786, 0.142, 48.629], [0.117, 0.656, 0.746, 0.000], [0, 0, 0, 0], [ 9E9, 9E9, 9E9, 9E9, 9E9, 9E9] ], v1000, fine, pen\WObj:=platform;
    MoveL [ [1.914, -7.508, -0.010], [0.117, 0.656, 0.746, 0.000], [0, 0, 0, 0], [ 9E9, 9E9, 9E9, 9E9, 9E9, 9E9] ], v30, fine, pen\WObj:=platform;
    MoveL [ [-6.786, 0.142, 48.629], [0.117, 0.656, 0.746, 0.000], [0, 0, 0, 0], [ 9E9, 9E9, 9E9, 9E9, 9E9, 9E9] ], v1000, fine, pen\WObj:=platform;
    
    !!0.11258330249197772, -4.3875;
    MoveL [ [1.312, -5.206, 49.969], [0.015, -0.564, -0.826, 0.000], [0, 0, 0, 0], [ 9E9, 9E9, 9E9, 9E9, 9E9, 9E9] ], v1000, fine, pen\WObj:=platform;
    MoveL [ [0.113, -4.388, -0.010], [0.015, -0.564, -0.826, 0.000], [0, 0, 0, 0], [ 9E9, 9E9, 9E9, 9E9, 9E9, 9E9] ], v30, fine, pen\WObj:=platform;
    MoveL [ [1.312, -5.206, 49.969], [0.015, -0.564, -0.826, 0.000], [0, 0, 0, 0], [ 9E9, 9E9, 9E9, 9E9, 9E9, 9E9] ], v1000, fine, pen\WObj:=platform;
    
    !!0.16887495373796593, -4.485;
    MoveL [ [-9.189, 6.278, 47.913], [0.144, 0.747, 0.649, 0.000], [0, 0, 0, 0], [ 9E9, 9E9, 9E9, 9E9, 9E9, 9E9] ], v1000, fine, pen\WObj:=platform;
    MoveL [ [0.169, -4.485, -0.010], [0.144, 0.747, 0.649, 0.000], [0, 0, 0, 0], [ 9E9, 9E9, 9E9, 9E9, 9E9, 9E9] ], v30, fine, pen\WObj:=platform;
    MoveL [ [-9.189, 6.278, 47.913], [0.144, 0.747, 0.649, 0.000], [0, 0, 0, 0], [ 9E9, 9E9, 9E9, 9E9, 9E9, 9E9] ], v1000, fine, pen\WObj:=platform;
    
    !!0.22516660498395416, -4.582500000000001;
    MoveL [ [-9.357, -7.105, 48.998], [0.100, -0.253, 0.962, 0.000], [0, 0, 0, 0], [ 9E9, 9E9, 9E9, 9E9, 9E9, 9E9] ], v1000, fine, pen\WObj:=platform;
    MoveL [ [0.225, -4.583, -0.010], [0.100, -0.253, 0.962, 0.000], [0, 0, 0, 0], [ 9E9, 9E9, 9E9, 9E9, 9E9, 9E9] ], v30, fine, pen\WObj:=platform;
    MoveL [ [-9.357, -7.105, 48.998], [0.100, -0.253, 0.962, 0.000], [0, 0, 0, 0], [ 9E9, 9E9, 9E9, 9E9, 9E9, 9E9] ], v1000, fine, pen\WObj:=platform;
    
    !!0.28145825622994236, -4.680000000000001;
    MoveL [ [1.281, -4.471, 49.980], [0.010, 0.204, -0.979, 0.000], [0, 0, 0, 0], [ 9E9, 9E9, 9E9, 9E9, 9E9, 9E9] ], v1000, fine, pen\WObj:=platform;
    MoveL [ [0.281, -4.680, -0.010], [0.010, 0.204, -0.979, 0.000], [0, 0, 0, 0], [ 9E9, 9E9, 9E9, 9E9, 9E9, 9E9] ], v30, fine, pen\WObj:=platform;
    MoveL [ [1.281, -4.471, 49.980], [0.010, 0.204, -0.979, 0.000], [0, 0, 0, 0], [ 9E9, 9E9, 9E9, 9E9, 9E9, 9E9] ], v1000, fine, pen\WObj:=platform;
    
    !!0.33774990747593053, -4.7775;
    MoveL [ [-9.366, -6.894, 48.994], [0.100, -0.212, 0.972, 0.000], [0, 0, 0, 0], [ 9E9, 9E9, 9E9, 9E9, 9E9, 9E9] ], v1000, fine, pen\WObj:=platform;
    MoveL [ [0.338, -4.777, -0.010], [0.100, -0.212, 0.972, 0.000], [0, 0, 0, 0], [ 9E9, 9E9, 9E9, 9E9, 9E9, 9E9] ], v30, fine, pen\WObj:=platform;
    MoveL [ [-9.366, -6.894, 48.994], [0.100, -0.212, 0.972, 0.000], [0, 0, 0, 0], [ 9E9, 9E9, 9E9, 9E9, 9E9, 9E9] ], v1000, fine, pen\WObj:=platform;
    
    !!0.39404155872191876, -4.875;
    MoveL [ [-7.302, 6.369, 48.098], [0.138, 0.817, 0.559, 0.000], [0, 0, 0, 0], [ 9E9, 9E9, 9E9, 9E9, 9E9, 9E9] ], v1000, fine, pen\WObj:=platform;
    MoveL [ [0.394, -4.875, -0.010], [0.138, 0.817, 0.559, 0.000], [0, 0, 0, 0], [ 9E9, 9E9, 9E9, 9E9, 9E9, 9E9] ], v30, fine, pen\WObj:=platform;
    MoveL [ [-7.302, 6.369, 48.098], [0.138, 0.817, 0.559, 0.000], [0, 0, 0, 0], [ 9E9, 9E9, 9E9, 9E9, 9E9, 9E9] ], v1000, fine, pen\WObj:=platform;
    
    !!-1.1821246761657591, -3.9000000000000004;
    MoveL [ [3.141, 4.356, 49.114], [0.094, 0.882, -0.462, 0.000], [0, 0, 0, 0], [ 9E9, 9E9, 9E9, 9E9, 9E9, 9E9] ], v1000, fine, pen\WObj:=platform;
    MoveL [ [-1.182, -3.900, -0.010], [0.094, 0.882, -0.462, 0.000], [0, 0, 0, 0], [ 9E9, 9E9, 9E9, 9E9, 9E9, 9E9] ], v30, fine, pen\WObj:=platform;
    MoveL [ [3.141, 4.356, 49.114], [0.094, 0.882, -0.462, 0.000], [0, 0, 0, 0], [ 9E9, 9E9, 9E9, 9E9, 9E9, 9E9] ], v1000, fine, pen\WObj:=platform;
    
    !!-1.6887495373796555, -3.022500000000001;
    MoveL [ [-10.226, -4.049, 49.245], [0.086, -0.119, 0.989, 0.000], [0, 0, 0, 0], [ 9E9, 9E9, 9E9, 9E9, 9E9, 9E9] ], v1000, fine, pen\WObj:=platform;
    MoveL [ [-1.689, -3.023, -0.010], [0.086, -0.119, 0.989, 0.000], [0, 0, 0, 0], [ 9E9, 9E9, 9E9, 9E9, 9E9, 9E9] ], v30, fine, pen\WObj:=platform;
    MoveL [ [-10.226, -4.049, 49.245], [0.086, -0.119, 0.989, 0.000], [0, 0, 0, 0], [ 9E9, 9E9, 9E9, 9E9, 9E9, 9E9] ], v1000, fine, pen\WObj:=platform;
    
    !!-1.7450411886256436, -2.9250000000000003;
    MoveL [ [-6.361, 3.461, 49.365], [0.079, 0.808, 0.584, 0.000], [0, 0, 0, 0], [ 9E9, 9E9, 9E9, 9E9, 9E9, 9E9] ], v1000, fine, pen\WObj:=platform;
    MoveL [ [-1.745, -2.925, -0.010], [0.079, 0.808, 0.584, 0.000], [0, 0, 0, 0], [ 9E9, 9E9, 9E9, 9E9, 9E9, 9E9] ], v30, fine, pen\WObj:=platform;
    MoveL [ [-6.361, 3.461, 49.365], [0.079, 0.808, 0.584, 0.000], [0, 0, 0, 0], [ 9E9, 9E9, 9E9, 9E9, 9E9, 9E9] ], v1000, fine, pen\WObj:=platform;
    
    !!-1.8013328398716324, -2.8275000000000006;
    MoveL [ [1.593, -8.882, 49.506], [0.070, -0.870, -0.488, 0.000], [0, 0, 0, 0], [ 9E9, 9E9, 9E9, 9E9, 9E9, 9E9] ], v1000, fine, pen\WObj:=platform;
    MoveL [ [-1.801, -2.828, -0.010], [0.070, -0.870, -0.488, 0.000], [0, 0, 0, 0], [ 9E9, 9E9, 9E9, 9E9, 9E9, 9E9] ], v30, fine, pen\WObj:=platform;
    MoveL [ [1.593, -8.882, 49.506], [0.070, -0.870, -0.488, 0.000], [0, 0, 0, 0], [ 9E9, 9E9, 9E9, 9E9, 9E9, 9E9] ], v1000, fine, pen\WObj:=platform;
    
    !!-1.8576244911176216, -2.7300000000000004;
    MoveL [ [-9.356, -13.307, 48.280], [0.131, -0.809, 0.573, 0.000], [0, 0, 0, 0], [ 9E9, 9E9, 9E9, 9E9, 9E9, 9E9] ], v1000, fine, pen\WObj:=platform;
    MoveL [ [-1.858, -2.730, -0.010], [0.131, -0.809, 0.573, 0.000], [0, 0, 0, 0], [ 9E9, 9E9, 9E9, 9E9, 9E9, 9E9] ], v30, fine, pen\WObj:=platform;
    MoveL [ [-9.356, -13.307, 48.280], [0.131, -0.809, 0.573, 0.000], [0, 0, 0, 0], [ 9E9, 9E9, 9E9, 9E9, 9E9, 9E9] ], v1000, fine, pen\WObj:=platform;
    
    !!-1.9139161423636097, -2.632500000000001;
    MoveL [ [-2.064, -12.488, 49.009], [0.099, -0.995, 0.015, 0.000], [0, 0, 0, 0], [ 9E9, 9E9, 9E9, 9E9, 9E9, 9E9] ], v1000, fine, pen\WObj:=platform;
    MoveL [ [-1.914, -2.633, -0.010], [0.099, -0.995, 0.015, 0.000], [0, 0, 0, 0], [ 9E9, 9E9, 9E9, 9E9, 9E9, 9E9] ], v30, fine, pen\WObj:=platform;
    MoveL [ [-2.064, -12.488, 49.009], [0.099, -0.995, 0.015, 0.000], [0, 0, 0, 0], [ 9E9, 9E9, 9E9, 9E9, 9E9, 9E9] ], v1000, fine, pen\WObj:=platform;
    
    !!-1.9702077936095979, -2.5350000000000006;
    MoveL [ [-8.422, 3.824, 49.162], [0.091, 0.699, 0.709, 0.000], [0, 0, 0, 0], [ 9E9, 9E9, 9E9, 9E9, 9E9, 9E9] ], v1000, fine, pen\WObj:=platform;
    MoveL [ [-1.970, -2.535, -0.010], [0.091, 0.699, 0.709, 0.000], [0, 0, 0, 0], [ 9E9, 9E9, 9E9, 9E9, 9E9, 9E9] ], v30, fine, pen\WObj:=platform;
    MoveL [ [-8.422, 3.824, 49.162], [0.091, 0.699, 0.709, 0.000], [0, 0, 0, 0], [ 9E9, 9E9, 9E9, 9E9, 9E9, 9E9] ], v1000, fine, pen\WObj:=platform;
    
    !!-2.026499444855587, -2.4375;
    MoveL [ [-9.010, -18.516, 46.816], [0.178, -0.903, 0.392, 0.000], [0, 0, 0, 0], [ 9E9, 9E9, 9E9, 9E9, 9E9, 9E9] ], v1000, fine, pen\WObj:=platform;
    MoveL [ [-2.026, -2.438, -0.010], [0.178, -0.903, 0.392, 0.000], [0, 0, 0, 0], [ 9E9, 9E9, 9E9, 9E9, 9E9, 9E9] ], v30, fine, pen\WObj:=platform;
    MoveL [ [-9.010, -18.516, 46.816], [0.178, -0.903, 0.392, 0.000], [0, 0, 0, 0], [ 9E9, 9E9, 9E9, 9E9, 9E9, 9E9] ], v1000, fine, pen\WObj:=platform;
    
    !!-2.082791096101575, -2.3400000000000003;
    MoveL [ [-9.542, -3.275, 49.422], [0.075, -0.124, 0.989, 0.000], [0, 0, 0, 0], [ 9E9, 9E9, 9E9, 9E9, 9E9, 9E9] ], v1000, fine, pen\WObj:=platform;
    MoveL [ [-2.083, -2.340, -0.010], [0.075, -0.124, 0.989, 0.000], [0, 0, 0, 0], [ 9E9, 9E9, 9E9, 9E9, 9E9, 9E9] ], v30, fine, pen\WObj:=platform;
    MoveL [ [-9.542, -3.275, 49.422], [0.075, -0.124, 0.989, 0.000], [0, 0, 0, 0], [ 9E9, 9E9, 9E9, 9E9, 9E9, 9E9] ], v1000, fine, pen\WObj:=platform;
    
    !!-2.1390827473475635, -2.2425;
    MoveL [ [-1.635, 1.860, 49.819], [0.041, 0.992, -0.122, 0.000], [0, 0, 0, 0], [ 9E9, 9E9, 9E9, 9E9, 9E9, 9E9] ], v1000, fine, pen\WObj:=platform;
    MoveL [ [-2.139, -2.243, -0.010], [0.041, 0.992, -0.122, 0.000], [0, 0, 0, 0], [ 9E9, 9E9, 9E9, 9E9, 9E9, 9E9] ], v30, fine, pen\WObj:=platform;
    MoveL [ [-1.635, 1.860, 49.819], [0.041, 0.992, -0.122, 0.000], [0, 0, 0, 0], [ 9E9, 9E9, 9E9, 9E9, 9E9, 9E9] ], v1000, fine, pen\WObj:=platform;
    
    !!-2.195374398593552, -2.1450000000000005;
    MoveL [ [-6.191, -17.176, 47.510], [0.157, -0.954, 0.254, 0.000], [0, 0, 0, 0], [ 9E9, 9E9, 9E9, 9E9, 9E9, 9E9] ], v1000, fine, pen\WObj:=platform;
    MoveL [ [-2.195, -2.145, -0.010], [0.157, -0.954, 0.254, 0.000], [0, 0, 0, 0], [ 9E9, 9E9, 9E9, 9E9, 9E9, 9E9] ], v30, fine, pen\WObj:=platform;
    MoveL [ [-6.191, -17.176, 47.510], [0.157, -0.954, 0.254, 0.000], [0, 0, 0, 0], [ 9E9, 9E9, 9E9, 9E9, 9E9, 9E9] ], v1000, fine, pen\WObj:=platform;
    
    !!-1.238416327411747, -3.8025;
    MoveL [ [-7.548, 0.039, 49.441], [0.074, 0.519, 0.852, 0.000], [0, 0, 0, 0], [ 9E9, 9E9, 9E9, 9E9, 9E9, 9E9] ], v1000, fine, pen\WObj:=platform;
    MoveL [ [-1.238, -3.803, -0.010], [0.074, 0.519, 0.852, 0.000], [0, 0, 0, 0], [ 9E9, 9E9, 9E9, 9E9, 9E9, 9E9] ], v30, fine, pen\WObj:=platform;
    MoveL [ [-7.548, 0.039, 49.441], [0.074, 0.519, 0.852, 0.000], [0, 0, 0, 0], [ 9E9, 9E9, 9E9, 9E9, 9E9, 9E9] ], v1000, fine, pen\WObj:=platform;
    
    !!-2.25166604983954, -2.0475000000000003;
    MoveL [ [-6.038, -7.215, 49.578], [0.064, -0.805, 0.590, 0.000], [0, 0, 0, 0], [ 9E9, 9E9, 9E9, 9E9, 9E9, 9E9] ], v1000, fine, pen\WObj:=platform;
    MoveL [ [-2.252, -2.048, -0.010], [0.064, -0.805, 0.590, 0.000], [0, 0, 0, 0], [ 9E9, 9E9, 9E9, 9E9, 9E9, 9E9] ], v30, fine, pen\WObj:=platform;
    MoveL [ [-6.038, -7.215, 49.578], [0.064, -0.805, 0.590, 0.000], [0, 0, 0, 0], [ 9E9, 9E9, 9E9, 9E9, 9E9, 9E9] ], v1000, fine, pen\WObj:=platform;
    
    !!-2.3079577010855292, -1.9500000000000004;
    MoveL [ [-5.648, -6.211, 49.696], [0.054, -0.786, 0.616, 0.000], [0, 0, 0, 0], [ 9E9, 9E9, 9E9, 9E9, 9E9, 9E9] ], v1000, fine, pen\WObj:=platform;
    MoveL [ [-2.308, -1.950, -0.010], [0.054, -0.786, 0.616, 0.000], [0, 0, 0, 0], [ 9E9, 9E9, 9E9, 9E9, 9E9, 9E9] ], v30, fine, pen\WObj:=platform;
    MoveL [ [-5.648, -6.211, 49.696], [0.054, -0.786, 0.616, 0.000], [0, 0, 0, 0], [ 9E9, 9E9, 9E9, 9E9, 9E9, 9E9] ], v1000, fine, pen\WObj:=platform;
    
    !!-2.3642493523315182, -1.8525;
    MoveL [ [-5.972, -6.696, 49.624], [0.061, -0.801, 0.596, 0.000], [0, 0, 0, 0], [ 9E9, 9E9, 9E9, 9E9, 9E9, 9E9] ], v1000, fine, pen\WObj:=platform;
    MoveL [ [-2.364, -1.853, -0.010], [0.061, -0.801, 0.596, 0.000], [0, 0, 0, 0], [ 9E9, 9E9, 9E9, 9E9, 9E9, 9E9] ], v30, fine, pen\WObj:=platform;
    MoveL [ [-5.972, -6.696, 49.624], [0.061, -0.801, 0.596, 0.000], [0, 0, 0, 0], [ 9E9, 9E9, 9E9, 9E9, 9E9, 9E9] ], v1000, fine, pen\WObj:=platform;
    
    !!-2.420541003577506, -1.7550000000000003;
    MoveL [ [-5.342, -7.808, 49.536], [0.067, -0.899, 0.434, 0.000], [0, 0, 0, 0], [ 9E9, 9E9, 9E9, 9E9, 9E9, 9E9] ], v1000, fine, pen\WObj:=platform;
    MoveL [ [-2.421, -1.755, -0.010], [0.067, -0.899, 0.434, 0.000], [0, 0, 0, 0], [ 9E9, 9E9, 9E9, 9E9, 9E9, 9E9] ], v30, fine, pen\WObj:=platform;
    MoveL [ [-5.342, -7.808, 49.536], [0.067, -0.899, 0.434, 0.000], [0, 0, 0, 0], [ 9E9, 9E9, 9E9, 9E9, 9E9, 9E9] ], v1000, fine, pen\WObj:=platform;
    
    !!-2.476832654823495, -1.6575000000000002;
    MoveL [ [-5.687, -8.258, 49.448], [0.074, -0.897, 0.436, 0.000], [0, 0, 0, 0], [ 9E9, 9E9, 9E9, 9E9, 9E9, 9E9] ], v1000, fine, pen\WObj:=platform;
    MoveL [ [-2.477, -1.658, -0.010], [0.074, -0.897, 0.436, 0.000], [0, 0, 0, 0], [ 9E9, 9E9, 9E9, 9E9, 9E9, 9E9] ], v30, fine, pen\WObj:=platform;
    MoveL [ [-5.687, -8.258, 49.448], [0.074, -0.897, 0.436, 0.000], [0, 0, 0, 0], [ 9E9, 9E9, 9E9, 9E9, 9E9, 9E9] ], v1000, fine, pen\WObj:=platform;
    
    !!-2.533124306069483, -1.5600000000000003;
    MoveL [ [-5.925, -7.114, 49.565], [0.065, -0.852, 0.520, 0.000], [0, 0, 0, 0], [ 9E9, 9E9, 9E9, 9E9, 9E9, 9E9] ], v1000, fine, pen\WObj:=platform;
    MoveL [ [-2.533, -1.560, -0.010], [0.065, -0.852, 0.520, 0.000], [0, 0, 0, 0], [ 9E9, 9E9, 9E9, 9E9, 9E9, 9E9] ], v30, fine, pen\WObj:=platform;
    MoveL [ [-5.925, -7.114, 49.565], [0.065, -0.852, 0.520, 0.000], [0, 0, 0, 0], [ 9E9, 9E9, 9E9, 9E9, 9E9, 9E9] ], v1000, fine, pen\WObj:=platform;
    
    !!-2.589415957315471, -1.4625;
    MoveL [ [-5.302, -8.237, 49.455], [0.073, -0.926, 0.371, 0.000], [0, 0, 0, 0], [ 9E9, 9E9, 9E9, 9E9, 9E9, 9E9] ], v1000, fine, pen\WObj:=platform;
    MoveL [ [-2.589, -1.462, -0.010], [0.073, -0.926, 0.371, 0.000], [0, 0, 0, 0], [ 9E9, 9E9, 9E9, 9E9, 9E9, 9E9] ], v30, fine, pen\WObj:=platform;
    MoveL [ [-5.302, -8.237, 49.455], [0.073, -0.926, 0.371, 0.000], [0, 0, 0, 0], [ 9E9, 9E9, 9E9, 9E9, 9E9, 9E9] ], v1000, fine, pen\WObj:=platform;
    
    !!-2.6457076085614597, -1.3650000000000007;
    MoveL [ [-5.941, -8.175, 49.414], [0.076, -0.898, 0.434, 0.000], [0, 0, 0, 0], [ 9E9, 9E9, 9E9, 9E9, 9E9, 9E9] ], v1000, fine, pen\WObj:=platform;
    MoveL [ [-2.646, -1.365, -0.010], [0.076, -0.898, 0.434, 0.000], [0, 0, 0, 0], [ 9E9, 9E9, 9E9, 9E9, 9E9, 9E9] ], v30, fine, pen\WObj:=platform;
    MoveL [ [-5.941, -8.175, 49.414], [0.076, -0.898, 0.434, 0.000], [0, 0, 0, 0], [ 9E9, 9E9, 9E9, 9E9, 9E9, 9E9] ], v1000, fine, pen\WObj:=platform;
    
    !!-2.701999259807449, -1.2675000000000003;
    MoveL [ [-5.878, -7.529, 49.495], [0.070, -0.890, 0.451, 0.000], [0, 0, 0, 0], [ 9E9, 9E9, 9E9, 9E9, 9E9, 9E9] ], v1000, fine, pen\WObj:=platform;
    MoveL [ [-2.702, -1.268, -0.010], [0.070, -0.890, 0.451, 0.000], [0, 0, 0, 0], [ 9E9, 9E9, 9E9, 9E9, 9E9, 9E9] ], v30, fine, pen\WObj:=platform;
    MoveL [ [-5.878, -7.529, 49.495], [0.070, -0.890, 0.451, 0.000], [0, 0, 0, 0], [ 9E9, 9E9, 9E9, 9E9, 9E9, 9E9] ], v1000, fine, pen\WObj:=platform;
    
    !!-2.7582909110534377, -1.1700000000000004;
    MoveL [ [-5.262, -8.661, 49.362], [0.079, -0.945, 0.316, 0.000], [0, 0, 0, 0], [ 9E9, 9E9, 9E9, 9E9, 9E9, 9E9] ], v1000, fine, pen\WObj:=platform;
    MoveL [ [-2.758, -1.170, -0.010], [0.079, -0.945, 0.316, 0.000], [0, 0, 0, 0], [ 9E9, 9E9, 9E9, 9E9, 9E9, 9E9] ], v30, fine, pen\WObj:=platform;
    MoveL [ [-5.262, -8.661, 49.362], [0.079, -0.945, 0.316, 0.000], [0, 0, 0, 0], [ 9E9, 9E9, 9E9, 9E9, 9E9, 9E9] ], v1000, fine, pen\WObj:=platform;
    
    !!-1.2947079786577353, -3.705;
    MoveL [ [-9.372, -12.366, 48.567], [0.119, -0.726, 0.677, 0.000], [0, 0, 0, 0], [ 9E9, 9E9, 9E9, 9E9, 9E9, 9E9] ], v1000, fine, pen\WObj:=platform;
    MoveL [ [-1.295, -3.705, -0.010], [0.119, -0.726, 0.677, 0.000], [0, 0, 0, 0], [ 9E9, 9E9, 9E9, 9E9, 9E9, 9E9] ], v30, fine, pen\WObj:=platform;
    MoveL [ [-9.372, -12.366, 48.567], [0.119, -0.726, 0.677, 0.000], [0, 0, 0, 0], [ 9E9, 9E9, 9E9, 9E9, 9E9, 9E9] ], v1000, fine, pen\WObj:=platform;
    
    !!-2.814582562299426, -1.0725000000000002;
    MoveL [ [-5.899, -8.580, 49.327], [0.081, -0.922, 0.379, 0.000], [0, 0, 0, 0], [ 9E9, 9E9, 9E9, 9E9, 9E9, 9E9] ], v1000, fine, pen\WObj:=platform;
    MoveL [ [-2.815, -1.073, -0.010], [0.081, -0.922, 0.379, 0.000], [0, 0, 0, 0], [ 9E9, 9E9, 9E9, 9E9, 9E9, 9E9] ], v30, fine, pen\WObj:=platform;
    MoveL [ [-5.899, -8.580, 49.327], [0.081, -0.922, 0.379, 0.000], [0, 0, 0, 0], [ 9E9, 9E9, 9E9, 9E9, 9E9, 9E9] ], v1000, fine, pen\WObj:=platform;
    
    !!-1.3509996299037241, -3.607500000000001;
    MoveL [ [-9.371, -12.462, 48.542], [0.120, -0.736, 0.666, 0.000], [0, 0, 0, 0], [ 9E9, 9E9, 9E9, 9E9, 9E9, 9E9] ], v1000, fine, pen\WObj:=platform;
    MoveL [ [-1.351, -3.608, -0.010], [0.120, -0.736, 0.666, 0.000], [0, 0, 0, 0], [ 9E9, 9E9, 9E9, 9E9, 9E9, 9E9] ], v30, fine, pen\WObj:=platform;
    MoveL [ [-9.371, -12.462, 48.542], [0.120, -0.736, 0.666, 0.000], [0, 0, 0, 0], [ 9E9, 9E9, 9E9, 9E9, 9E9, 9E9] ], v1000, fine, pen\WObj:=platform;
    
    !!-1.4072912811497122, -3.5100000000000002;
    MoveL [ [-8.710, 5.024, 48.712], [0.113, 0.755, 0.646, 0.000], [0, 0, 0, 0], [ 9E9, 9E9, 9E9, 9E9, 9E9, 9E9] ], v1000, fine, pen\WObj:=platform;
    MoveL [ [-1.407, -3.510, -0.010], [0.113, 0.755, 0.646, 0.000], [0, 0, 0, 0], [ 9E9, 9E9, 9E9, 9E9, 9E9, 9E9] ], v30, fine, pen\WObj:=platform;
    MoveL [ [-8.710, 5.024, 48.712], [0.113, 0.755, 0.646, 0.000], [0, 0, 0, 0], [ 9E9, 9E9, 9E9, 9E9, 9E9, 9E9] ], v1000, fine, pen\WObj:=platform;
    
    !!-1.4635829323957006, -3.4125000000000005;
    MoveL [ [-8.682, 4.907, 48.762], [0.111, 0.751, 0.651, 0.000], [0, 0, 0, 0], [ 9E9, 9E9, 9E9, 9E9, 9E9, 9E9] ], v1000, fine, pen\WObj:=platform;
    MoveL [ [-1.464, -3.413, -0.010], [0.111, 0.751, 0.651, 0.000], [0, 0, 0, 0], [ 9E9, 9E9, 9E9, 9E9, 9E9, 9E9] ], v30, fine, pen\WObj:=platform;
    MoveL [ [-8.682, 4.907, 48.762], [0.111, 0.751, 0.651, 0.000], [0, 0, 0, 0], [ 9E9, 9E9, 9E9, 9E9, 9E9, 9E9] ], v1000, fine, pen\WObj:=platform;
    
    !!-1.5198745836416903, -3.3150000000000004;
    MoveL [ [1.606, -7.740, 49.696], [0.054, -0.816, -0.576, 0.000], [0, 0, 0, 0], [ 9E9, 9E9, 9E9, 9E9, 9E9, 9E9] ], v1000, fine, pen\WObj:=platform;
    MoveL [ [-1.520, -3.315, -0.010], [0.054, -0.816, -0.576, 0.000], [0, 0, 0, 0], [ 9E9, 9E9, 9E9, 9E9, 9E9, 9E9] ], v30, fine, pen\WObj:=platform;
    MoveL [ [1.606, -7.740, 49.696], [0.054, -0.816, -0.576, 0.000], [0, 0, 0, 0], [ 9E9, 9E9, 9E9, 9E9, 9E9, 9E9] ], v1000, fine, pen\WObj:=platform;
    
    !!-1.5761662348876784, -3.217500000000001;
    MoveL [ [-9.366, -12.840, 48.433], [0.125, -0.771, 0.624, 0.000], [0, 0, 0, 0], [ 9E9, 9E9, 9E9, 9E9, 9E9, 9E9] ], v1000, fine, pen\WObj:=platform;
    MoveL [ [-1.576, -3.218, -0.010], [0.125, -0.771, 0.624, 0.000], [0, 0, 0, 0], [ 9E9, 9E9, 9E9, 9E9, 9E9, 9E9] ], v30, fine, pen\WObj:=platform;
    MoveL [ [-9.366, -12.840, 48.433], [0.125, -0.771, 0.624, 0.000], [0, 0, 0, 0], [ 9E9, 9E9, 9E9, 9E9, 9E9, 9E9] ], v1000, fine, pen\WObj:=platform;
    
    !!-1.6324578861336667, -3.1200000000000006;
    MoveL [ [-9.364, -12.934, 48.404], [0.126, -0.779, 0.614, 0.000], [0, 0, 0, 0], [ 9E9, 9E9, 9E9, 9E9, 9E9, 9E9] ], v1000, fine, pen\WObj:=platform;
    MoveL [ [-1.632, -3.120, -0.010], [0.126, -0.779, 0.614, 0.000], [0, 0, 0, 0], [ 9E9, 9E9, 9E9, 9E9, 9E9, 9E9] ], v30, fine, pen\WObj:=platform;
    MoveL [ [-9.364, -12.934, 48.404], [0.126, -0.779, 0.614, 0.000], [0, 0, 0, 0], [ 9E9, 9E9, 9E9, 9E9, 9E9, 9E9] ], v1000, fine, pen\WObj:=platform;
    
    !!-1.12583302491977, -3.9975000000000005;
    MoveL [ [-7.230, -8.989, 49.364], [0.079, -0.631, 0.772, 0.000], [0, 0, 0, 0], [ 9E9, 9E9, 9E9, 9E9, 9E9, 9E9] ], v1000, fine, pen\WObj:=platform;
    MoveL [ [-1.126, -3.998, -0.010], [0.079, -0.631, 0.772, 0.000], [0, 0, 0, 0], [ 9E9, 9E9, 9E9, 9E9, 9E9, 9E9] ], v30, fine, pen\WObj:=platform;
    MoveL [ [-7.230, -8.989, 49.364], [0.079, -0.631, 0.772, 0.000], [0, 0, 0, 0], [ 9E9, 9E9, 9E9, 9E9, 9E9, 9E9] ], v1000, fine, pen\WObj:=platform;
    
    !!-1.0695413736737818, -4.095000000000001;
    MoveL [ [-9.374, -11.982, 48.661], [0.115, -0.684, 0.720, 0.000], [0, 0, 0, 0], [ 9E9, 9E9, 9E9, 9E9, 9E9, 9E9] ], v1000, fine, pen\WObj:=platform;
    MoveL [ [-1.070, -4.095, -0.010], [0.115, -0.684, 0.720, 0.000], [0, 0, 0, 0], [ 9E9, 9E9, 9E9, 9E9, 9E9, 9E9] ], v30, fine, pen\WObj:=platform;
    MoveL [ [-9.374, -11.982, 48.661], [0.115, -0.684, 0.720, 0.000], [0, 0, 0, 0], [ 9E9, 9E9, 9E9, 9E9, 9E9, 9E9] ], v1000, fine, pen\WObj:=platform;
    
    !!-0.5629165124598847, -4.972500000000001;
    MoveL [ [-10.812, -4.105, 48.921], [0.103, 0.084, 0.991, 0.000], [0, 0, 0, 0], [ 9E9, 9E9, 9E9, 9E9, 9E9, 9E9] ], v1000, fine, pen\WObj:=platform;
    MoveL [ [-0.563, -4.973, -0.010], [0.103, 0.084, 0.991, 0.000], [0, 0, 0, 0], [ 9E9, 9E9, 9E9, 9E9, 9E9, 9E9] ], v30, fine, pen\WObj:=platform;
    MoveL [ [-10.812, -4.105, 48.921], [0.103, 0.084, 0.991, 0.000], [0, 0, 0, 0], [ 9E9, 9E9, 9E9, 9E9, 9E9, 9E9] ], v1000, fine, pen\WObj:=platform;
    
    !!-0.5066248612138966, -5.070000000000001;
    MoveL [ [-3.249, -16.860, 48.503], [0.122, -0.967, 0.225, 0.000], [0, 0, 0, 0], [ 9E9, 9E9, 9E9, 9E9, 9E9, 9E9] ], v1000, fine, pen\WObj:=platform;
    MoveL [ [-0.507, -5.070, -0.010], [0.122, -0.967, 0.225, 0.000], [0, 0, 0, 0], [ 9E9, 9E9, 9E9, 9E9, 9E9, 9E9] ], v30, fine, pen\WObj:=platform;
    MoveL [ [-3.249, -16.860, 48.503], [0.122, -0.967, 0.225, 0.000], [0, 0, 0, 0], [ 9E9, 9E9, 9E9, 9E9, 9E9, 9E9] ], v1000, fine, pen\WObj:=platform;
    
    !!-0.4503332099679076, -5.1675;
    MoveL [ [-10.780, 4.696, 47.907], [0.144, 0.683, 0.716, 0.000], [0, 0, 0, 0], [ 9E9, 9E9, 9E9, 9E9, 9E9, 9E9] ], v1000, fine, pen\WObj:=platform;
    MoveL [ [-0.450, -5.168, -0.010], [0.144, 0.683, 0.716, 0.000], [0, 0, 0, 0], [ 9E9, 9E9, 9E9, 9E9, 9E9, 9E9] ], v30, fine, pen\WObj:=platform;
    MoveL [ [-10.780, 4.696, 47.907], [0.144, 0.683, 0.716, 0.000], [0, 0, 0, 0], [ 9E9, 9E9, 9E9, 9E9, 9E9, 9E9] ], v1000, fine, pen\WObj:=platform;
    
    !!-0.3940415587219195, -5.265;
    MoveL [ [-8.852, -16.029, 48.079], [0.138, -0.779, 0.612, 0.000], [0, 0, 0, 0], [ 9E9, 9E9, 9E9, 9E9, 9E9, 9E9] ], v1000, fine, pen\WObj:=platform;
    MoveL [ [-0.394, -5.265, -0.010], [0.138, -0.779, 0.612, 0.000], [0, 0, 0, 0], [ 9E9, 9E9, 9E9, 9E9, 9E9, 9E9] ], v30, fine, pen\WObj:=platform;
    MoveL [ [-8.852, -16.029, 48.079], [0.138, -0.779, 0.612, 0.000], [0, 0, 0, 0], [ 9E9, 9E9, 9E9, 9E9, 9E9, 9E9] ], v1000, fine, pen\WObj:=platform;
    
    !!-0.33774990747593125, -5.362500000000001;
    MoveL [ [-3.184, -16.424, 48.668], [0.115, -0.962, 0.247, 0.000], [0, 0, 0, 0], [ 9E9, 9E9, 9E9, 9E9, 9E9, 9E9] ], v1000, fine, pen\WObj:=platform;
    MoveL [ [-0.338, -5.363, -0.010], [0.115, -0.962, 0.247, 0.000], [0, 0, 0, 0], [ 9E9, 9E9, 9E9, 9E9, 9E9, 9E9] ], v30, fine, pen\WObj:=platform;
    MoveL [ [-3.184, -16.424, 48.668], [0.115, -0.962, 0.247, 0.000], [0, 0, 0, 0], [ 9E9, 9E9, 9E9, 9E9, 9E9, 9E9] ], v1000, fine, pen\WObj:=platform;
    
    !!-0.281458256229943, -5.460000000000001;
    MoveL [ [-10.831, -3.652, 48.831], [0.108, 0.168, 0.980, 0.000], [0, 0, 0, 0], [ 9E9, 9E9, 9E9, 9E9, 9E9, 9E9] ], v1000, fine, pen\WObj:=platform;
    MoveL [ [-0.281, -5.460, -0.010], [0.108, 0.168, 0.980, 0.000], [0, 0, 0, 0], [ 9E9, 9E9, 9E9, 9E9, 9E9, 9E9] ], v30, fine, pen\WObj:=platform;
    MoveL [ [-10.831, -3.652, 48.831], [0.108, 0.168, 0.980, 0.000], [0, 0, 0, 0], [ 9E9, 9E9, 9E9, 9E9, 9E9, 9E9] ], v1000, fine, pen\WObj:=platform;
    
    !!-0.2251666049839535, -5.557499999999999;
    MoveL [ [-5.973, 12.858, 46.118], [0.197, 0.936, 0.292, 0.000], [0, 0, 0, 0], [ 9E9, 9E9, 9E9, 9E9, 9E9, 9E9] ], v1000, fine, pen\WObj:=platform;
    MoveL [ [-0.225, -5.557, -0.010], [0.197, 0.936, 0.292, 0.000], [0, 0, 0, 0], [ 9E9, 9E9, 9E9, 9E9, 9E9, 9E9] ], v30, fine, pen\WObj:=platform;
    MoveL [ [-5.973, 12.858, 46.118], [0.197, 0.936, 0.292, 0.000], [0, 0, 0, 0], [ 9E9, 9E9, 9E9, 9E9, 9E9, 9E9] ], v1000, fine, pen\WObj:=platform;
    
    !!-0.16887495373796527, -5.655000000000001;
    MoveL [ [-10.837, -3.472, 48.790], [0.110, 0.199, 0.974, 0.000], [0, 0, 0, 0], [ 9E9, 9E9, 9E9, 9E9, 9E9, 9E9] ], v1000, fine, pen\WObj:=platform;
    MoveL [ [-0.169, -5.655, -0.010], [0.110, 0.199, 0.974, 0.000], [0, 0, 0, 0], [ 9E9, 9E9, 9E9, 9E9, 9E9, 9E9] ], v30, fine, pen\WObj:=platform;
    MoveL [ [-10.837, -3.472, 48.790], [0.110, 0.199, 0.974, 0.000], [0, 0, 0, 0], [ 9E9, 9E9, 9E9, 9E9, 9E9, 9E9] ], v1000, fine, pen\WObj:=platform;
    
    !!-0.11258330249197708, -5.7525;
    MoveL [ [-10.840, -3.383, 48.768], [0.111, 0.214, 0.970, 0.000], [0, 0, 0, 0], [ 9E9, 9E9, 9E9, 9E9, 9E9, 9E9] ], v1000, fine, pen\WObj:=platform;
    MoveL [ [-0.113, -5.753, -0.010], [0.111, 0.214, 0.970, 0.000], [0, 0, 0, 0], [ 9E9, 9E9, 9E9, 9E9, 9E9, 9E9] ], v30, fine, pen\WObj:=platform;
    MoveL [ [-10.840, -3.383, 48.768], [0.111, 0.214, 0.970, 0.000], [0, 0, 0, 0], [ 9E9, 9E9, 9E9, 9E9, 9E9, 9E9] ], v1000, fine, pen\WObj:=platform;
    
    !!-0.056291651245988214, -5.8500000000000005;
    MoveL [ [-6.121, 13.229, 45.807], [0.205, 0.933, 0.297, 0.000], [0, 0, 0, 0], [ 9E9, 9E9, 9E9, 9E9, 9E9, 9E9] ], v1000, fine, pen\WObj:=platform;
    MoveL [ [-0.056, -5.850, -0.010], [0.205, 0.933, 0.297, 0.000], [0, 0, 0, 0], [ 9E9, 9E9, 9E9, 9E9, 9E9, 9E9] ], v30, fine, pen\WObj:=platform;
    MoveL [ [-6.121, 13.229, 45.807], [0.205, 0.933, 0.297, 0.000], [0, 0, 0, 0], [ 9E9, 9E9, 9E9, 9E9, 9E9, 9E9] ], v1000, fine, pen\WObj:=platform;
    
    !!-1.0132497224277937, -4.192500000000001;
    MoveL [ [-8.927, -17.018, 47.665], [0.152, -0.841, 0.519, 0.000], [0, 0, 0, 0], [ 9E9, 9E9, 9E9, 9E9, 9E9, 9E9] ], v1000, fine, pen\WObj:=platform;
    MoveL [ [-1.013, -4.193, -0.010], [0.152, -0.841, 0.519, 0.000], [0, 0, 0, 0], [ 9E9, 9E9, 9E9, 9E9, 9E9, 9E9] ], v30, fine, pen\WObj:=platform;
    MoveL [ [-8.927, -17.018, 47.665], [0.152, -0.841, 0.519, 0.000], [0, 0, 0, 0], [ 9E9, 9E9, 9E9, 9E9, 9E9, 9E9] ], v1000, fine, pen\WObj:=platform;
    
    !!0, -5.9475;
    MoveL [ [-10.845, -3.206, 48.723], [0.113, 0.244, 0.963, 0.000], [0, 0, 0, 0], [ 9E9, 9E9, 9E9, 9E9, 9E9, 9E9] ], v1000, fine, pen\WObj:=platform;
    MoveL [ [0.000, -5.947, -0.010], [0.113, 0.244, 0.963, 0.000], [0, 0, 0, 0], [ 9E9, 9E9, 9E9, 9E9, 9E9, 9E9] ], v30, fine, pen\WObj:=platform;
    MoveL [ [-10.845, -3.206, 48.723], [0.113, 0.244, 0.963, 0.000], [0, 0, 0, 0], [ 9E9, 9E9, 9E9, 9E9, 9E9, 9E9] ], v1000, fine, pen\WObj:=platform;
    
    !!0.05629165124598951, -6.045000000000002;
    MoveL [ [-6.219, 13.467, 45.596], [0.210, 0.931, 0.299, 0.000], [0, 0, 0, 0], [ 9E9, 9E9, 9E9, 9E9, 9E9, 9E9] ], v1000, fine, pen\WObj:=platform;
    MoveL [ [0.056, -6.045, -0.010], [0.210, 0.931, 0.299, 0.000], [0, 0, 0, 0], [ 9E9, 9E9, 9E9, 9E9, 9E9, 9E9] ], v30, fine, pen\WObj:=platform;
    MoveL [ [-6.219, 13.467, 45.596], [0.210, 0.931, 0.299, 0.000], [0, 0, 0, 0], [ 9E9, 9E9, 9E9, 9E9, 9E9, 9E9] ], v1000, fine, pen\WObj:=platform;
    
    !!0.11258330249197772, -6.142500000000001;
    MoveL [ [-10.849, -3.029, 48.674], [0.115, 0.271, 0.956, 0.000], [0, 0, 0, 0], [ 9E9, 9E9, 9E9, 9E9, 9E9, 9E9] ], v1000, fine, pen\WObj:=platform;
    MoveL [ [0.113, -6.143, -0.010], [0.115, 0.271, 0.956, 0.000], [0, 0, 0, 0], [ 9E9, 9E9, 9E9, 9E9, 9E9, 9E9] ], v30, fine, pen\WObj:=platform;
    MoveL [ [-10.849, -3.029, 48.674], [0.115, 0.271, 0.956, 0.000], [0, 0, 0, 0], [ 9E9, 9E9, 9E9, 9E9, 9E9, 9E9] ], v1000, fine, pen\WObj:=platform;
    
    !!0.16887495373796593, -6.240000000000001;
    MoveL [ [-2.991, -15.063, 49.104], [0.094, -0.937, 0.336, 0.000], [0, 0, 0, 0], [ 9E9, 9E9, 9E9, 9E9, 9E9, 9E9] ], v1000, fine, pen\WObj:=platform;
    MoveL [ [0.169, -6.240, -0.010], [0.094, -0.937, 0.336, 0.000], [0, 0, 0, 0], [ 9E9, 9E9, 9E9, 9E9, 9E9, 9E9] ], v30, fine, pen\WObj:=platform;
    MoveL [ [-2.991, -15.063, 49.104], [0.094, -0.937, 0.336, 0.000], [0, 0, 0, 0], [ 9E9, 9E9, 9E9, 9E9, 9E9, 9E9] ], v1000, fine, pen\WObj:=platform;
    
    !!0.22516660498395416, -6.3375;
    MoveL [ [-3.625, 9.687, 47.196], [0.167, 0.959, 0.230, 0.000], [0, 0, 0, 0], [ 9E9, 9E9, 9E9, 9E9, 9E9, 9E9] ], v1000, fine, pen\WObj:=platform;
    MoveL [ [0.225, -6.338, -0.010], [0.167, 0.959, 0.230, 0.000], [0, 0, 0, 0], [ 9E9, 9E9, 9E9, 9E9, 9E9, 9E9] ], v30, fine, pen\WObj:=platform;
    MoveL [ [-3.625, 9.687, 47.196], [0.167, 0.959, 0.230, 0.000], [0, 0, 0, 0], [ 9E9, 9E9, 9E9, 9E9, 9E9, 9E9] ], v1000, fine, pen\WObj:=platform;
    
    !!0.28145825622994236, -6.435000000000002;
    MoveL [ [-5.876, -11.860, 49.312], [0.082, -0.659, 0.748, 0.000], [0, 0, 0, 0], [ 9E9, 9E9, 9E9, 9E9, 9E9, 9E9] ], v1000, fine, pen\WObj:=platform;
    MoveL [ [0.281, -6.435, -0.010], [0.082, -0.659, 0.748, 0.000], [0, 0, 0, 0], [ 9E9, 9E9, 9E9, 9E9, 9E9, 9E9] ], v30, fine, pen\WObj:=platform;
    MoveL [ [-5.876, -11.860, 49.312], [0.082, -0.659, 0.748, 0.000], [0, 0, 0, 0], [ 9E9, 9E9, 9E9, 9E9, 9E9, 9E9] ], v1000, fine, pen\WObj:=platform;
    
    !!0.33774990747593053, -6.532500000000001;
    MoveL [ [-6.719, 0.012, 49.055], [0.097, 0.677, 0.730, 0.000], [0, 0, 0, 0], [ 9E9, 9E9, 9E9, 9E9, 9E9, 9E9] ], v1000, fine, pen\WObj:=platform;
    MoveL [ [0.338, -6.533, -0.010], [0.097, 0.677, 0.730, 0.000], [0, 0, 0, 0], [ 9E9, 9E9, 9E9, 9E9, 9E9, 9E9] ], v30, fine, pen\WObj:=platform;
    MoveL [ [-6.719, 0.012, 49.055], [0.097, 0.677, 0.730, 0.000], [0, 0, 0, 0], [ 9E9, 9E9, 9E9, 9E9, 9E9, 9E9] ], v1000, fine, pen\WObj:=platform;
    
    !!0.39404155872191876, -6.630000000000001;
    MoveL [ [-6.690, -0.685, 49.127], [0.093, 0.640, 0.763, 0.000], [0, 0, 0, 0], [ 9E9, 9E9, 9E9, 9E9, 9E9, 9E9] ], v1000, fine, pen\WObj:=platform;
    MoveL [ [0.394, -6.630, -0.010], [0.093, 0.640, 0.763, 0.000], [0, 0, 0, 0], [ 9E9, 9E9, 9E9, 9E9, 9E9, 9E9] ], v30, fine, pen\WObj:=platform;
    MoveL [ [-6.690, -0.685, 49.127], [0.093, 0.640, 0.763, 0.000], [0, 0, 0, 0], [ 9E9, 9E9, 9E9, 9E9, 9E9, 9E9] ], v1000, fine, pen\WObj:=platform;
    
    !!0.4503332099679083, -6.727499999999999;
    MoveL [ [-6.378, -0.884, 49.176], [0.090, 0.648, 0.757, 0.000], [0, 0, 0, 0], [ 9E9, 9E9, 9E9, 9E9, 9E9, 9E9] ], v1000, fine, pen\WObj:=platform;
    MoveL [ [0.450, -6.727, -0.010], [0.090, 0.648, 0.757, 0.000], [0, 0, 0, 0], [ 9E9, 9E9, 9E9, 9E9, 9E9, 9E9] ], v30, fine, pen\WObj:=platform;
    MoveL [ [-6.378, -0.884, 49.176], [0.090, 0.648, 0.757, 0.000], [0, 0, 0, 0], [ 9E9, 9E9, 9E9, 9E9, 9E9, 9E9] ], v1000, fine, pen\WObj:=platform;
    
    !!0.5066248612138966, -6.825000000000001;
    MoveL [ [-6.718, -0.419, 49.049], [0.097, 0.660, 0.745, 0.000], [0, 0, 0, 0], [ 9E9, 9E9, 9E9, 9E9, 9E9, 9E9] ], v1000, fine, pen\WObj:=platform;
    MoveL [ [0.507, -6.825, -0.010], [0.097, 0.660, 0.745, 0.000], [0, 0, 0, 0], [ 9E9, 9E9, 9E9, 9E9, 9E9, 9E9] ], v30, fine, pen\WObj:=platform;
    MoveL [ [-6.718, -0.419, 49.049], [0.097, 0.660, 0.745, 0.000], [0, 0, 0, 0], [ 9E9, 9E9, 9E9, 9E9, 9E9, 9E9] ], v1000, fine, pen\WObj:=platform;
    
    !!-0.9569580711818042, -4.290000000000001;
    MoveL [ [-8.923, 5.935, 48.281], [0.131, 0.782, 0.609, 0.000], [0, 0, 0, 0], [ 9E9, 9E9, 9E9, 9E9, 9E9, 9E9] ], v1000, fine, pen\WObj:=platform;
    MoveL [ [-0.957, -4.290, -0.010], [0.131, 0.782, 0.609, 0.000], [0, 0, 0, 0], [ 9E9, 9E9, 9E9, 9E9, 9E9, 9E9] ], v30, fine, pen\WObj:=platform;
    MoveL [ [-8.923, 5.935, 48.281], [0.131, 0.782, 0.609, 0.000], [0, 0, 0, 0], [ 9E9, 9E9, 9E9, 9E9, 9E9, 9E9] ], v1000, fine, pen\WObj:=platform;
    
    !!0.5629165124598847, -6.9225;
    MoveL [ [-6.732, -0.288, 49.008], [0.099, 0.670, 0.736, 0.000], [0, 0, 0, 0], [ 9E9, 9E9, 9E9, 9E9, 9E9, 9E9] ], v1000, fine, pen\WObj:=platform;
    MoveL [ [0.563, -6.923, -0.010], [0.099, 0.670, 0.736, 0.000], [0, 0, 0, 0], [ 9E9, 9E9, 9E9, 9E9, 9E9, 9E9] ], v30, fine, pen\WObj:=platform;
    MoveL [ [-6.732, -0.288, 49.008], [0.099, 0.670, 0.736, 0.000], [0, 0, 0, 0], [ 9E9, 9E9, 9E9, 9E9, 9E9, 9E9] ], v1000, fine, pen\WObj:=platform;
    
    !!0.6192081637058743, -7.0200000000000005;
    MoveL [ [-6.527, 1.212, 48.787], [0.110, 0.751, 0.652, 0.000], [0, 0, 0, 0], [ 9E9, 9E9, 9E9, 9E9, 9E9, 9E9] ], v1000, fine, pen\WObj:=platform;
    MoveL [ [0.619, -7.020, -0.010], [0.110, 0.751, 0.652, 0.000], [0, 0, 0, 0], [ 9E9, 9E9, 9E9, 9E9, 9E9, 9E9] ], v30, fine, pen\WObj:=platform;
    MoveL [ [-6.527, 1.212, 48.787], [0.110, 0.751, 0.652, 0.000], [0, 0, 0, 0], [ 9E9, 9E9, 9E9, 9E9, 9E9, 9E9] ], v1000, fine, pen\WObj:=platform;
    
    !!0.6754998149518625, -7.1175000000000015;
    MoveL [ [-6.143, 0.197, 48.980], [0.101, 0.728, 0.678, 0.000], [0, 0, 0, 0], [ 9E9, 9E9, 9E9, 9E9, 9E9, 9E9] ], v1000, fine, pen\WObj:=platform;
    MoveL [ [0.675, -7.118, -0.010], [0.101, 0.728, 0.678, 0.000], [0, 0, 0, 0], [ 9E9, 9E9, 9E9, 9E9, 9E9, 9E9] ], v30, fine, pen\WObj:=platform;
    MoveL [ [-6.143, 0.197, 48.980], [0.101, 0.728, 0.678, 0.000], [0, 0, 0, 0], [ 9E9, 9E9, 9E9, 9E9, 9E9, 9E9] ], v1000, fine, pen\WObj:=platform;
    
    !!0.7317914661978507, -7.215000000000002;
    MoveL [ [-6.448, -0.207, 48.973], [0.101, 0.695, 0.712, 0.000], [0, 0, 0, 0], [ 9E9, 9E9, 9E9, 9E9, 9E9, 9E9] ], v1000, fine, pen\WObj:=platform;
    MoveL [ [0.732, -7.215, -0.010], [0.101, 0.695, 0.712, 0.000], [0, 0, 0, 0], [ 9E9, 9E9, 9E9, 9E9, 9E9, 9E9] ], v30, fine, pen\WObj:=platform;
    MoveL [ [-6.448, -0.207, 48.973], [0.101, 0.695, 0.712, 0.000], [0, 0, 0, 0], [ 9E9, 9E9, 9E9, 9E9, 9E9, 9E9] ], v1000, fine, pen\WObj:=platform;
    
    !!0.7880831174438402, -7.312500000000001;
    MoveL [ [-6.788, 0.234, 48.833], [0.108, 0.702, 0.704, 0.000], [0, 0, 0, 0], [ 9E9, 9E9, 9E9, 9E9, 9E9, 9E9] ], v1000, fine, pen\WObj:=platform;
    MoveL [ [0.788, -7.313, -0.010], [0.108, 0.702, 0.704, 0.000], [0, 0, 0, 0], [ 9E9, 9E9, 9E9, 9E9, 9E9, 9E9] ], v30, fine, pen\WObj:=platform;
    MoveL [ [-6.788, 0.234, 48.833], [0.108, 0.702, 0.704, 0.000], [0, 0, 0, 0], [ 9E9, 9E9, 9E9, 9E9, 9E9, 9E9] ], v1000, fine, pen\WObj:=platform;
    
    !!0.8443747686898284, -7.410000000000001;
    MoveL [ [-6.190, 0.608, 48.839], [0.107, 0.747, 0.656, 0.000], [0, 0, 0, 0], [ 9E9, 9E9, 9E9, 9E9, 9E9, 9E9] ], v1000, fine, pen\WObj:=platform;
    MoveL [ [0.844, -7.410, -0.010], [0.107, 0.747, 0.656, 0.000], [0, 0, 0, 0], [ 9E9, 9E9, 9E9, 9E9, 9E9, 9E9] ], v30, fine, pen\WObj:=platform;
    MoveL [ [-6.190, 0.608, 48.839], [0.107, 0.747, 0.656, 0.000], [0, 0, 0, 0], [ 9E9, 9E9, 9E9, 9E9, 9E9, 9E9] ], v1000, fine, pen\WObj:=platform;
    
    !!0.9006664199358166, -7.507500000000001;
    MoveL [ [-6.206, 0.744, 48.790], [0.110, 0.753, 0.649, 0.000], [0, 0, 0, 0], [ 9E9, 9E9, 9E9, 9E9, 9E9, 9E9] ], v1000, fine, pen\WObj:=platform;
    MoveL [ [0.901, -7.508, -0.010], [0.110, 0.753, 0.649, 0.000], [0, 0, 0, 0], [ 9E9, 9E9, 9E9, 9E9, 9E9, 9E9] ], v30, fine, pen\WObj:=platform;
    MoveL [ [-6.206, 0.744, 48.790], [0.110, 0.753, 0.649, 0.000], [0, 0, 0, 0], [ 9E9, 9E9, 9E9, 9E9, 9E9, 9E9] ], v1000, fine, pen\WObj:=platform;
    
    !!0.9569580711818049, -7.605000000000002;
    MoveL [ [-6.222, 0.878, 48.739], [0.112, 0.759, 0.642, 0.000], [0, 0, 0, 0], [ 9E9, 9E9, 9E9, 9E9, 9E9, 9E9] ], v1000, fine, pen\WObj:=platform;
    MoveL [ [0.957, -7.605, -0.010], [0.112, 0.759, 0.642, 0.000], [0, 0, 0, 0], [ 9E9, 9E9, 9E9, 9E9, 9E9, 9E9] ], v30, fine, pen\WObj:=platform;
    MoveL [ [-6.222, 0.878, 48.739], [0.112, 0.759, 0.642, 0.000], [0, 0, 0, 0], [ 9E9, 9E9, 9E9, 9E9, 9E9, 9E9] ], v1000, fine, pen\WObj:=platform;
    
    !!1.0132497224277932, -7.702500000000001;
    MoveL [ [-6.307, 1.866, 48.517], [0.121, 0.788, 0.603, 0.000], [0, 0, 0, 0], [ 9E9, 9E9, 9E9, 9E9, 9E9, 9E9] ], v1000, fine, pen\WObj:=platform;
    MoveL [ [1.013, -7.703, -0.010], [0.121, 0.788, 0.603, 0.000], [0, 0, 0, 0], [ 9E9, 9E9, 9E9, 9E9, 9E9, 9E9] ], v30, fine, pen\WObj:=platform;
    MoveL [ [-6.307, 1.866, 48.517], [0.121, 0.788, 0.603, 0.000], [0, 0, 0, 0], [ 9E9, 9E9, 9E9, 9E9, 9E9, 9E9] ], v1000, fine, pen\WObj:=platform;
    
    !!1.0695413736737827, -7.800000000000001;
    MoveL [ [-6.325, 1.998, 48.460], [0.124, 0.792, 0.598, 0.000], [0, 0, 0, 0], [ 9E9, 9E9, 9E9, 9E9, 9E9, 9E9] ], v1000, fine, pen\WObj:=platform;
    MoveL [ [1.070, -7.800, -0.010], [0.124, 0.792, 0.598, 0.000], [0, 0, 0, 0], [ 9E9, 9E9, 9E9, 9E9, 9E9, 9E9] ], v30, fine, pen\WObj:=platform;
    MoveL [ [-6.325, 1.998, 48.460], [0.124, 0.792, 0.598, 0.000], [0, 0, 0, 0], [ 9E9, 9E9, 9E9, 9E9, 9E9, 9E9] ], v1000, fine, pen\WObj:=platform;
    
    !!-0.900666419935816, -4.3875;
    MoveL [ [2.864, 5.727, 48.811], [0.109, 0.932, -0.347, 0.000], [0, 0, 0, 0], [ 9E9, 9E9, 9E9, 9E9, 9E9, 9E9] ], v1000, fine, pen\WObj:=platform;
    MoveL [ [-0.901, -4.388, -0.010], [0.109, 0.932, -0.347, 0.000], [0, 0, 0, 0], [ 9E9, 9E9, 9E9, 9E9, 9E9, 9E9] ], v30, fine, pen\WObj:=platform;
    MoveL [ [2.864, 5.727, 48.811], [0.109, 0.932, -0.347, 0.000], [0, 0, 0, 0], [ 9E9, 9E9, 9E9, 9E9, 9E9, 9E9] ], v1000, fine, pen\WObj:=platform;
    
    !!1.1258330249197694, -7.897500000000002;
    MoveL [ [-6.547, 0.716, 48.641], [0.116, 0.742, 0.661, 0.000], [0, 0, 0, 0], [ 9E9, 9E9, 9E9, 9E9, 9E9, 9E9] ], v1000, fine, pen\WObj:=platform;
    MoveL [ [1.126, -7.898, -0.010], [0.116, 0.742, 0.661, 0.000], [0, 0, 0, 0], [ 9E9, 9E9, 9E9, 9E9, 9E9, 9E9] ], v30, fine, pen\WObj:=platform;
    MoveL [ [-6.547, 0.716, 48.641], [0.116, 0.742, 0.661, 0.000], [0, 0, 0, 0], [ 9E9, 9E9, 9E9, 9E9, 9E9, 9E9] ], v1000, fine, pen\WObj:=platform;
    
    !!-0.8443747686898277, -4.485;
    MoveL [ [-10.682, 4.060, 48.262], [0.131, 0.650, 0.748, 0.000], [0, 0, 0, 0], [ 9E9, 9E9, 9E9, 9E9, 9E9, 9E9] ], v1000, fine, pen\WObj:=platform;
    MoveL [ [-0.844, -4.485, -0.010], [0.131, 0.650, 0.748, 0.000], [0, 0, 0, 0], [ 9E9, 9E9, 9E9, 9E9, 9E9, 9E9] ], v30, fine, pen\WObj:=platform;
    MoveL [ [-10.682, 4.060, 48.262], [0.131, 0.650, 0.748, 0.000], [0, 0, 0, 0], [ 9E9, 9E9, 9E9, 9E9, 9E9, 9E9] ], v1000, fine, pen\WObj:=platform;
    
    !!-0.788083117443839, -4.582500000000001;
    MoveL [ [2.746, 6.266, 48.671], [0.115, 0.945, -0.308, 0.000], [0, 0, 0, 0], [ 9E9, 9E9, 9E9, 9E9, 9E9, 9E9] ], v1000, fine, pen\WObj:=platform;
    MoveL [ [-0.788, -4.583, -0.010], [0.115, 0.945, -0.308, 0.000], [0, 0, 0, 0], [ 9E9, 9E9, 9E9, 9E9, 9E9, 9E9] ], v30, fine, pen\WObj:=platform;
    MoveL [ [2.746, 6.266, 48.671], [0.115, 0.945, -0.308, 0.000], [0, 0, 0, 0], [ 9E9, 9E9, 9E9, 9E9, 9E9, 9E9] ], v1000, fine, pen\WObj:=platform;
    
    !!-0.7317914661978507, -4.680000000000001;
    MoveL [ [-8.895, -16.575, 47.864], [0.146, -0.816, 0.560, 0.000], [0, 0, 0, 0], [ 9E9, 9E9, 9E9, 9E9, 9E9, 9E9] ], v1000, fine, pen\WObj:=platform;
    MoveL [ [-0.732, -4.680, -0.010], [0.146, -0.816, 0.560, 0.000], [0, 0, 0, 0], [ 9E9, 9E9, 9E9, 9E9, 9E9, 9E9] ], v30, fine, pen\WObj:=platform;
    MoveL [ [-8.895, -16.575, 47.864], [0.146, -0.816, 0.560, 0.000], [0, 0, 0, 0], [ 9E9, 9E9, 9E9, 9E9, 9E9, 9E9] ], v1000, fine, pen\WObj:=platform;
    
    !!-0.6754998149518625, -4.7775;
    MoveL [ [-10.802, -4.288, 48.951], [0.102, 0.048, 0.994, 0.000], [0, 0, 0, 0], [ 9E9, 9E9, 9E9, 9E9, 9E9, 9E9] ], v1000, fine, pen\WObj:=platform;
    MoveL [ [-0.675, -4.777, -0.010], [0.102, 0.048, 0.994, 0.000], [0, 0, 0, 0], [ 9E9, 9E9, 9E9, 9E9, 9E9, 9E9] ], v30, fine, pen\WObj:=platform;
    MoveL [ [-10.802, -4.288, 48.951], [0.102, 0.048, 0.994, 0.000], [0, 0, 0, 0], [ 9E9, 9E9, 9E9, 9E9, 9E9, 9E9] ], v1000, fine, pen\WObj:=platform;
    
    !!-0.619208163705873, -4.875;
    MoveL [ [2.563, 7.065, 48.439], [0.125, 0.959, -0.256, 0.000], [0, 0, 0, 0], [ 9E9, 9E9, 9E9, 9E9, 9E9, 9E9] ], v1000, fine, pen\WObj:=platform;
    MoveL [ [-0.619, -4.875, -0.010], [0.125, 0.959, -0.256, 0.000], [0, 0, 0, 0], [ 9E9, 9E9, 9E9, 9E9, 9E9, 9E9] ], v30, fine, pen\WObj:=platform;
    MoveL [ [2.563, 7.065, 48.439], [0.125, 0.959, -0.256, 0.000], [0, 0, 0, 0], [ 9E9, 9E9, 9E9, 9E9, 9E9, 9E9] ], v1000, fine, pen\WObj:=platform;
    
    !!-1.2947079786577353, -3.9000000000000004;
    MoveL [ [-7.197, -9.103, 49.367], [0.079, -0.659, 0.748, 0.000], [0, 0, 0, 0], [ 9E9, 9E9, 9E9, 9E9, 9E9, 9E9] ], v1000, fine, pen\WObj:=platform;
    MoveL [ [-1.295, -3.900, -0.010], [0.079, -0.659, 0.748, 0.000], [0, 0, 0, 0], [ 9E9, 9E9, 9E9, 9E9, 9E9, 9E9] ], v30, fine, pen\WObj:=platform;
    MoveL [ [-7.197, -9.103, 49.367], [0.079, -0.659, 0.748, 0.000], [0, 0, 0, 0], [ 9E9, 9E9, 9E9, 9E9, 9E9, 9E9] ], v1000, fine, pen\WObj:=platform;
    
    !!-1.8013328398716324, -3.022500000000001;
    MoveL [ [1.624, -8.416, 49.580], [0.064, -0.842, -0.535, 0.000], [0, 0, 0, 0], [ 9E9, 9E9, 9E9, 9E9, 9E9, 9E9] ], v1000, fine, pen\WObj:=platform;
    MoveL [ [-1.801, -3.023, -0.010], [0.064, -0.842, -0.535, 0.000], [0, 0, 0, 0], [ 9E9, 9E9, 9E9, 9E9, 9E9, 9E9] ], v30, fine, pen\WObj:=platform;
    MoveL [ [1.624, -8.416, 49.580], [0.064, -0.842, -0.535, 0.000], [0, 0, 0, 0], [ 9E9, 9E9, 9E9, 9E9, 9E9, 9E9] ], v1000, fine, pen\WObj:=platform;
    
    !!-1.8576244911176216, -2.9250000000000003;
    MoveL [ [-8.514, 4.293, 49.016], [0.099, 0.732, 0.675, 0.000], [0, 0, 0, 0], [ 9E9, 9E9, 9E9, 9E9, 9E9, 9E9] ], v1000, fine, pen\WObj:=platform;
    MoveL [ [-1.858, -2.925, -0.010], [0.099, 0.732, 0.675, 0.000], [0, 0, 0, 0], [ 9E9, 9E9, 9E9, 9E9, 9E9, 9E9] ], v30, fine, pen\WObj:=platform;
    MoveL [ [-8.514, 4.293, 49.016], [0.099, 0.732, 0.675, 0.000], [0, 0, 0, 0], [ 9E9, 9E9, 9E9, 9E9, 9E9, 9E9] ], v1000, fine, pen\WObj:=platform;
    
    !!-1.9139161423636097, -2.8275000000000006;
    MoveL [ [-8.485, 4.172, 49.060], [0.096, 0.726, 0.681, 0.000], [0, 0, 0, 0], [ 9E9, 9E9, 9E9, 9E9, 9E9, 9E9] ], v1000, fine, pen\WObj:=platform;
    MoveL [ [-1.914, -2.828, -0.010], [0.096, 0.726, 0.681, 0.000], [0, 0, 0, 0], [ 9E9, 9E9, 9E9, 9E9, 9E9, 9E9] ], v30, fine, pen\WObj:=platform;
    MoveL [ [-8.485, 4.172, 49.060], [0.096, 0.726, 0.681, 0.000], [0, 0, 0, 0], [ 9E9, 9E9, 9E9, 9E9, 9E9, 9E9] ], v1000, fine, pen\WObj:=platform;
    
    !!-1.9702077936095979, -2.7300000000000004;
    MoveL [ [-5.157, -18.372, 47.373], [0.162, -0.967, 0.197, 0.000], [0, 0, 0, 0], [ 9E9, 9E9, 9E9, 9E9, 9E9, 9E9] ], v1000, fine, pen\WObj:=platform;
    MoveL [ [-1.970, -2.730, -0.010], [0.162, -0.967, 0.197, 0.000], [0, 0, 0, 0], [ 9E9, 9E9, 9E9, 9E9, 9E9, 9E9] ], v30, fine, pen\WObj:=platform;
    MoveL [ [-5.157, -18.372, 47.373], [0.162, -0.967, 0.197, 0.000], [0, 0, 0, 0], [ 9E9, 9E9, 9E9, 9E9, 9E9, 9E9] ], v1000, fine, pen\WObj:=platform;
    
    !!-2.026499444855587, -2.632500000000001;
    MoveL [ [-8.978, -18.339, 46.947], [0.174, -0.900, 0.399, 0.000], [0, 0, 0, 0], [ 9E9, 9E9, 9E9, 9E9, 9E9, 9E9] ], v1000, fine, pen\WObj:=platform;
    MoveL [ [-2.026, -2.633, -0.010], [0.174, -0.900, 0.399, 0.000], [0, 0, 0, 0], [ 9E9, 9E9, 9E9, 9E9, 9E9, 9E9] ], v30, fine, pen\WObj:=platform;
    MoveL [ [-8.978, -18.339, 46.947], [0.174, -0.900, 0.399, 0.000], [0, 0, 0, 0], [ 9E9, 9E9, 9E9, 9E9, 9E9, 9E9] ], v1000, fine, pen\WObj:=platform;
    
    !!-2.082791096101575, -2.5350000000000006;
    MoveL [ [-2.039, -12.633, 48.960], [0.102, -0.995, -0.004, 0.000], [0, 0, 0, 0], [ 9E9, 9E9, 9E9, 9E9, 9E9, 9E9] ], v1000, fine, pen\WObj:=platform;
    MoveL [ [-2.083, -2.535, -0.010], [0.102, -0.995, -0.004, 0.000], [0, 0, 0, 0], [ 9E9, 9E9, 9E9, 9E9, 9E9, 9E9] ], v30, fine, pen\WObj:=platform;
    MoveL [ [-2.039, -12.633, 48.960], [0.102, -0.995, -0.004, 0.000], [0, 0, 0, 0], [ 9E9, 9E9, 9E9, 9E9, 9E9, 9E9] ], v1000, fine, pen\WObj:=platform;
    
    !!-2.1390827473475635, -2.4375;
    MoveL [ [-9.537, -3.173, 49.434], [0.075, -0.099, 0.992, 0.000], [0, 0, 0, 0], [ 9E9, 9E9, 9E9, 9E9, 9E9, 9E9] ], v1000, fine, pen\WObj:=platform;
    MoveL [ [-2.139, -2.438, -0.010], [0.075, -0.099, 0.992, 0.000], [0, 0, 0, 0], [ 9E9, 9E9, 9E9, 9E9, 9E9, 9E9] ], v30, fine, pen\WObj:=platform;
    MoveL [ [-9.537, -3.173, 49.434], [0.075, -0.099, 0.992, 0.000], [0, 0, 0, 0], [ 9E9, 9E9, 9E9, 9E9, 9E9, 9E9] ], v1000, fine, pen\WObj:=platform;
    
    !!-2.195374398593552, -2.3400000000000003;
    MoveL [ [-6.148, -16.940, 47.647], [0.153, -0.954, 0.258, 0.000], [0, 0, 0, 0], [ 9E9, 9E9, 9E9, 9E9, 9E9, 9E9] ], v1000, fine, pen\WObj:=platform;
    MoveL [ [-2.195, -2.340, -0.010], [0.153, -0.954, 0.258, 0.000], [0, 0, 0, 0], [ 9E9, 9E9, 9E9, 9E9, 9E9, 9E9] ], v30, fine, pen\WObj:=platform;
    MoveL [ [-6.148, -16.940, 47.647], [0.153, -0.954, 0.258, 0.000], [0, 0, 0, 0], [ 9E9, 9E9, 9E9, 9E9, 9E9, 9E9] ], v1000, fine, pen\WObj:=platform;
    
    !!-2.25166604983954, -2.2425;
    MoveL [ [-1.604, 1.831, 49.820], [0.041, 0.987, -0.157, 0.000], [0, 0, 0, 0], [ 9E9, 9E9, 9E9, 9E9, 9E9, 9E9] ], v1000, fine, pen\WObj:=platform;
    MoveL [ [-2.252, -2.243, -0.010], [0.041, 0.987, -0.157, 0.000], [0, 0, 0, 0], [ 9E9, 9E9, 9E9, 9E9, 9E9, 9E9] ], v30, fine, pen\WObj:=platform;
    MoveL [ [-1.604, 1.831, 49.820], [0.041, 0.987, -0.157, 0.000], [0, 0, 0, 0], [ 9E9, 9E9, 9E9, 9E9, 9E9, 9E9] ], v1000, fine, pen\WObj:=platform;
    
    !!-2.3079577010855292, -2.1450000000000005;
    MoveL [ [-7.968, -2.059, 49.669], [0.057, 0.015, 0.998, 0.000], [0, 0, 0, 0], [ 9E9, 9E9, 9E9, 9E9, 9E9, 9E9] ], v1000, fine, pen\WObj:=platform;
    MoveL [ [-2.308, -2.145, -0.010], [0.057, 0.015, 0.998, 0.000], [0, 0, 0, 0], [ 9E9, 9E9, 9E9, 9E9, 9E9, 9E9] ], v30, fine, pen\WObj:=platform;
    MoveL [ [-7.968, -2.059, 49.669], [0.057, 0.015, 0.998, 0.000], [0, 0, 0, 0], [ 9E9, 9E9, 9E9, 9E9, 9E9, 9E9] ], v1000, fine, pen\WObj:=platform;
    
    !!-1.3509996299037241, -3.8025;
    MoveL [ [-8.767, 5.355, 48.582], [0.119, 0.772, 0.625, 0.000], [0, 0, 0, 0], [ 9E9, 9E9, 9E9, 9E9, 9E9, 9E9] ], v1000, fine, pen\WObj:=platform;
    MoveL [ [-1.351, -3.803, -0.010], [0.119, 0.772, 0.625, 0.000], [0, 0, 0, 0], [ 9E9, 9E9, 9E9, 9E9, 9E9, 9E9] ], v30, fine, pen\WObj:=platform;
    MoveL [ [-8.767, 5.355, 48.582], [0.119, 0.772, 0.625, 0.000], [0, 0, 0, 0], [ 9E9, 9E9, 9E9, 9E9, 9E9, 9E9] ], v1000, fine, pen\WObj:=platform;
    
    !!-2.3642493523315182, -2.0475000000000003;
    MoveL [ [-6.009, -7.215, 49.588], [0.063, -0.816, 0.575, 0.000], [0, 0, 0, 0], [ 9E9, 9E9, 9E9, 9E9, 9E9, 9E9] ], v1000, fine, pen\WObj:=platform;
    MoveL [ [-2.364, -2.048, -0.010], [0.063, -0.816, 0.575, 0.000], [0, 0, 0, 0], [ 9E9, 9E9, 9E9, 9E9, 9E9, 9E9] ], v30, fine, pen\WObj:=platform;
    MoveL [ [-6.009, -7.215, 49.588], [0.063, -0.816, 0.575, 0.000], [0, 0, 0, 0], [ 9E9, 9E9, 9E9, 9E9, 9E9, 9E9] ], v1000, fine, pen\WObj:=platform;
    
    !!-2.420541003577506, -1.9500000000000004;
    MoveL [ [-5.298, -6.689, 49.682], [0.056, -0.853, 0.518, 0.000], [0, 0, 0, 0], [ 9E9, 9E9, 9E9, 9E9, 9E9, 9E9] ], v1000, fine, pen\WObj:=platform;
    MoveL [ [-2.421, -1.950, -0.010], [0.056, -0.853, 0.518, 0.000], [0, 0, 0, 0], [ 9E9, 9E9, 9E9, 9E9, 9E9, 9E9] ], v30, fine, pen\WObj:=platform;
    MoveL [ [-5.298, -6.689, 49.682], [0.056, -0.853, 0.518, 0.000], [0, 0, 0, 0], [ 9E9, 9E9, 9E9, 9E9, 9E9, 9E9] ], v1000, fine, pen\WObj:=platform;
    
    !!-2.476832654823495, -1.8525;
    MoveL [ [-5.326, -7.663, 49.569], [0.065, -0.896, 0.439, 0.000], [0, 0, 0, 0], [ 9E9, 9E9, 9E9, 9E9, 9E9, 9E9] ], v1000, fine, pen\WObj:=platform;
    MoveL [ [-2.477, -1.853, -0.010], [0.065, -0.896, 0.439, 0.000], [0, 0, 0, 0], [ 9E9, 9E9, 9E9, 9E9, 9E9, 9E9] ], v30, fine, pen\WObj:=platform;
    MoveL [ [-5.326, -7.663, 49.569], [0.065, -0.896, 0.439, 0.000], [0, 0, 0, 0], [ 9E9, 9E9, 9E9, 9E9, 9E9, 9E9] ], v1000, fine, pen\WObj:=platform;
    
    !!-2.533124306069483, -1.7550000000000003;
    MoveL [ [-5.586, -6.502, 49.670], [0.057, -0.840, 0.540, 0.000], [0, 0, 0, 0], [ 9E9, 9E9, 9E9, 9E9, 9E9, 9E9] ], v1000, fine, pen\WObj:=platform;
    MoveL [ [-2.533, -1.755, -0.010], [0.057, -0.840, 0.540, 0.000], [0, 0, 0, 0], [ 9E9, 9E9, 9E9, 9E9, 9E9, 9E9] ], v30, fine, pen\WObj:=platform;
    MoveL [ [-5.586, -6.502, 49.670], [0.057, -0.840, 0.540, 0.000], [0, 0, 0, 0], [ 9E9, 9E9, 9E9, 9E9, 9E9, 9E9] ], v1000, fine, pen\WObj:=platform;
    
    !!-2.589415957315471, -1.6575000000000002;
    MoveL [ [-5.912, -6.977, 49.595], [0.063, -0.846, 0.529, 0.000], [0, 0, 0, 0], [ 9E9, 9E9, 9E9, 9E9, 9E9, 9E9] ], v1000, fine, pen\WObj:=platform;
    MoveL [ [-2.589, -1.658, -0.010], [0.063, -0.846, 0.529, 0.000], [0, 0, 0, 0], [ 9E9, 9E9, 9E9, 9E9, 9E9, 9E9] ], v30, fine, pen\WObj:=platform;
    MoveL [ [-5.912, -6.977, 49.595], [0.063, -0.846, 0.529, 0.000], [0, 0, 0, 0], [ 9E9, 9E9, 9E9, 9E9, 9E9, 9E9] ], v1000, fine, pen\WObj:=platform;
    
    !!-2.64570760856146, -1.5600000000000003;
    MoveL [ [-5.286, -8.094, 49.491], [0.071, -0.925, 0.374, 0.000], [0, 0, 0, 0], [ 9E9, 9E9, 9E9, 9E9, 9E9, 9E9] ], v1000, fine, pen\WObj:=platform;
    MoveL [ [-2.646, -1.560, -0.010], [0.071, -0.925, 0.374, 0.000], [0, 0, 0, 0], [ 9E9, 9E9, 9E9, 9E9, 9E9, 9E9] ], v30, fine, pen\WObj:=platform;
    MoveL [ [-5.286, -8.094, 49.491], [0.071, -0.925, 0.374, 0.000], [0, 0, 0, 0], [ 9E9, 9E9, 9E9, 9E9, 9E9, 9E9] ], v1000, fine, pen\WObj:=platform;
    
    !!-2.701999259807449, -1.4625;
    MoveL [ [-5.926, -8.039, 49.451], [0.073, -0.895, 0.439, 0.000], [0, 0, 0, 0], [ 9E9, 9E9, 9E9, 9E9, 9E9, 9E9] ], v1000, fine, pen\WObj:=platform;
    MoveL [ [-2.702, -1.462, -0.010], [0.073, -0.895, 0.439, 0.000], [0, 0, 0, 0], [ 9E9, 9E9, 9E9, 9E9, 9E9, 9E9] ], v30, fine, pen\WObj:=platform;
    MoveL [ [-5.926, -8.039, 49.451], [0.073, -0.895, 0.439, 0.000], [0, 0, 0, 0], [ 9E9, 9E9, 9E9, 9E9, 9E9, 9E9] ], v1000, fine, pen\WObj:=platform;
    
    !!-2.7582909110534377, -1.3650000000000007;
    MoveL [ [-5.912, -8.175, 49.424], [0.075, -0.905, 0.419, 0.000], [0, 0, 0, 0], [ 9E9, 9E9, 9E9, 9E9, 9E9, 9E9] ], v1000, fine, pen\WObj:=platform;
    MoveL [ [-2.758, -1.365, -0.010], [0.075, -0.905, 0.419, 0.000], [0, 0, 0, 0], [ 9E9, 9E9, 9E9, 9E9, 9E9, 9E9] ], v30, fine, pen\WObj:=platform;
    MoveL [ [-5.912, -8.175, 49.424], [0.075, -0.905, 0.419, 0.000], [0, 0, 0, 0], [ 9E9, 9E9, 9E9, 9E9, 9E9, 9E9] ], v1000, fine, pen\WObj:=platform;
    
    !!-2.814582562299426, -1.2675000000000003;
    MoveL [ [-5.608, -8.808, 49.339], [0.081, -0.935, 0.346, 0.000], [0, 0, 0, 0], [ 9E9, 9E9, 9E9, 9E9, 9E9, 9E9] ], v1000, fine, pen\WObj:=platform;
    MoveL [ [-2.815, -1.268, -0.010], [0.081, -0.935, 0.346, 0.000], [0, 0, 0, 0], [ 9E9, 9E9, 9E9, 9E9, 9E9, 9E9] ], v30, fine, pen\WObj:=platform;
    MoveL [ [-5.608, -8.808, 49.339], [0.081, -0.935, 0.346, 0.000], [0, 0, 0, 0], [ 9E9, 9E9, 9E9, 9E9, 9E9, 9E9] ], v1000, fine, pen\WObj:=platform;
    
    !!-2.870874213545415, -1.1700000000000004;
    MoveL [ [-5.488, -7.359, 49.536], [0.067, -0.919, 0.389, 0.000], [0, 0, 0, 0], [ 9E9, 9E9, 9E9, 9E9, 9E9, 9E9] ], v1000, fine, pen\WObj:=platform;
    MoveL [ [-2.871, -1.170, -0.010], [0.067, -0.919, 0.389, 0.000], [0, 0, 0, 0], [ 9E9, 9E9, 9E9, 9E9, 9E9, 9E9] ], v30, fine, pen\WObj:=platform;
    MoveL [ [-5.488, -7.359, 49.536], [0.067, -0.919, 0.389, 0.000], [0, 0, 0, 0], [ 9E9, 9E9, 9E9, 9E9, 9E9, 9E9] ], v1000, fine, pen\WObj:=platform;
    
    !!-1.4072912811497122, -3.705;
    MoveL [ [-9.350, -12.354, 48.592], [0.118, -0.731, 0.672, 0.000], [0, 0, 0, 0], [ 9E9, 9E9, 9E9, 9E9, 9E9, 9E9] ], v1000, fine, pen\WObj:=platform;
    MoveL [ [-1.407, -3.705, -0.010], [0.118, -0.731, 0.672, 0.000], [0, 0, 0, 0], [ 9E9, 9E9, 9E9, 9E9, 9E9, 9E9] ], v30, fine, pen\WObj:=platform;
    MoveL [ [-9.350, -12.354, 48.592], [0.118, -0.731, 0.672, 0.000], [0, 0, 0, 0], [ 9E9, 9E9, 9E9, 9E9, 9E9, 9E9] ], v1000, fine, pen\WObj:=platform;
    
    !!-1.4635829323957006, -3.607500000000001;
    MoveL [ [-8.713, 5.124, 48.685], [0.114, 0.764, 0.635, 0.000], [0, 0, 0, 0], [ 9E9, 9E9, 9E9, 9E9, 9E9, 9E9] ], v1000, fine, pen\WObj:=platform;
    MoveL [ [-1.464, -3.608, -0.010], [0.114, 0.764, 0.635, 0.000], [0, 0, 0, 0], [ 9E9, 9E9, 9E9, 9E9, 9E9, 9E9] ], v30, fine, pen\WObj:=platform;
    MoveL [ [-8.713, 5.124, 48.685], [0.114, 0.764, 0.635, 0.000], [0, 0, 0, 0], [ 9E9, 9E9, 9E9, 9E9, 9E9, 9E9] ], v1000, fine, pen\WObj:=platform;
    
    !!-1.5198745836416903, -3.5100000000000002;
    MoveL [ [1.631, -7.265, 49.749], [0.049, -0.765, -0.642, 0.000], [0, 0, 0, 0], [ 9E9, 9E9, 9E9, 9E9, 9E9, 9E9] ], v1000, fine, pen\WObj:=platform;
    MoveL [ [-1.520, -3.510, -0.010], [0.049, -0.765, -0.642, 0.000], [0, 0, 0, 0], [ 9E9, 9E9, 9E9, 9E9, 9E9, 9E9] ], v30, fine, pen\WObj:=platform;
    MoveL [ [1.631, -7.265, 49.749], [0.049, -0.765, -0.642, 0.000], [0, 0, 0, 0], [ 9E9, 9E9, 9E9, 9E9, 9E9, 9E9] ], v1000, fine, pen\WObj:=platform;
    
    !!-1.5761662348876784, -3.4125000000000005;
    MoveL [ [-7.436, -0.494, 49.560], [0.066, 0.445, 0.893, 0.000], [0, 0, 0, 0], [ 9E9, 9E9, 9E9, 9E9, 9E9, 9E9] ], v1000, fine, pen\WObj:=platform;
    MoveL [ [-1.576, -3.413, -0.010], [0.066, 0.445, 0.893, 0.000], [0, 0, 0, 0], [ 9E9, 9E9, 9E9, 9E9, 9E9, 9E9] ], v30, fine, pen\WObj:=platform;
    MoveL [ [-7.436, -0.494, 49.560], [0.066, 0.445, 0.893, 0.000], [0, 0, 0, 0], [ 9E9, 9E9, 9E9, 9E9, 9E9, 9E9] ], v1000, fine, pen\WObj:=platform;
    
    !!-1.6324578861336667, -3.3150000000000004;
    MoveL [ [-9.345, -12.735, 48.485], [0.123, -0.768, 0.629, 0.000], [0, 0, 0, 0], [ 9E9, 9E9, 9E9, 9E9, 9E9, 9E9] ], v1000, fine, pen\WObj:=platform;
    MoveL [ [-1.632, -3.315, -0.010], [0.123, -0.768, 0.629, 0.000], [0, 0, 0, 0], [ 9E9, 9E9, 9E9, 9E9, 9E9, 9E9] ], v30, fine, pen\WObj:=platform;
    MoveL [ [-9.345, -12.735, 48.485], [0.123, -0.768, 0.629, 0.000], [0, 0, 0, 0], [ 9E9, 9E9, 9E9, 9E9, 9E9, 9E9] ], v1000, fine, pen\WObj:=platform;
    
    !!-1.6887495373796555, -3.217500000000001;
    MoveL [ [-9.344, -12.829, 48.457], [0.124, -0.776, 0.618, 0.000], [0, 0, 0, 0], [ 9E9, 9E9, 9E9, 9E9, 9E9, 9E9] ], v1000, fine, pen\WObj:=platform;
    MoveL [ [-1.689, -3.218, -0.010], [0.124, -0.776, 0.618, 0.000], [0, 0, 0, 0], [ 9E9, 9E9, 9E9, 9E9, 9E9, 9E9] ], v30, fine, pen\WObj:=platform;
    MoveL [ [-9.344, -12.829, 48.457], [0.124, -0.776, 0.618, 0.000], [0, 0, 0, 0], [ 9E9, 9E9, 9E9, 9E9, 9E9, 9E9] ], v1000, fine, pen\WObj:=platform;
    
    !!-1.7450411886256436, -3.1200000000000006;
    MoveL [ [-9.342, -12.923, 48.427], [0.125, -0.784, 0.608, 0.000], [0, 0, 0, 0], [ 9E9, 9E9, 9E9, 9E9, 9E9, 9E9] ], v1000, fine, pen\WObj:=platform;
    MoveL [ [-1.745, -3.120, -0.010], [0.125, -0.784, 0.608, 0.000], [0, 0, 0, 0], [ 9E9, 9E9, 9E9, 9E9, 9E9, 9E9] ], v30, fine, pen\WObj:=platform;
    MoveL [ [-9.342, -12.923, 48.427], [0.125, -0.784, 0.608, 0.000], [0, 0, 0, 0], [ 9E9, 9E9, 9E9, 9E9, 9E9, 9E9] ], v1000, fine, pen\WObj:=platform;
    
    !!-1.238416327411747, -3.9975000000000005;
    MoveL [ [-8.912, -17.171, 47.609], [0.154, -0.854, 0.497, 0.000], [0, 0, 0, 0], [ 9E9, 9E9, 9E9, 9E9, 9E9, 9E9] ], v1000, fine, pen\WObj:=platform;
    MoveL [ [-1.238, -3.998, -0.010], [0.154, -0.854, 0.497, 0.000], [0, 0, 0, 0], [ 9E9, 9E9, 9E9, 9E9, 9E9, 9E9] ], v30, fine, pen\WObj:=platform;
    MoveL [ [-8.912, -17.171, 47.609], [0.154, -0.854, 0.497, 0.000], [0, 0, 0, 0], [ 9E9, 9E9, 9E9, 9E9, 9E9, 9E9] ], v1000, fine, pen\WObj:=platform;
    
    !!-1.1821246761657591, -4.095000000000001;
    MoveL [ [-8.906, -17.084, 47.651], [0.153, -0.849, 0.505, 0.000], [0, 0, 0, 0], [ 9E9, 9E9, 9E9, 9E9, 9E9, 9E9] ], v1000, fine, pen\WObj:=platform;
    MoveL [ [-1.182, -4.095, -0.010], [0.153, -0.849, 0.505, 0.000], [0, 0, 0, 0], [ 9E9, 9E9, 9E9, 9E9, 9E9, 9E9] ], v30, fine, pen\WObj:=platform;
    MoveL [ [-8.906, -17.084, 47.651], [0.153, -0.849, 0.505, 0.000], [0, 0, 0, 0], [ 9E9, 9E9, 9E9, 9E9, 9E9, 9E9] ], v1000, fine, pen\WObj:=platform;
    
    !!-0.6754998149518625, -4.972500000000001;
    MoveL [ [-10.738, 4.510, 48.040], [0.140, 0.679, 0.721, 0.000], [0, 0, 0, 0], [ 9E9, 9E9, 9E9, 9E9, 9E9, 9E9] ], v1000, fine, pen\WObj:=platform;
    MoveL [ [-0.675, -4.973, -0.010], [0.140, 0.679, 0.721, 0.000], [0, 0, 0, 0], [ 9E9, 9E9, 9E9, 9E9, 9E9, 9E9] ], v30, fine, pen\WObj:=platform;
    MoveL [ [-10.738, 4.510, 48.040], [0.140, 0.679, 0.721, 0.000], [0, 0, 0, 0], [ 9E9, 9E9, 9E9, 9E9, 9E9, 9E9] ], v1000, fine, pen\WObj:=platform;
    
    !!-0.6192081637058743, -5.070000000000001;
    MoveL [ [-3.210, -16.818, 48.521], [0.121, -0.969, 0.214, 0.000], [0, 0, 0, 0], [ 9E9, 9E9, 9E9, 9E9, 9E9, 9E9] ], v1000, fine, pen\WObj:=platform;
    MoveL [ [-0.619, -5.070, -0.010], [0.121, -0.969, 0.214, 0.000], [0, 0, 0, 0], [ 9E9, 9E9, 9E9, 9E9, 9E9, 9E9] ], v30, fine, pen\WObj:=platform;
    MoveL [ [-3.210, -16.818, 48.521], [0.121, -0.969, 0.214, 0.000], [0, 0, 0, 0], [ 9E9, 9E9, 9E9, 9E9, 9E9, 9E9] ], v1000, fine, pen\WObj:=platform;
    
    !!-0.5629165124598847, -5.1675;
    MoveL [ [-5.734, 12.312, 46.549], [0.186, 0.942, 0.279, 0.000], [0, 0, 0, 0], [ 9E9, 9E9, 9E9, 9E9, 9E9, 9E9] ], v1000, fine, pen\WObj:=platform;
    MoveL [ [-0.563, -5.168, -0.010], [0.186, 0.942, 0.279, 0.000], [0, 0, 0, 0], [ 9E9, 9E9, 9E9, 9E9, 9E9, 9E9] ], v30, fine, pen\WObj:=platform;
    MoveL [ [-5.734, 12.312, 46.549], [0.186, 0.942, 0.279, 0.000], [0, 0, 0, 0], [ 9E9, 9E9, 9E9, 9E9, 9E9, 9E9] ], v1000, fine, pen\WObj:=platform;
    
    !!-0.5066248612138966, -5.265;
    MoveL [ [-3.165, -16.529, 48.632], [0.117, -0.967, 0.228, 0.000], [0, 0, 0, 0], [ 9E9, 9E9, 9E9, 9E9, 9E9, 9E9] ], v1000, fine, pen\WObj:=platform;
    MoveL [ [-0.507, -5.265, -0.010], [0.117, -0.967, 0.228, 0.000], [0, 0, 0, 0], [ 9E9, 9E9, 9E9, 9E9, 9E9, 9E9] ], v30, fine, pen\WObj:=platform;
    MoveL [ [-3.165, -16.529, 48.632], [0.117, -0.967, 0.228, 0.000], [0, 0, 0, 0], [ 9E9, 9E9, 9E9, 9E9, 9E9, 9E9] ], v1000, fine, pen\WObj:=platform;
    
    !!-0.4503332099679083, -5.362500000000001;
    MoveL [ [-8.817, -15.914, 48.143], [0.136, -0.776, 0.616, 0.000], [0, 0, 0, 0], [ 9E9, 9E9, 9E9, 9E9, 9E9, 9E9] ], v1000, fine, pen\WObj:=platform;
    MoveL [ [-0.450, -5.363, -0.010], [0.136, -0.776, 0.616, 0.000], [0, 0, 0, 0], [ 9E9, 9E9, 9E9, 9E9, 9E9, 9E9] ], v30, fine, pen\WObj:=platform;
    MoveL [ [-8.817, -15.914, 48.143], [0.136, -0.776, 0.616, 0.000], [0, 0, 0, 0], [ 9E9, 9E9, 9E9, 9E9, 9E9, 9E9] ], v1000, fine, pen\WObj:=platform;
    
    !!-0.3940415587219195, -5.460000000000001;
    MoveL [ [-3.121, -16.235, 48.739], [0.112, -0.963, 0.244, 0.000], [0, 0, 0, 0], [ 9E9, 9E9, 9E9, 9E9, 9E9, 9E9] ], v1000, fine, pen\WObj:=platform;
    MoveL [ [-0.394, -5.460, -0.010], [0.112, -0.963, 0.244, 0.000], [0, 0, 0, 0], [ 9E9, 9E9, 9E9, 9E9, 9E9, 9E9] ], v30, fine, pen\WObj:=platform;
    MoveL [ [-3.121, -16.235, 48.739], [0.112, -0.963, 0.244, 0.000], [0, 0, 0, 0], [ 9E9, 9E9, 9E9, 9E9, 9E9, 9E9] ], v1000, fine, pen\WObj:=platform;
    
    !!-0.33774990747593125, -5.557499999999999;
    MoveL [ [-3.099, -16.087, 48.791], [0.110, -0.961, 0.252, 0.000], [0, 0, 0, 0], [ 9E9, 9E9, 9E9, 9E9, 9E9, 9E9] ], v1000, fine, pen\WObj:=platform;
    MoveL [ [-0.338, -5.557, -0.010], [0.110, -0.961, 0.252, 0.000], [0, 0, 0, 0], [ 9E9, 9E9, 9E9, 9E9, 9E9, 9E9] ], v30, fine, pen\WObj:=platform;
    MoveL [ [-3.099, -16.087, 48.791], [0.110, -0.961, 0.252, 0.000], [0, 0, 0, 0], [ 9E9, 9E9, 9E9, 9E9, 9E9, 9E9] ], v1000, fine, pen\WObj:=platform;
    
    !!-0.281458256229943, -5.655000000000001;
    MoveL [ [-10.823, -3.468, 48.817], [0.108, 0.202, 0.973, 0.000], [0, 0, 0, 0], [ 9E9, 9E9, 9E9, 9E9, 9E9, 9E9] ], v1000, fine, pen\WObj:=platform;
    MoveL [ [-0.281, -5.655, -0.010], [0.108, 0.202, 0.973, 0.000], [0, 0, 0, 0], [ 9E9, 9E9, 9E9, 9E9, 9E9, 9E9] ], v30, fine, pen\WObj:=platform;
    MoveL [ [-10.823, -3.468, 48.817], [0.108, 0.202, 0.973, 0.000], [0, 0, 0, 0], [ 9E9, 9E9, 9E9, 9E9, 9E9, 9E9] ], v1000, fine, pen\WObj:=platform;
    
    !!-0.2251666049839535, -5.7525;
    MoveL [ [2.397, 3.325, 49.089], [0.095, 0.956, -0.276, 0.000], [0, 0, 0, 0], [ 9E9, 9E9, 9E9, 9E9, 9E9, 9E9] ], v1000, fine, pen\WObj:=platform;
    MoveL [ [-0.225, -5.753, -0.010], [0.095, 0.956, -0.276, 0.000], [0, 0, 0, 0], [ 9E9, 9E9, 9E9, 9E9, 9E9, 9E9] ], v30, fine, pen\WObj:=platform;
    MoveL [ [2.397, 3.325, 49.089], [0.095, 0.956, -0.276, 0.000], [0, 0, 0, 0], [ 9E9, 9E9, 9E9, 9E9, 9E9, 9E9] ], v1000, fine, pen\WObj:=platform;
    
    !!-0.16887495373796527, -5.8500000000000005;
    MoveL [ [-10.829, -3.289, 48.773], [0.110, 0.232, 0.966, 0.000], [0, 0, 0, 0], [ 9E9, 9E9, 9E9, 9E9, 9E9, 9E9] ], v1000, fine, pen\WObj:=platform;
    MoveL [ [-0.169, -5.850, -0.010], [0.110, 0.232, 0.966, 0.000], [0, 0, 0, 0], [ 9E9, 9E9, 9E9, 9E9, 9E9, 9E9] ], v30, fine, pen\WObj:=platform;
    MoveL [ [-10.829, -3.289, 48.773], [0.110, 0.232, 0.966, 0.000], [0, 0, 0, 0], [ 9E9, 9E9, 9E9, 9E9, 9E9, 9E9] ], v1000, fine, pen\WObj:=platform;
    
    !!-1.12583302491977, -4.192500000000001;
    MoveL [ [-8.900, -16.997, 47.693], [0.152, -0.845, 0.513, 0.000], [0, 0, 0, 0], [ 9E9, 9E9, 9E9, 9E9, 9E9, 9E9] ], v1000, fine, pen\WObj:=platform;
    MoveL [ [-1.126, -4.193, -0.010], [0.152, -0.845, 0.513, 0.000], [0, 0, 0, 0], [ 9E9, 9E9, 9E9, 9E9, 9E9, 9E9] ], v30, fine, pen\WObj:=platform;
    MoveL [ [-8.900, -16.997, 47.693], [0.152, -0.845, 0.513, 0.000], [0, 0, 0, 0], [ 9E9, 9E9, 9E9, 9E9, 9E9, 9E9] ], v1000, fine, pen\WObj:=platform;
    
    !!-0.11258330249197708, -5.9475;
    MoveL [ [-6.133, 13.321, 45.733], [0.206, 0.934, 0.292, 0.000], [0, 0, 0, 0], [ 9E9, 9E9, 9E9, 9E9, 9E9, 9E9] ], v1000, fine, pen\WObj:=platform;
    MoveL [ [-0.113, -5.947, -0.010], [0.206, 0.934, 0.292, 0.000], [0, 0, 0, 0], [ 9E9, 9E9, 9E9, 9E9, 9E9, 9E9] ], v30, fine, pen\WObj:=platform;
    MoveL [ [-6.133, 13.321, 45.733], [0.206, 0.934, 0.292, 0.000], [0, 0, 0, 0], [ 9E9, 9E9, 9E9, 9E9, 9E9, 9E9] ], v1000, fine, pen\WObj:=platform;
    
    !!-0.056291651245988214, -6.045000000000002;
    MoveL [ [-6.182, 13.440, 45.628], [0.209, 0.933, 0.293, 0.000], [0, 0, 0, 0], [ 9E9, 9E9, 9E9, 9E9, 9E9, 9E9] ], v1000, fine, pen\WObj:=platform;
    MoveL [ [-0.056, -6.045, -0.010], [0.209, 0.933, 0.293, 0.000], [0, 0, 0, 0], [ 9E9, 9E9, 9E9, 9E9, 9E9, 9E9] ], v30, fine, pen\WObj:=platform;
    MoveL [ [-6.182, 13.440, 45.628], [0.209, 0.933, 0.293, 0.000], [0, 0, 0, 0], [ 9E9, 9E9, 9E9, 9E9, 9E9, 9E9] ], v1000, fine, pen\WObj:=platform;
    
    !!0, -6.142500000000001;
    MoveL [ [-10.836, -3.024, 48.702], [0.113, 0.275, 0.955, 0.000], [0, 0, 0, 0], [ 9E9, 9E9, 9E9, 9E9, 9E9, 9E9] ], v1000, fine, pen\WObj:=platform;
    MoveL [ [0.000, -6.143, -0.010], [0.113, 0.275, 0.955, 0.000], [0, 0, 0, 0], [ 9E9, 9E9, 9E9, 9E9, 9E9, 9E9] ], v30, fine, pen\WObj:=platform;
    MoveL [ [-10.836, -3.024, 48.702], [0.113, 0.275, 0.955, 0.000], [0, 0, 0, 0], [ 9E9, 9E9, 9E9, 9E9, 9E9, 9E9] ], v1000, fine, pen\WObj:=platform;
    
    !!0.056291651245988214, -6.240000000000001;
    MoveL [ [-10.838, -2.936, 48.677], [0.115, 0.288, 0.951, 0.000], [0, 0, 0, 0], [ 9E9, 9E9, 9E9, 9E9, 9E9, 9E9] ], v1000, fine, pen\WObj:=platform;
    MoveL [ [0.056, -6.240, -0.010], [0.115, 0.288, 0.951, 0.000], [0, 0, 0, 0], [ 9E9, 9E9, 9E9, 9E9, 9E9, 9E9] ], v30, fine, pen\WObj:=platform;
    MoveL [ [-10.838, -2.936, 48.677], [0.115, 0.288, 0.951, 0.000], [0, 0, 0, 0], [ 9E9, 9E9, 9E9, 9E9, 9E9, 9E9] ], v1000, fine, pen\WObj:=platform;
    
    !!0.11258330249197772, -6.3375;
    MoveL [ [-10.017, 0.957, 48.407], [0.126, 0.580, 0.805, 0.000], [0, 0, 0, 0], [ 9E9, 9E9, 9E9, 9E9, 9E9, 9E9] ], v1000, fine, pen\WObj:=platform;
    MoveL [ [0.113, -6.338, -0.010], [0.126, 0.580, 0.805, 0.000], [0, 0, 0, 0], [ 9E9, 9E9, 9E9, 9E9, 9E9, 9E9] ], v30, fine, pen\WObj:=platform;
    MoveL [ [-10.017, 0.957, 48.407], [0.126, 0.580, 0.805, 0.000], [0, 0, 0, 0], [ 9E9, 9E9, 9E9, 9E9, 9E9, 9E9] ], v1000, fine, pen\WObj:=platform;
    
    !!0.16887495373796593, -6.435000000000002;
    MoveL [ [-7.099, -7.859, 49.438], [0.074, -0.192, 0.979, 0.000], [0, 0, 0, 0], [ 9E9, 9E9, 9E9, 9E9, 9E9, 9E9] ], v1000, fine, pen\WObj:=platform;
    MoveL [ [0.169, -6.435, -0.010], [0.074, -0.192, 0.979, 0.000], [0, 0, 0, 0], [ 9E9, 9E9, 9E9, 9E9, 9E9, 9E9] ], v30, fine, pen\WObj:=platform;
    MoveL [ [-7.099, -7.859, 49.438], [0.074, -0.192, 0.979, 0.000], [0, 0, 0, 0], [ 9E9, 9E9, 9E9, 9E9, 9E9, 9E9] ], v1000, fine, pen\WObj:=platform;
    
    !!0.22516660498395416, -6.532500000000001;
    MoveL [ [-6.318, -1.155, 49.267], [0.085, 0.633, 0.770, 0.000], [0, 0, 0, 0], [ 9E9, 9E9, 9E9, 9E9, 9E9, 9E9] ], v1000, fine, pen\WObj:=platform;
    MoveL [ [0.225, -6.533, -0.010], [0.085, 0.633, 0.770, 0.000], [0, 0, 0, 0], [ 9E9, 9E9, 9E9, 9E9, 9E9, 9E9] ], v30, fine, pen\WObj:=platform;
    MoveL [ [-6.318, -1.155, 49.267], [0.085, 0.633, 0.770, 0.000], [0, 0, 0, 0], [ 9E9, 9E9, 9E9, 9E9, 9E9, 9E9] ], v1000, fine, pen\WObj:=platform;
    
    !!0.28145825622994236, -6.630000000000001;
    MoveL [ [-6.082, 0.370, 49.087], [0.095, 0.737, 0.670, 0.000], [0, 0, 0, 0], [ 9E9, 9E9, 9E9, 9E9, 9E9, 9E9] ], v1000, fine, pen\WObj:=platform;
    MoveL [ [0.281, -6.630, -0.010], [0.095, 0.737, 0.670, 0.000], [0, 0, 0, 0], [ 9E9, 9E9, 9E9, 9E9, 9E9, 9E9] ], v30, fine, pen\WObj:=platform;
    MoveL [ [-6.082, 0.370, 49.087], [0.095, 0.737, 0.670, 0.000], [0, 0, 0, 0], [ 9E9, 9E9, 9E9, 9E9, 9E9, 9E9] ], v1000, fine, pen\WObj:=platform;
    
    !!0.33774990747593053, -6.727499999999999;
    MoveL [ [-6.047, -0.356, 49.170], [0.091, 0.703, 0.705, 0.000], [0, 0, 0, 0], [ 9E9, 9E9, 9E9, 9E9, 9E9, 9E9] ], v1000, fine, pen\WObj:=platform;
    MoveL [ [0.338, -6.727, -0.010], [0.091, 0.703, 0.705, 0.000], [0, 0, 0, 0], [ 9E9, 9E9, 9E9, 9E9, 9E9, 9E9] ], v30, fine, pen\WObj:=platform;
    MoveL [ [-6.047, -0.356, 49.170], [0.091, 0.703, 0.705, 0.000], [0, 0, 0, 0], [ 9E9, 9E9, 9E9, 9E9, 9E9, 9E9] ], v1000, fine, pen\WObj:=platform;
    
    !!0.39404155872191876, -6.825000000000001;
    MoveL [ [-6.735, 0.411, 48.947], [0.102, 0.709, 0.698, 0.000], [0, 0, 0, 0], [ 9E9, 9E9, 9E9, 9E9, 9E9, 9E9] ], v1000, fine, pen\WObj:=platform;
    MoveL [ [0.394, -6.825, -0.010], [0.102, 0.709, 0.698, 0.000], [0, 0, 0, 0], [ 9E9, 9E9, 9E9, 9E9, 9E9, 9E9] ], v30, fine, pen\WObj:=platform;
    MoveL [ [-6.735, 0.411, 48.947], [0.102, 0.709, 0.698, 0.000], [0, 0, 0, 0], [ 9E9, 9E9, 9E9, 9E9, 9E9, 9E9] ], v1000, fine, pen\WObj:=platform;
    
    !!-1.0695413736737818, -4.290000000000001;
    MoveL [ [2.946, 5.413, 48.875], [0.106, 0.919, -0.380, 0.000], [0, 0, 0, 0], [ 9E9, 9E9, 9E9, 9E9, 9E9, 9E9] ], v1000, fine, pen\WObj:=platform;
    MoveL [ [-1.070, -4.290, -0.010], [0.106, 0.919, -0.380, 0.000], [0, 0, 0, 0], [ 9E9, 9E9, 9E9, 9E9, 9E9, 9E9] ], v30, fine, pen\WObj:=platform;
    MoveL [ [2.946, 5.413, 48.875], [0.106, 0.919, -0.380, 0.000], [0, 0, 0, 0], [ 9E9, 9E9, 9E9, 9E9, 9E9, 9E9] ], v1000, fine, pen\WObj:=platform;
    
    !!0.450333209967907, -6.9225;
    MoveL [ [-6.134, 0.787, 48.951], [0.102, 0.756, 0.646, 0.000], [0, 0, 0, 0], [ 9E9, 9E9, 9E9, 9E9, 9E9, 9E9] ], v1000, fine, pen\WObj:=platform;
    MoveL [ [0.450, -6.923, -0.010], [0.102, 0.756, 0.646, 0.000], [0, 0, 0, 0], [ 9E9, 9E9, 9E9, 9E9, 9E9, 9E9] ], v30, fine, pen\WObj:=platform;
    MoveL [ [-6.134, 0.787, 48.951], [0.102, 0.756, 0.646, 0.000], [0, 0, 0, 0], [ 9E9, 9E9, 9E9, 9E9, 9E9, 9E9] ], v1000, fine, pen\WObj:=platform;
    
    !!0.5066248612138966, -7.0200000000000005;
    MoveL [ [-6.495, 1.213, 48.808], [0.109, 0.757, 0.644, 0.000], [0, 0, 0, 0], [ 9E9, 9E9, 9E9, 9E9, 9E9, 9E9] ], v1000, fine, pen\WObj:=platform;
    MoveL [ [0.507, -7.020, -0.010], [0.109, 0.757, 0.644, 0.000], [0, 0, 0, 0], [ 9E9, 9E9, 9E9, 9E9, 9E9, 9E9] ], v30, fine, pen\WObj:=platform;
    MoveL [ [-6.495, 1.213, 48.808], [0.109, 0.757, 0.644, 0.000], [0, 0, 0, 0], [ 9E9, 9E9, 9E9, 9E9, 9E9, 9E9] ], v1000, fine, pen\WObj:=platform;
    
    !!0.5629165124598847, -7.1175000000000015;
    MoveL [ [-6.512, 1.346, 48.758], [0.111, 0.762, 0.637, 0.000], [0, 0, 0, 0], [ 9E9, 9E9, 9E9, 9E9, 9E9, 9E9] ], v1000, fine, pen\WObj:=platform;
    MoveL [ [0.563, -7.118, -0.010], [0.111, 0.762, 0.637, 0.000], [0, 0, 0, 0], [ 9E9, 9E9, 9E9, 9E9, 9E9, 9E9] ], v30, fine, pen\WObj:=platform;
    MoveL [ [-6.512, 1.346, 48.758], [0.111, 0.762, 0.637, 0.000], [0, 0, 0, 0], [ 9E9, 9E9, 9E9, 9E9, 9E9, 9E9] ], v1000, fine, pen\WObj:=platform;
    
    !!0.619208163705873, -7.215000000000002;
    MoveL [ [-6.743, 0.109, 48.900], [0.104, 0.701, 0.705, 0.000], [0, 0, 0, 0], [ 9E9, 9E9, 9E9, 9E9, 9E9, 9E9] ], v1000, fine, pen\WObj:=platform;
    MoveL [ [0.619, -7.215, -0.010], [0.104, 0.701, 0.705, 0.000], [0, 0, 0, 0], [ 9E9, 9E9, 9E9, 9E9, 9E9, 9E9] ], v30, fine, pen\WObj:=platform;
    MoveL [ [-6.743, 0.109, 48.900], [0.104, 0.701, 0.705, 0.000], [0, 0, 0, 0], [ 9E9, 9E9, 9E9, 9E9, 9E9, 9E9] ], v1000, fine, pen\WObj:=platform;
    
