MODULE MainModule
  PERS wobjdata platform := [ FALSE, TRUE, "", [ [800, 0, 600], [1, 0, 0 ,0] ], [ [0, 0, 0], [1, 0, 0 ,0] ] ];
  PERS tooldata pen := [ TRUE, [[0, 0, 100], [1, 0, 0 ,0]], [0.8,[0, 0, 30], [1, 0, 0, 0], 0, 0, 0]];
  PROC main()
    ConfL\Off;
    ConfJ\Off;
    SingArea\Wrist;
    !!-5.8836033882307195, 0.05070000000000019;
    MoveL [ [-4.632, -20.423, 45.589], [0.210, -0.976, -0.060, 0.000], [0, 0, 0, 0], [ 9E9, 9E9, 9E9, 9E9, 9E9, 9E9] ], v1000, fine, pen\WObj:=platform;
    MoveL [ [-5.884, 0.051, -0.010], [0.210, -0.976, -0.060, 0.000], [0, 0, 0, 0], [ 9E9, 9E9, 9E9, 9E9, 9E9, 9E9] ], v30, fine, pen\WObj:=platform;
    MoveL [ [-4.632, -20.423, 45.589], [0.210, -0.976, -0.060, 0.000], [0, 0, 0, 0], [ 9E9, 9E9, 9E9, 9E9, 9E9, 9E9] ], v1000, fine, pen\WObj:=platform;
    
    !!-5.825060070934892, -0.050699999999999634;
    MoveL [ [-4.660, -20.345, 45.671], [0.208, -0.977, -0.056, 0.000], [0, 0, 0, 0], [ 9E9, 9E9, 9E9, 9E9, 9E9, 9E9] ], v1000, fine, pen\WObj:=platform;
    MoveL [ [-5.825, -0.051, -0.010], [0.208, -0.977, -0.056, 0.000], [0, 0, 0, 0], [ 9E9, 9E9, 9E9, 9E9, 9E9, 9E9] ], v30, fine, pen\WObj:=platform;
    MoveL [ [-4.660, -20.345, 45.671], [0.208, -0.977, -0.056, 0.000], [0, 0, 0, 0], [ 9E9, 9E9, 9E9, 9E9, 9E9, 9E9] ], v1000, fine, pen\WObj:=platform;
    
    !!-5.8836033882307195, -0.1521;
    MoveL [ [-4.700, -20.297, 45.737], [0.206, -0.977, -0.057, 0.000], [0, 0, 0, 0], [ 9E9, 9E9, 9E9, 9E9, 9E9, 9E9] ], v1000, fine, pen\WObj:=platform;
    MoveL [ [-5.884, -0.152, -0.010], [0.206, -0.977, -0.057, 0.000], [0, 0, 0, 0], [ 9E9, 9E9, 9E9, 9E9, 9E9, 9E9] ], v30, fine, pen\WObj:=platform;
    MoveL [ [-4.700, -20.297, 45.737], [0.206, -0.977, -0.057, 0.000], [0, 0, 0, 0], [ 9E9, 9E9, 9E9, 9E9, 9E9, 9E9] ], v1000, fine, pen\WObj:=platform;
    
    !!-5.825060070934892, -0.2534999999999993;
    MoveL [ [-4.728, -20.217, 45.818], [0.204, -0.977, -0.054, 0.000], [0, 0, 0, 0], [ 9E9, 9E9, 9E9, 9E9, 9E9, 9E9] ], v1000, fine, pen\WObj:=platform;
    MoveL [ [-5.825, -0.253, -0.010], [0.204, -0.977, -0.054, 0.000], [0, 0, 0, 0], [ 9E9, 9E9, 9E9, 9E9, 9E9, 9E9] ], v30, fine, pen\WObj:=platform;
    MoveL [ [-4.728, -20.217, 45.818], [0.204, -0.977, -0.054, 0.000], [0, 0, 0, 0], [ 9E9, 9E9, 9E9, 9E9, 9E9, 9E9] ], v1000, fine, pen\WObj:=platform;
    
    !!-5.8836033882307195, -0.35489999999999966;
    MoveL [ [-4.768, -20.167, 45.884], [0.203, -0.978, -0.055, 0.000], [0, 0, 0, 0], [ 9E9, 9E9, 9E9, 9E9, 9E9, 9E9] ], v1000, fine, pen\WObj:=platform;
    MoveL [ [-5.884, -0.355, -0.010], [0.203, -0.978, -0.055, 0.000], [0, 0, 0, 0], [ 9E9, 9E9, 9E9, 9E9, 9E9, 9E9] ], v30, fine, pen\WObj:=platform;
    MoveL [ [-4.768, -20.167, 45.884], [0.203, -0.978, -0.055, 0.000], [0, 0, 0, 0], [ 9E9, 9E9, 9E9, 9E9, 9E9, 9E9] ], v1000, fine, pen\WObj:=platform;
    
    !!-5.825060070934892, -0.4562999999999995;
    MoveL [ [-4.797, -20.085, 45.964], [0.201, -0.978, -0.051, 0.000], [0, 0, 0, 0], [ 9E9, 9E9, 9E9, 9E9, 9E9, 9E9] ], v1000, fine, pen\WObj:=platform;
    MoveL [ [-5.825, -0.456, -0.010], [0.201, -0.978, -0.051, 0.000], [0, 0, 0, 0], [ 9E9, 9E9, 9E9, 9E9, 9E9, 9E9] ], v30, fine, pen\WObj:=platform;
    MoveL [ [-4.797, -20.085, 45.964], [0.201, -0.978, -0.051, 0.000], [0, 0, 0, 0], [ 9E9, 9E9, 9E9, 9E9, 9E9, 9E9] ], v1000, fine, pen\WObj:=platform;
    
    !!-5.8836033882307195, -0.5576999999999999;
    MoveL [ [-4.837, -20.034, 46.029], [0.199, -0.979, -0.053, 0.000], [0, 0, 0, 0], [ 9E9, 9E9, 9E9, 9E9, 9E9, 9E9] ], v1000, fine, pen\WObj:=platform;
    MoveL [ [-5.884, -0.558, -0.010], [0.199, -0.979, -0.053, 0.000], [0, 0, 0, 0], [ 9E9, 9E9, 9E9, 9E9, 9E9, 9E9] ], v30, fine, pen\WObj:=platform;
    MoveL [ [-4.837, -20.034, 46.029], [0.199, -0.979, -0.053, 0.000], [0, 0, 0, 0], [ 9E9, 9E9, 9E9, 9E9, 9E9, 9E9] ], v1000, fine, pen\WObj:=platform;
    
    !!-5.825060070934892, -0.6590999999999997;
    MoveL [ [-4.866, -19.950, 46.109], [0.197, -0.979, -0.049, 0.000], [0, 0, 0, 0], [ 9E9, 9E9, 9E9, 9E9, 9E9, 9E9] ], v1000, fine, pen\WObj:=platform;
    MoveL [ [-5.825, -0.659, -0.010], [0.197, -0.979, -0.049, 0.000], [0, 0, 0, 0], [ 9E9, 9E9, 9E9, 9E9, 9E9, 9E9] ], v30, fine, pen\WObj:=platform;
    MoveL [ [-4.866, -19.950, 46.109], [0.197, -0.979, -0.049, 0.000], [0, 0, 0, 0], [ 9E9, 9E9, 9E9, 9E9, 9E9, 9E9] ], v1000, fine, pen\WObj:=platform;
    
    !!-5.8836033882307195, -0.7605000000000001;
    MoveL [ [-4.906, -19.898, 46.172], [0.195, -0.979, -0.050, 0.000], [0, 0, 0, 0], [ 9E9, 9E9, 9E9, 9E9, 9E9, 9E9] ], v1000, fine, pen\WObj:=platform;
    MoveL [ [-5.884, -0.761, -0.010], [0.195, -0.979, -0.050, 0.000], [0, 0, 0, 0], [ 9E9, 9E9, 9E9, 9E9, 9E9, 9E9] ], v30, fine, pen\WObj:=platform;
    MoveL [ [-4.906, -19.898, 46.172], [0.195, -0.979, -0.050, 0.000], [0, 0, 0, 0], [ 9E9, 9E9, 9E9, 9E9, 9E9, 9E9] ], v1000, fine, pen\WObj:=platform;
    
    !!-5.825060070934892, -0.8618999999999997;
    MoveL [ [-4.935, -19.812, 46.251], [0.193, -0.980, -0.046, 0.000], [0, 0, 0, 0], [ 9E9, 9E9, 9E9, 9E9, 9E9, 9E9] ], v1000, fine, pen\WObj:=platform;
    MoveL [ [-5.825, -0.862, -0.010], [0.193, -0.980, -0.046, 0.000], [0, 0, 0, 0], [ 9E9, 9E9, 9E9, 9E9, 9E9, 9E9] ], v30, fine, pen\WObj:=platform;
    MoveL [ [-4.935, -19.812, 46.251], [0.193, -0.980, -0.046, 0.000], [0, 0, 0, 0], [ 9E9, 9E9, 9E9, 9E9, 9E9, 9E9] ], v1000, fine, pen\WObj:=platform;
    
    !!-5.8836033882307195, -0.9633;
    MoveL [ [-4.976, -19.757, 46.315], [0.192, -0.980, -0.047, 0.000], [0, 0, 0, 0], [ 9E9, 9E9, 9E9, 9E9, 9E9, 9E9] ], v1000, fine, pen\WObj:=platform;
    MoveL [ [-5.884, -0.963, -0.010], [0.192, -0.980, -0.047, 0.000], [0, 0, 0, 0], [ 9E9, 9E9, 9E9, 9E9, 9E9, 9E9] ], v30, fine, pen\WObj:=platform;
    MoveL [ [-4.976, -19.757, 46.315], [0.192, -0.980, -0.047, 0.000], [0, 0, 0, 0], [ 9E9, 9E9, 9E9, 9E9, 9E9, 9E9] ], v1000, fine, pen\WObj:=platform;
    
    !!-5.825060070934892, -1.0646999999999995;
    MoveL [ [-7.353, -11.205, 48.927], [0.103, -0.984, 0.148, 0.000], [0, 0, 0, 0], [ 9E9, 9E9, 9E9, 9E9, 9E9, 9E9] ], v1000, fine, pen\WObj:=platform;
    MoveL [ [-5.825, -1.065, -0.010], [0.103, -0.984, 0.148, 0.000], [0, 0, 0, 0], [ 9E9, 9E9, 9E9, 9E9, 9E9, 9E9] ], v30, fine, pen\WObj:=platform;
    MoveL [ [-7.353, -11.205, 48.927], [0.103, -0.984, 0.148, 0.000], [0, 0, 0, 0], [ 9E9, 9E9, 9E9, 9E9, 9E9, 9E9] ], v1000, fine, pen\WObj:=platform;
    
    !!-5.8836033882307195, -1.1660999999999992;
    MoveL [ [-2.598, -8.881, 49.282], [0.084, -0.917, -0.390, 0.000], [0, 0, 0, 0], [ 9E9, 9E9, 9E9, 9E9, 9E9, 9E9] ], v1000, fine, pen\WObj:=platform;
    MoveL [ [-5.884, -1.166, -0.010], [0.084, -0.917, -0.390, 0.000], [0, 0, 0, 0], [ 9E9, 9E9, 9E9, 9E9, 9E9, 9E9] ], v30, fine, pen\WObj:=platform;
    MoveL [ [-2.598, -8.881, 49.282], [0.084, -0.917, -0.390, 0.000], [0, 0, 0, 0], [ 9E9, 9E9, 9E9, 9E9, 9E9, 9E9] ], v1000, fine, pen\WObj:=platform;
    
    !!-5.825060070934892, -1.2674999999999996;
    MoveL [ [-5.074, -19.524, 46.532], [0.186, -0.982, -0.040, 0.000], [0, 0, 0, 0], [ 9E9, 9E9, 9E9, 9E9, 9E9, 9E9] ], v1000, fine, pen\WObj:=platform;
    MoveL [ [-5.825, -1.267, -0.010], [0.186, -0.982, -0.040, 0.000], [0, 0, 0, 0], [ 9E9, 9E9, 9E9, 9E9, 9E9, 9E9] ], v30, fine, pen\WObj:=platform;
    MoveL [ [-5.074, -19.524, 46.532], [0.186, -0.982, -0.040, 0.000], [0, 0, 0, 0], [ 9E9, 9E9, 9E9, 9E9, 9E9, 9E9] ], v1000, fine, pen\WObj:=platform;
    
    !!-5.8836033882307195, -1.3689;
    MoveL [ [-5.115, -19.466, 46.594], [0.184, -0.982, -0.042, 0.000], [0, 0, 0, 0], [ 9E9, 9E9, 9E9, 9E9, 9E9, 9E9] ], v1000, fine, pen\WObj:=platform;
    MoveL [ [-5.884, -1.369, -0.010], [0.184, -0.982, -0.042, 0.000], [0, 0, 0, 0], [ 9E9, 9E9, 9E9, 9E9, 9E9, 9E9] ], v30, fine, pen\WObj:=platform;
    MoveL [ [-5.115, -19.466, 46.594], [0.184, -0.982, -0.042, 0.000], [0, 0, 0, 0], [ 9E9, 9E9, 9E9, 9E9, 9E9, 9E9] ], v1000, fine, pen\WObj:=platform;
    
    !!-5.825060070934892, -1.4702999999999997;
    MoveL [ [-5.144, -19.375, 46.669], [0.182, -0.983, -0.037, 0.000], [0, 0, 0, 0], [ 9E9, 9E9, 9E9, 9E9, 9E9, 9E9] ], v1000, fine, pen\WObj:=platform;
    MoveL [ [-5.825, -1.470, -0.010], [0.182, -0.983, -0.037, 0.000], [0, 0, 0, 0], [ 9E9, 9E9, 9E9, 9E9, 9E9, 9E9] ], v30, fine, pen\WObj:=platform;
    MoveL [ [-5.144, -19.375, 46.669], [0.182, -0.983, -0.037, 0.000], [0, 0, 0, 0], [ 9E9, 9E9, 9E9, 9E9, 9E9, 9E9] ], v1000, fine, pen\WObj:=platform;
    
    !!-5.8836033882307195, -1.5717;
    MoveL [ [-5.186, -19.316, 46.730], [0.181, -0.983, -0.039, 0.000], [0, 0, 0, 0], [ 9E9, 9E9, 9E9, 9E9, 9E9, 9E9] ], v1000, fine, pen\WObj:=platform;
    MoveL [ [-5.884, -1.572, -0.010], [0.181, -0.983, -0.039, 0.000], [0, 0, 0, 0], [ 9E9, 9E9, 9E9, 9E9, 9E9, 9E9] ], v30, fine, pen\WObj:=platform;
    MoveL [ [-5.186, -19.316, 46.730], [0.181, -0.983, -0.039, 0.000], [0, 0, 0, 0], [ 9E9, 9E9, 9E9, 9E9, 9E9, 9E9] ], v1000, fine, pen\WObj:=platform;
    
    !!-5.825060070934892, -1.6730999999999998;
    MoveL [ [-5.215, -19.223, 46.805], [0.178, -0.983, -0.034, 0.000], [0, 0, 0, 0], [ 9E9, 9E9, 9E9, 9E9, 9E9, 9E9] ], v1000, fine, pen\WObj:=platform;
    MoveL [ [-5.825, -1.673, -0.010], [0.178, -0.983, -0.034, 0.000], [0, 0, 0, 0], [ 9E9, 9E9, 9E9, 9E9, 9E9, 9E9] ], v30, fine, pen\WObj:=platform;
    MoveL [ [-5.215, -19.223, 46.805], [0.178, -0.983, -0.034, 0.000], [0, 0, 0, 0], [ 9E9, 9E9, 9E9, 9E9, 9E9, 9E9] ], v1000, fine, pen\WObj:=platform;
    
    !!-5.8836033882307195, -1.7745000000000002;
    MoveL [ [-5.256, -19.162, 46.865], [0.177, -0.984, -0.036, 0.000], [0, 0, 0, 0], [ 9E9, 9E9, 9E9, 9E9, 9E9, 9E9] ], v1000, fine, pen\WObj:=platform;
    MoveL [ [-5.884, -1.775, -0.010], [0.177, -0.984, -0.036, 0.000], [0, 0, 0, 0], [ 9E9, 9E9, 9E9, 9E9, 9E9, 9E9] ], v30, fine, pen\WObj:=platform;
    MoveL [ [-5.256, -19.162, 46.865], [0.177, -0.984, -0.036, 0.000], [0, 0, 0, 0], [ 9E9, 9E9, 9E9, 9E9, 9E9, 9E9] ], v1000, fine, pen\WObj:=platform;
    
    !!-5.825060070934892, -1.8758999999999997;
    MoveL [ [-5.285, -19.067, 46.939], [0.175, -0.984, -0.031, 0.000], [0, 0, 0, 0], [ 9E9, 9E9, 9E9, 9E9, 9E9, 9E9] ], v1000, fine, pen\WObj:=platform;
    MoveL [ [-5.825, -1.876, -0.010], [0.175, -0.984, -0.031, 0.000], [0, 0, 0, 0], [ 9E9, 9E9, 9E9, 9E9, 9E9, 9E9] ], v30, fine, pen\WObj:=platform;
    MoveL [ [-5.285, -19.067, 46.939], [0.175, -0.984, -0.031, 0.000], [0, 0, 0, 0], [ 9E9, 9E9, 9E9, 9E9, 9E9, 9E9] ], v1000, fine, pen\WObj:=platform;
    
    !!-5.8836033882307195, -1.9773;
    MoveL [ [-5.327, -19.004, 46.998], [0.173, -0.984, -0.032, 0.000], [0, 0, 0, 0], [ 9E9, 9E9, 9E9, 9E9, 9E9, 9E9] ], v1000, fine, pen\WObj:=platform;
    MoveL [ [-5.884, -1.977, -0.010], [0.173, -0.984, -0.032, 0.000], [0, 0, 0, 0], [ 9E9, 9E9, 9E9, 9E9, 9E9, 9E9] ], v30, fine, pen\WObj:=platform;
    MoveL [ [-5.327, -19.004, 46.998], [0.173, -0.984, -0.032, 0.000], [0, 0, 0, 0], [ 9E9, 9E9, 9E9, 9E9, 9E9, 9E9] ], v1000, fine, pen\WObj:=platform;
    
    !!-5.825060070934892, -2.0786999999999995;
    MoveL [ [-5.356, -18.908, 47.070], [0.171, -0.985, -0.027, 0.000], [0, 0, 0, 0], [ 9E9, 9E9, 9E9, 9E9, 9E9, 9E9] ], v1000, fine, pen\WObj:=platform;
    MoveL [ [-5.825, -2.079, -0.010], [0.171, -0.985, -0.027, 0.000], [0, 0, 0, 0], [ 9E9, 9E9, 9E9, 9E9, 9E9, 9E9] ], v30, fine, pen\WObj:=platform;
    MoveL [ [-5.356, -18.908, 47.070], [0.171, -0.985, -0.027, 0.000], [0, 0, 0, 0], [ 9E9, 9E9, 9E9, 9E9, 9E9, 9E9] ], v1000, fine, pen\WObj:=platform;
    
    !!-5.8836033882307195, -2.1801000000000004;
    MoveL [ [-5.398, -18.844, 47.129], [0.169, -0.985, -0.029, 0.000], [0, 0, 0, 0], [ 9E9, 9E9, 9E9, 9E9, 9E9, 9E9] ], v1000, fine, pen\WObj:=platform;
    MoveL [ [-5.884, -2.180, -0.010], [0.169, -0.985, -0.029, 0.000], [0, 0, 0, 0], [ 9E9, 9E9, 9E9, 9E9, 9E9, 9E9] ], v30, fine, pen\WObj:=platform;
    MoveL [ [-5.398, -18.844, 47.129], [0.169, -0.985, -0.029, 0.000], [0, 0, 0, 0], [ 9E9, 9E9, 9E9, 9E9, 9E9, 9E9] ], v1000, fine, pen\WObj:=platform;
    
    !!-5.825060070934892, -2.2815;
    MoveL [ [-7.574, -9.808, 49.389], [0.078, -0.971, 0.226, 0.000], [0, 0, 0, 0], [ 9E9, 9E9, 9E9, 9E9, 9E9, 9E9] ], v1000, fine, pen\WObj:=platform;
    MoveL [ [-5.825, -2.281, -0.010], [0.078, -0.971, 0.226, 0.000], [0, 0, 0, 0], [ 9E9, 9E9, 9E9, 9E9, 9E9, 9E9] ], v30, fine, pen\WObj:=platform;
    MoveL [ [-7.574, -9.808, 49.389], [0.078, -0.971, 0.226, 0.000], [0, 0, 0, 0], [ 9E9, 9E9, 9E9, 9E9, 9E9, 9E9] ], v1000, fine, pen\WObj:=platform;
    
    !!-5.8836033882307195, -2.3828999999999994;
    MoveL [ [-5.469, -18.679, 47.258], [0.165, -0.986, -0.025, 0.000], [0, 0, 0, 0], [ 9E9, 9E9, 9E9, 9E9, 9E9, 9E9] ], v1000, fine, pen\WObj:=platform;
    MoveL [ [-5.884, -2.383, -0.010], [0.165, -0.986, -0.025, 0.000], [0, 0, 0, 0], [ 9E9, 9E9, 9E9, 9E9, 9E9, 9E9] ], v30, fine, pen\WObj:=platform;
    MoveL [ [-5.469, -18.679, 47.258], [0.165, -0.986, -0.025, 0.000], [0, 0, 0, 0], [ 9E9, 9E9, 9E9, 9E9, 9E9, 9E9] ], v1000, fine, pen\WObj:=platform;
    
    !!-5.825060070934892, -2.4842999999999997;
    MoveL [ [-5.498, -18.579, 47.328], [0.163, -0.986, -0.020, 0.000], [0, 0, 0, 0], [ 9E9, 9E9, 9E9, 9E9, 9E9, 9E9] ], v1000, fine, pen\WObj:=platform;
    MoveL [ [-5.825, -2.484, -0.010], [0.163, -0.986, -0.020, 0.000], [0, 0, 0, 0], [ 9E9, 9E9, 9E9, 9E9, 9E9, 9E9] ], v30, fine, pen\WObj:=platform;
    MoveL [ [-5.498, -18.579, 47.328], [0.163, -0.986, -0.020, 0.000], [0, 0, 0, 0], [ 9E9, 9E9, 9E9, 9E9, 9E9, 9E9] ], v1000, fine, pen\WObj:=platform;
    
    !!-5.8836033882307195, -2.5857;
    MoveL [ [-2.705, -7.802, 49.615], [0.061, -0.852, -0.519, 0.000], [0, 0, 0, 0], [ 9E9, 9E9, 9E9, 9E9, 9E9, 9E9] ], v1000, fine, pen\WObj:=platform;
    MoveL [ [-5.884, -2.586, -0.010], [0.061, -0.852, -0.519, 0.000], [0, 0, 0, 0], [ 9E9, 9E9, 9E9, 9E9, 9E9, 9E9] ], v30, fine, pen\WObj:=platform;
    MoveL [ [-2.705, -7.802, 49.615], [0.061, -0.852, -0.519, 0.000], [0, 0, 0, 0], [ 9E9, 9E9, 9E9, 9E9, 9E9, 9E9] ], v1000, fine, pen\WObj:=platform;
    
    !!-5.825060070934892, -2.6871;
    MoveL [ [-5.569, -18.410, 47.453], [0.159, -0.987, -0.016, 0.000], [0, 0, 0, 0], [ 9E9, 9E9, 9E9, 9E9, 9E9, 9E9] ], v1000, fine, pen\WObj:=platform;
    MoveL [ [-5.825, -2.687, -0.010], [0.159, -0.987, -0.016, 0.000], [0, 0, 0, 0], [ 9E9, 9E9, 9E9, 9E9, 9E9, 9E9] ], v30, fine, pen\WObj:=platform;
    MoveL [ [-5.569, -18.410, 47.453], [0.159, -0.987, -0.016, 0.000], [0, 0, 0, 0], [ 9E9, 9E9, 9E9, 9E9, 9E9, 9E9] ], v1000, fine, pen\WObj:=platform;
    
    !!-5.8836033882307195, -2.7885;
    MoveL [ [-5.611, -18.341, 47.509], [0.158, -0.987, -0.017, 0.000], [0, 0, 0, 0], [ 9E9, 9E9, 9E9, 9E9, 9E9, 9E9] ], v1000, fine, pen\WObj:=platform;
    MoveL [ [-5.884, -2.788, -0.010], [0.158, -0.987, -0.017, 0.000], [0, 0, 0, 0], [ 9E9, 9E9, 9E9, 9E9, 9E9, 9E9] ], v30, fine, pen\WObj:=platform;
    MoveL [ [-5.611, -18.341, 47.509], [0.158, -0.987, -0.017, 0.000], [0, 0, 0, 0], [ 9E9, 9E9, 9E9, 9E9, 9E9, 9E9] ], v1000, fine, pen\WObj:=platform;
    
    !!-5.825060070934892, -2.8899000000000004;
    MoveL [ [-1.631, -14.697, 48.395], [0.126, -0.935, -0.332, 0.000], [0, 0, 0, 0], [ 9E9, 9E9, 9E9, 9E9, 9E9, 9E9] ], v1000, fine, pen\WObj:=platform;
    MoveL [ [-5.825, -2.890, -0.010], [0.126, -0.935, -0.332, 0.000], [0, 0, 0, 0], [ 9E9, 9E9, 9E9, 9E9, 9E9, 9E9] ], v30, fine, pen\WObj:=platform;
    MoveL [ [-1.631, -14.697, 48.395], [0.126, -0.935, -0.332, 0.000], [0, 0, 0, 0], [ 9E9, 9E9, 9E9, 9E9, 9E9, 9E9] ], v1000, fine, pen\WObj:=platform;
    
    !!-5.8836033882307195, -2.9913000000000007;
    MoveL [ [-1.657, -14.644, 48.429], [0.125, -0.933, -0.338, 0.000], [0, 0, 0, 0], [ 9E9, 9E9, 9E9, 9E9, 9E9, 9E9] ], v1000, fine, pen\WObj:=platform;
    MoveL [ [-5.884, -2.991, -0.010], [0.125, -0.933, -0.338, 0.000], [0, 0, 0, 0], [ 9E9, 9E9, 9E9, 9E9, 9E9, 9E9] ], v30, fine, pen\WObj:=platform;
    MoveL [ [-1.657, -14.644, 48.429], [0.125, -0.933, -0.338, 0.000], [0, 0, 0, 0], [ 9E9, 9E9, 9E9, 9E9, 9E9, 9E9] ], v1000, fine, pen\WObj:=platform;
    
    !!-5.825060070934892, -3.0926999999999993;
    MoveL [ [1.372, -12.246, 48.615], [0.117, -0.781, -0.614, 0.000], [0, 0, 0, 0], [ 9E9, 9E9, 9E9, 9E9, 9E9, 9E9] ], v1000, fine, pen\WObj:=platform;
    MoveL [ [-5.825, -3.093, -0.010], [0.117, -0.781, -0.614, 0.000], [0, 0, 0, 0], [ 9E9, 9E9, 9E9, 9E9, 9E9, 9E9] ], v30, fine, pen\WObj:=platform;
    MoveL [ [1.372, -12.246, 48.615], [0.117, -0.781, -0.614, 0.000], [0, 0, 0, 0], [ 9E9, 9E9, 9E9, 9E9, 9E9, 9E9] ], v1000, fine, pen\WObj:=platform;
    
    !!-5.8836033882307195, -3.1940999999999997;
    MoveL [ [-2.749, -7.326, 49.720], [0.052, -0.796, -0.604, 0.000], [0, 0, 0, 0], [ 9E9, 9E9, 9E9, 9E9, 9E9, 9E9] ], v1000, fine, pen\WObj:=platform;
    MoveL [ [-5.884, -3.194, -0.010], [0.052, -0.796, -0.604, 0.000], [0, 0, 0, 0], [ 9E9, 9E9, 9E9, 9E9, 9E9, 9E9] ], v30, fine, pen\WObj:=platform;
    MoveL [ [-2.749, -7.326, 49.720], [0.052, -0.796, -0.604, 0.000], [0, 0, 0, 0], [ 9E9, 9E9, 9E9, 9E9, 9E9, 9E9] ], v1000, fine, pen\WObj:=platform;
    
    !!-5.825060070934892, -3.2955;
    MoveL [ [1.353, -12.158, 48.672], [0.115, -0.772, -0.625, 0.000], [0, 0, 0, 0], [ 9E9, 9E9, 9E9, 9E9, 9E9, 9E9] ], v1000, fine, pen\WObj:=platform;
    MoveL [ [-5.825, -3.296, -0.010], [0.115, -0.772, -0.625, 0.000], [0, 0, 0, 0], [ 9E9, 9E9, 9E9, 9E9, 9E9, 9E9] ], v30, fine, pen\WObj:=platform;
    MoveL [ [1.353, -12.158, 48.672], [0.115, -0.772, -0.625, 0.000], [0, 0, 0, 0], [ 9E9, 9E9, 9E9, 9E9, 9E9, 9E9] ], v1000, fine, pen\WObj:=platform;
    
    !!-5.8836033882307195, -3.3969000000000005;
    MoveL [ [1.333, -12.119, 48.692], [0.114, -0.765, -0.633, 0.000], [0, 0, 0, 0], [ 9E9, 9E9, 9E9, 9E9, 9E9, 9E9] ], v1000, fine, pen\WObj:=platform;
    MoveL [ [-5.884, -3.397, -0.010], [0.114, -0.765, -0.633, 0.000], [0, 0, 0, 0], [ 9E9, 9E9, 9E9, 9E9, 9E9, 9E9] ], v30, fine, pen\WObj:=platform;
    MoveL [ [1.333, -12.119, 48.692], [0.114, -0.765, -0.633, 0.000], [0, 0, 0, 0], [ 9E9, 9E9, 9E9, 9E9, 9E9, 9E9] ], v1000, fine, pen\WObj:=platform;
    
    !!-5.825060070934892, -3.498300000000001;
    MoveL [ [0.747, -6.284, 49.478], [0.072, -0.389, -0.918, 0.000], [0, 0, 0, 0], [ 9E9, 9E9, 9E9, 9E9, 9E9, 9E9] ], v1000, fine, pen\WObj:=platform;
    MoveL [ [-5.825, -3.498, -0.010], [0.072, -0.389, -0.918, 0.000], [0, 0, 0, 0], [ 9E9, 9E9, 9E9, 9E9, 9E9, 9E9] ], v30, fine, pen\WObj:=platform;
    MoveL [ [0.747, -6.284, 49.478], [0.072, -0.389, -0.918, 0.000], [0, 0, 0, 0], [ 9E9, 9E9, 9E9, 9E9, 9E9, 9E9] ], v1000, fine, pen\WObj:=platform;
    
    !!-5.8836033882307195, -3.5996999999999995;
    MoveL [ [1.313, -12.030, 48.746], [0.112, -0.756, -0.645, 0.000], [0, 0, 0, 0], [ 9E9, 9E9, 9E9, 9E9, 9E9, 9E9] ], v1000, fine, pen\WObj:=platform;
    MoveL [ [-5.884, -3.600, -0.010], [0.112, -0.756, -0.645, 0.000], [0, 0, 0, 0], [ 9E9, 9E9, 9E9, 9E9, 9E9, 9E9] ], v30, fine, pen\WObj:=platform;
    MoveL [ [1.313, -12.030, 48.746], [0.112, -0.756, -0.645, 0.000], [0, 0, 0, 0], [ 9E9, 9E9, 9E9, 9E9, 9E9, 9E9] ], v1000, fine, pen\WObj:=platform;
    
    !!-5.825060070934892, -3.701099999999999;
    MoveL [ [1.314, -11.980, 48.780], [0.110, -0.753, -0.649, 0.000], [0, 0, 0, 0], [ 9E9, 9E9, 9E9, 9E9, 9E9, 9E9] ], v1000, fine, pen\WObj:=platform;
    MoveL [ [-5.825, -3.701, -0.010], [0.110, -0.753, -0.649, 0.000], [0, 0, 0, 0], [ 9E9, 9E9, 9E9, 9E9, 9E9, 9E9] ], v30, fine, pen\WObj:=platform;
    MoveL [ [1.314, -11.980, 48.780], [0.110, -0.753, -0.649, 0.000], [0, 0, 0, 0], [ 9E9, 9E9, 9E9, 9E9, 9E9, 9E9] ], v1000, fine, pen\WObj:=platform;
    
    !!-5.8836033882307195, -3.8024999999999993;
    MoveL [ [3.217, -5.646, 49.120], [0.093, -0.198, -0.976, 0.000], [0, 0, 0, 0], [ 9E9, 9E9, 9E9, 9E9, 9E9, 9E9] ], v1000, fine, pen\WObj:=platform;
    MoveL [ [-5.884, -3.802, -0.010], [0.093, -0.198, -0.976, 0.000], [0, 0, 0, 0], [ 9E9, 9E9, 9E9, 9E9, 9E9, 9E9] ], v30, fine, pen\WObj:=platform;
    MoveL [ [3.217, -5.646, 49.120], [0.093, -0.198, -0.976, 0.000], [0, 0, 0, 0], [ 9E9, 9E9, 9E9, 9E9, 9E9, 9E9] ], v1000, fine, pen\WObj:=platform;
    
    !!-5.825060070934892, -3.9038999999999997;
    MoveL [ [-1.814, -14.056, 48.784], [0.110, -0.924, -0.365, 0.000], [0, 0, 0, 0], [ 9E9, 9E9, 9E9, 9E9, 9E9, 9E9] ], v1000, fine, pen\WObj:=platform;
    MoveL [ [-5.825, -3.904, -0.010], [0.110, -0.924, -0.365, 0.000], [0, 0, 0, 0], [ 9E9, 9E9, 9E9, 9E9, 9E9, 9E9] ], v30, fine, pen\WObj:=platform;
    MoveL [ [-1.814, -14.056, 48.784], [0.110, -0.924, -0.365, 0.000], [0, 0, 0, 0], [ 9E9, 9E9, 9E9, 9E9, 9E9, 9E9] ], v1000, fine, pen\WObj:=platform;
    
    !!-5.8836033882307195, -4.0053;
    MoveL [ [0.718, -6.020, 49.511], [0.069, -0.291, -0.954, 0.000], [0, 0, 0, 0], [ 9E9, 9E9, 9E9, 9E9, 9E9, 9E9] ], v1000, fine, pen\WObj:=platform;
    MoveL [ [-5.884, -4.005, -0.010], [0.069, -0.291, -0.954, 0.000], [0, 0, 0, 0], [ 9E9, 9E9, 9E9, 9E9, 9E9, 9E9] ], v30, fine, pen\WObj:=platform;
    MoveL [ [0.718, -6.020, 49.511], [0.069, -0.291, -0.954, 0.000], [0, 0, 0, 0], [ 9E9, 9E9, 9E9, 9E9, 9E9, 9E9] ], v1000, fine, pen\WObj:=platform;
    
    !!-5.825060070934892, -4.1067;
    MoveL [ [-1.851, -13.923, 48.856], [0.107, -0.922, -0.373, 0.000], [0, 0, 0, 0], [ 9E9, 9E9, 9E9, 9E9, 9E9, 9E9] ], v1000, fine, pen\WObj:=platform;
    MoveL [ [-5.825, -4.107, -0.010], [0.107, -0.922, -0.373, 0.000], [0, 0, 0, 0], [ 9E9, 9E9, 9E9, 9E9, 9E9, 9E9] ], v30, fine, pen\WObj:=platform;
    MoveL [ [-1.851, -13.923, 48.856], [0.107, -0.922, -0.373, 0.000], [0, 0, 0, 0], [ 9E9, 9E9, 9E9, 9E9, 9E9, 9E9] ], v1000, fine, pen\WObj:=platform;
    
    !!-5.8836033882307195, -4.208100000000001;
    MoveL [ [-2.819, -6.518, 49.842], [0.038, -0.601, -0.798, 0.000], [0, 0, 0, 0], [ 9E9, 9E9, 9E9, 9E9, 9E9, 9E9] ], v1000, fine, pen\WObj:=platform;
    MoveL [ [-5.884, -4.208, -0.010], [0.038, -0.601, -0.798, 0.000], [0, 0, 0, 0], [ 9E9, 9E9, 9E9, 9E9, 9E9, 9E9] ], v30, fine, pen\WObj:=platform;
    MoveL [ [-2.819, -6.518, 49.842], [0.038, -0.601, -0.798, 0.000], [0, 0, 0, 0], [ 9E9, 9E9, 9E9, 9E9, 9E9, 9E9] ], v1000, fine, pen\WObj:=platform;
    
    !!-5.825060070934892, -4.3095;
    MoveL [ [-1.889, -13.788, 48.925], [0.103, -0.919, -0.381, 0.000], [0, 0, 0, 0], [ 9E9, 9E9, 9E9, 9E9, 9E9, 9E9] ], v1000, fine, pen\WObj:=platform;
    MoveL [ [-5.825, -4.309, -0.010], [0.103, -0.919, -0.381, 0.000], [0, 0, 0, 0], [ 9E9, 9E9, 9E9, 9E9, 9E9, 9E9] ], v30, fine, pen\WObj:=platform;
    MoveL [ [-1.889, -13.788, 48.925], [0.103, -0.919, -0.381, 0.000], [0, 0, 0, 0], [ 9E9, 9E9, 9E9, 9E9, 9E9, 9E9] ], v1000, fine, pen\WObj:=platform;
    
    !!-5.8836033882307195, -4.4109;
    MoveL [ [-7.895, -7.212, 49.871], [0.035, -0.812, 0.583, 0.000], [0, 0, 0, 0], [ 9E9, 9E9, 9E9, 9E9, 9E9, 9E9] ], v1000, fine, pen\WObj:=platform;
    MoveL [ [-5.884, -4.411, -0.010], [0.035, -0.812, 0.583, 0.000], [0, 0, 0, 0], [ 9E9, 9E9, 9E9, 9E9, 9E9, 9E9] ], v30, fine, pen\WObj:=platform;
    MoveL [ [-7.895, -7.212, 49.871], [0.035, -0.812, 0.583, 0.000], [0, 0, 0, 0], [ 9E9, 9E9, 9E9, 9E9, 9E9, 9E9] ], v1000, fine, pen\WObj:=platform;
    
    !!-5.825060070934892, -4.5123;
    MoveL [ [-1.926, -13.652, 48.993], [0.100, -0.915, -0.390, 0.000], [0, 0, 0, 0], [ 9E9, 9E9, 9E9, 9E9, 9E9, 9E9] ], v1000, fine, pen\WObj:=platform;
    MoveL [ [-5.825, -4.512, -0.010], [0.100, -0.915, -0.390, 0.000], [0, 0, 0, 0], [ 9E9, 9E9, 9E9, 9E9, 9E9, 9E9] ], v30, fine, pen\WObj:=platform;
    MoveL [ [-1.926, -13.652, 48.993], [0.100, -0.915, -0.390, 0.000], [0, 0, 0, 0], [ 9E9, 9E9, 9E9, 9E9, 9E9, 9E9] ], v1000, fine, pen\WObj:=platform;
    
    !!-5.8836033882307195, -4.6137;
    MoveL [ [-7.919, -6.957, 49.894], [0.031, -0.755, 0.655, 0.000], [0, 0, 0, 0], [ 9E9, 9E9, 9E9, 9E9, 9E9, 9E9] ], v1000, fine, pen\WObj:=platform;
    MoveL [ [-5.884, -4.614, -0.010], [0.031, -0.755, 0.655, 0.000], [0, 0, 0, 0], [ 9E9, 9E9, 9E9, 9E9, 9E9, 9E9] ], v30, fine, pen\WObj:=platform;
    MoveL [ [-7.919, -6.957, 49.894], [0.031, -0.755, 0.655, 0.000], [0, 0, 0, 0], [ 9E9, 9E9, 9E9, 9E9, 9E9, 9E9] ], v1000, fine, pen\WObj:=platform;
    
    !!-5.825060070934892, -4.7151;
    MoveL [ [-7.921, -6.823, 49.902], [0.030, -0.709, 0.705, 0.000], [0, 0, 0, 0], [ 9E9, 9E9, 9E9, 9E9, 9E9, 9E9] ], v1000, fine, pen\WObj:=platform;
    MoveL [ [-5.825, -4.715, -0.010], [0.030, -0.709, 0.705, 0.000], [0, 0, 0, 0], [ 9E9, 9E9, 9E9, 9E9, 9E9, 9E9] ], v30, fine, pen\WObj:=platform;
    MoveL [ [-7.921, -6.823, 49.902], [0.030, -0.709, 0.705, 0.000], [0, 0, 0, 0], [ 9E9, 9E9, 9E9, 9E9, 9E9, 9E9] ], v1000, fine, pen\WObj:=platform;
    
    !!-5.8836033882307195, -4.8165000000000004;
    MoveL [ [-1.989, -13.455, 49.084], [0.095, -0.908, -0.409, 0.000], [0, 0, 0, 0], [ 9E9, 9E9, 9E9, 9E9, 9E9, 9E9] ], v1000, fine, pen\WObj:=platform;
    MoveL [ [-5.884, -4.817, -0.010], [0.095, -0.908, -0.409, 0.000], [0, 0, 0, 0], [ 9E9, 9E9, 9E9, 9E9, 9E9, 9E9] ], v30, fine, pen\WObj:=platform;
    MoveL [ [-1.989, -13.455, 49.084], [0.095, -0.908, -0.409, 0.000], [0, 0, 0, 0], [ 9E9, 9E9, 9E9, 9E9, 9E9, 9E9] ], v1000, fine, pen\WObj:=platform;
    
    !!-5.825060070934892, -4.9179;
    MoveL [ [-6.350, -16.339, 48.665], [0.115, -0.992, 0.046, 0.000], [0, 0, 0, 0], [ 9E9, 9E9, 9E9, 9E9, 9E9, 9E9] ], v1000, fine, pen\WObj:=platform;
    MoveL [ [-5.825, -4.918, -0.010], [0.115, -0.992, 0.046, 0.000], [0, 0, 0, 0], [ 9E9, 9E9, 9E9, 9E9, 9E9, 9E9] ], v30, fine, pen\WObj:=platform;
    MoveL [ [-6.350, -16.339, 48.665], [0.115, -0.992, 0.046, 0.000], [0, 0, 0, 0], [ 9E9, 9E9, 9E9, 9E9, 9E9, 9E9] ], v1000, fine, pen\WObj:=platform;
    
    !!-5.8836033882307195, -5.019300000000001;
    MoveL [ [-2.871, -5.864, 49.892], [0.031, -0.270, -0.962, 0.000], [0, 0, 0, 0], [ 9E9, 9E9, 9E9, 9E9, 9E9, 9E9] ], v1000, fine, pen\WObj:=platform;
    MoveL [ [-5.884, -5.019, -0.010], [0.031, -0.270, -0.962, 0.000], [0, 0, 0, 0], [ 9E9, 9E9, 9E9, 9E9, 9E9, 9E9] ], v30, fine, pen\WObj:=platform;
    MoveL [ [-2.871, -5.864, 49.892], [0.031, -0.270, -0.962, 0.000], [0, 0, 0, 0], [ 9E9, 9E9, 9E9, 9E9, 9E9, 9E9] ], v1000, fine, pen\WObj:=platform;
    
    !!-5.825060070934892, -5.1207;
    MoveL [ [-2.038, -13.235, 49.182], [0.090, -0.903, -0.421, 0.000], [0, 0, 0, 0], [ 9E9, 9E9, 9E9, 9E9, 9E9, 9E9] ], v1000, fine, pen\WObj:=platform;
    MoveL [ [-5.825, -5.121, -0.010], [0.090, -0.903, -0.421, 0.000], [0, 0, 0, 0], [ 9E9, 9E9, 9E9, 9E9, 9E9, 9E9] ], v30, fine, pen\WObj:=platform;
    MoveL [ [-2.038, -13.235, 49.182], [0.090, -0.903, -0.421, 0.000], [0, 0, 0, 0], [ 9E9, 9E9, 9E9, 9E9, 9E9, 9E9] ], v1000, fine, pen\WObj:=platform;
    
    !!-5.8836033882307195, -5.222100000000001;
    MoveL [ [-2.065, -13.174, 49.206], [0.089, -0.898, -0.431, 0.000], [0, 0, 0, 0], [ 9E9, 9E9, 9E9, 9E9, 9E9, 9E9] ], v1000, fine, pen\WObj:=platform;
    MoveL [ [-5.884, -5.222, -0.010], [0.089, -0.898, -0.431, 0.000], [0, 0, 0, 0], [ 9E9, 9E9, 9E9, 9E9, 9E9, 9E9] ], v30, fine, pen\WObj:=platform;
    MoveL [ [-2.065, -13.174, 49.206], [0.089, -0.898, -0.431, 0.000], [0, 0, 0, 0], [ 9E9, 9E9, 9E9, 9E9, 9E9, 9E9] ], v1000, fine, pen\WObj:=platform;
    
    !!-5.825060070934892, -5.323500000000001;
    MoveL [ [-2.882, -5.614, 49.902], [0.030, -0.098, -0.995, 0.000], [0, 0, 0, 0], [ 9E9, 9E9, 9E9, 9E9, 9E9, 9E9] ], v1000, fine, pen\WObj:=platform;
    MoveL [ [-5.825, -5.324, -0.010], [0.030, -0.098, -0.995, 0.000], [0, 0, 0, 0], [ 9E9, 9E9, 9E9, 9E9, 9E9, 9E9] ], v30, fine, pen\WObj:=platform;
    MoveL [ [-2.882, -5.614, 49.902], [0.030, -0.098, -0.995, 0.000], [0, 0, 0, 0], [ 9E9, 9E9, 9E9, 9E9, 9E9, 9E9] ], v1000, fine, pen\WObj:=platform;
    
    !!-5.8836033882307195, -5.424899999999999;
    MoveL [ [-2.102, -13.032, 49.263], [0.085, -0.892, -0.444, 0.000], [0, 0, 0, 0], [ 9E9, 9E9, 9E9, 9E9, 9E9, 9E9] ], v1000, fine, pen\WObj:=platform;
    MoveL [ [-5.884, -5.425, -0.010], [0.085, -0.892, -0.444, 0.000], [0, 0, 0, 0], [ 9E9, 9E9, 9E9, 9E9, 9E9, 9E9] ], v30, fine, pen\WObj:=platform;
    MoveL [ [-2.102, -13.032, 49.263], [0.085, -0.892, -0.444, 0.000], [0, 0, 0, 0], [ 9E9, 9E9, 9E9, 9E9, 9E9, 9E9] ], v1000, fine, pen\WObj:=platform;
    
    !!-5.825060070934892, -5.526299999999999;
    MoveL [ [-2.894, -5.450, 49.904], [0.029, 0.026, -0.999, 0.000], [0, 0, 0, 0], [ 9E9, 9E9, 9E9, 9E9, 9E9, 9E9] ], v1000, fine, pen\WObj:=platform;
    MoveL [ [-5.825, -5.526, -0.010], [0.029, 0.026, -0.999, 0.000], [0, 0, 0, 0], [ 9E9, 9E9, 9E9, 9E9, 9E9, 9E9] ], v30, fine, pen\WObj:=platform;
    MoveL [ [-2.894, -5.450, 49.904], [0.029, 0.026, -0.999, 0.000], [0, 0, 0, 0], [ 9E9, 9E9, 9E9, 9E9, 9E9, 9E9] ], v1000, fine, pen\WObj:=platform;
    
    !!-5.8836033882307195, -5.6277;
    MoveL [ [-2.140, -12.889, 49.318], [0.082, -0.886, -0.457, 0.000], [0, 0, 0, 0], [ 9E9, 9E9, 9E9, 9E9, 9E9, 9E9] ], v1000, fine, pen\WObj:=platform;
    MoveL [ [-5.884, -5.628, -0.010], [0.082, -0.886, -0.457, 0.000], [0, 0, 0, 0], [ 9E9, 9E9, 9E9, 9E9, 9E9, 9E9] ], v30, fine, pen\WObj:=platform;
    MoveL [ [-2.140, -12.889, 49.318], [0.082, -0.886, -0.457, 0.000], [0, 0, 0, 0], [ 9E9, 9E9, 9E9, 9E9, 9E9, 9E9] ], v1000, fine, pen\WObj:=platform;
    
    !!-5.825060070934892, -5.729100000000001;
    MoveL [ [1.101, -11.039, 49.222], [0.088, -0.606, -0.791, 0.000], [0, 0, 0, 0], [ 9E9, 9E9, 9E9, 9E9, 9E9, 9E9] ], v1000, fine, pen\WObj:=platform;
    MoveL [ [-5.825, -5.729, -0.010], [0.088, -0.606, -0.791, 0.000], [0, 0, 0, 0], [ 9E9, 9E9, 9E9, 9E9, 9E9, 9E9] ], v30, fine, pen\WObj:=platform;
    MoveL [ [1.101, -11.039, 49.222], [0.088, -0.606, -0.791, 0.000], [0, 0, 0, 0], [ 9E9, 9E9, 9E9, 9E9, 9E9, 9E9] ], v1000, fine, pen\WObj:=platform;
    
    !!-5.8836033882307195, -5.830500000000001;
    MoveL [ [-2.920, -5.207, 49.898], [0.030, 0.206, -0.978, 0.000], [0, 0, 0, 0], [ 9E9, 9E9, 9E9, 9E9, 9E9, 9E9] ], v1000, fine, pen\WObj:=platform;
    MoveL [ [-5.884, -5.831, -0.010], [0.030, 0.206, -0.978, 0.000], [0, 0, 0, 0], [ 9E9, 9E9, 9E9, 9E9, 9E9, 9E9] ], v30, fine, pen\WObj:=platform;
    MoveL [ [-2.920, -5.207, 49.898], [0.030, 0.206, -0.978, 0.000], [0, 0, 0, 0], [ 9E9, 9E9, 9E9, 9E9, 9E9, 9E9] ], v1000, fine, pen\WObj:=platform;
    
    !!-5.825060070934892, -5.931900000000001;
    MoveL [ [-2.189, -12.661, 49.401], [0.077, -0.877, -0.474, 0.000], [0, 0, 0, 0], [ 9E9, 9E9, 9E9, 9E9, 9E9, 9E9] ], v1000, fine, pen\WObj:=platform;
    MoveL [ [-5.825, -5.932, -0.010], [0.077, -0.877, -0.474, 0.000], [0, 0, 0, 0], [ 9E9, 9E9, 9E9, 9E9, 9E9, 9E9] ], v30, fine, pen\WObj:=platform;
    MoveL [ [-2.189, -12.661, 49.401], [0.077, -0.877, -0.474, 0.000], [0, 0, 0, 0], [ 9E9, 9E9, 9E9, 9E9, 9E9, 9E9] ], v1000, fine, pen\WObj:=platform;
    
    !!-5.8836033882307195, -6.0333000000000006;
    MoveL [ [-2.215, -12.598, 49.421], [0.075, -0.870, -0.486, 0.000], [0, 0, 0, 0], [ 9E9, 9E9, 9E9, 9E9, 9E9, 9E9] ], v1000, fine, pen\WObj:=platform;
    MoveL [ [-5.884, -6.033, -0.010], [0.075, -0.870, -0.486, 0.000], [0, 0, 0, 0], [ 9E9, 9E9, 9E9, 9E9, 9E9, 9E9] ], v30, fine, pen\WObj:=platform;
    MoveL [ [-2.215, -12.598, 49.421], [0.075, -0.870, -0.486, 0.000], [0, 0, 0, 0], [ 9E9, 9E9, 9E9, 9E9, 9E9, 9E9] ], v1000, fine, pen\WObj:=platform;
    
    !!-5.825060070934892, -6.1347;
    MoveL [ [-2.227, -12.515, 49.451], [0.073, -0.869, -0.490, 0.000], [0, 0, 0, 0], [ 9E9, 9E9, 9E9, 9E9, 9E9, 9E9] ], v1000, fine, pen\WObj:=platform;
    MoveL [ [-5.825, -6.135, -0.010], [0.073, -0.869, -0.490, 0.000], [0, 0, 0, 0], [ 9E9, 9E9, 9E9, 9E9, 9E9, 9E9] ], v30, fine, pen\WObj:=platform;
    MoveL [ [-2.227, -12.515, 49.451], [0.073, -0.869, -0.490, 0.000], [0, 0, 0, 0], [ 9E9, 9E9, 9E9, 9E9, 9E9, 9E9] ], v1000, fine, pen\WObj:=platform;
    
    !!-5.8836033882307195, -6.2361;
    MoveL [ [-2.944, -4.879, 49.885], [0.032, 0.419, -0.907, 0.000], [0, 0, 0, 0], [ 9E9, 9E9, 9E9, 9E9, 9E9, 9E9] ], v1000, fine, pen\WObj:=platform;
    MoveL [ [-5.884, -6.236, -0.010], [0.032, 0.419, -0.907, 0.000], [0, 0, 0, 0], [ 9E9, 9E9, 9E9, 9E9, 9E9, 9E9] ], v30, fine, pen\WObj:=platform;
    MoveL [ [-2.944, -4.879, 49.885], [0.032, 0.419, -0.907, 0.000], [0, 0, 0, 0], [ 9E9, 9E9, 9E9, 9E9, 9E9, 9E9] ], v1000, fine, pen\WObj:=platform;
    
    !!-5.825060070934892, -6.3375;
    MoveL [ [-2.265, -12.367, 49.497], [0.070, -0.859, -0.507, 0.000], [0, 0, 0, 0], [ 9E9, 9E9, 9E9, 9E9, 9E9, 9E9] ], v1000, fine, pen\WObj:=platform;
    MoveL [ [-5.825, -6.338, -0.010], [0.070, -0.859, -0.507, 0.000], [0, 0, 0, 0], [ 9E9, 9E9, 9E9, 9E9, 9E9, 9E9] ], v30, fine, pen\WObj:=platform;
    MoveL [ [-2.265, -12.367, 49.497], [0.070, -0.859, -0.507, 0.000], [0, 0, 0, 0], [ 9E9, 9E9, 9E9, 9E9, 9E9, 9E9] ], v1000, fine, pen\WObj:=platform;
    
    !!-5.8836033882307195, -6.4389;
    MoveL [ [-2.291, -12.303, 49.515], [0.069, -0.851, -0.521, 0.000], [0, 0, 0, 0], [ 9E9, 9E9, 9E9, 9E9, 9E9, 9E9] ], v1000, fine, pen\WObj:=platform;
    MoveL [ [-5.884, -6.439, -0.010], [0.069, -0.851, -0.521, 0.000], [0, 0, 0, 0], [ 9E9, 9E9, 9E9, 9E9, 9E9, 9E9] ], v30, fine, pen\WObj:=platform;
    MoveL [ [-2.291, -12.303, 49.515], [0.069, -0.851, -0.521, 0.000], [0, 0, 0, 0], [ 9E9, 9E9, 9E9, 9E9, 9E9, 9E9] ], v1000, fine, pen\WObj:=platform;
    
    !!-5.825060070934892, -6.540300000000001;
    MoveL [ [-6.902, -14.618, 49.321], [0.082, -0.988, 0.132, 0.000], [0, 0, 0, 0], [ 9E9, 9E9, 9E9, 9E9, 9E9, 9E9] ], v1000, fine, pen\WObj:=platform;
    MoveL [ [-5.825, -6.540, -0.010], [0.082, -0.988, 0.132, 0.000], [0, 0, 0, 0], [ 9E9, 9E9, 9E9, 9E9, 9E9, 9E9] ], v30, fine, pen\WObj:=platform;
    MoveL [ [-6.902, -14.618, 49.321], [0.082, -0.988, 0.132, 0.000], [0, 0, 0, 0], [ 9E9, 9E9, 9E9, 9E9, 9E9, 9E9] ], v1000, fine, pen\WObj:=platform;
    
    !!-5.8836033882307195, -6.641700000000002;
    MoveL [ [-2.966, -4.551, 49.861], [0.036, 0.582, -0.812, 0.000], [0, 0, 0, 0], [ 9E9, 9E9, 9E9, 9E9, 9E9, 9E9] ], v1000, fine, pen\WObj:=platform;
    MoveL [ [-5.884, -6.642, -0.010], [0.036, 0.582, -0.812, 0.000], [0, 0, 0, 0], [ 9E9, 9E9, 9E9, 9E9, 9E9, 9E9] ], v30, fine, pen\WObj:=platform;
    MoveL [ [-2.966, -4.551, 49.861], [0.036, 0.582, -0.812, 0.000], [0, 0, 0, 0], [ 9E9, 9E9, 9E9, 9E9, 9E9, 9E9] ], v1000, fine, pen\WObj:=platform;
    
    !!-5.766516753639063, 0.05070000000000019;
    MoveL [ [-4.620, -20.393, 45.605], [0.209, -0.976, -0.055, 0.000], [0, 0, 0, 0], [ 9E9, 9E9, 9E9, 9E9, 9E9, 9E9] ], v1000, fine, pen\WObj:=platform;
    MoveL [ [-5.767, 0.051, -0.010], [0.209, -0.976, -0.055, 0.000], [0, 0, 0, 0], [ 9E9, 9E9, 9E9, 9E9, 9E9, 9E9] ], v30, fine, pen\WObj:=platform;
    MoveL [ [-4.620, -20.393, 45.605], [0.209, -0.976, -0.055, 0.000], [0, 0, 0, 0], [ 9E9, 9E9, 9E9, 9E9, 9E9, 9E9] ], v1000, fine, pen\WObj:=platform;
    
    !!-5.707973436343235, -0.050699999999999634;
    MoveL [ [-4.648, -20.314, 45.688], [0.207, -0.977, -0.051, 0.000], [0, 0, 0, 0], [ 9E9, 9E9, 9E9, 9E9, 9E9, 9E9] ], v1000, fine, pen\WObj:=platform;
    MoveL [ [-5.708, -0.051, -0.010], [0.207, -0.977, -0.051, 0.000], [0, 0, 0, 0], [ 9E9, 9E9, 9E9, 9E9, 9E9, 9E9] ], v30, fine, pen\WObj:=platform;
    MoveL [ [-4.648, -20.314, 45.688], [0.207, -0.977, -0.051, 0.000], [0, 0, 0, 0], [ 9E9, 9E9, 9E9, 9E9, 9E9, 9E9] ], v1000, fine, pen\WObj:=platform;
    
    !!-5.766516753639063, -0.1521;
    MoveL [ [-4.688, -20.266, 45.753], [0.206, -0.977, -0.052, 0.000], [0, 0, 0, 0], [ 9E9, 9E9, 9E9, 9E9, 9E9, 9E9] ], v1000, fine, pen\WObj:=platform;
    MoveL [ [-5.767, -0.152, -0.010], [0.206, -0.977, -0.052, 0.000], [0, 0, 0, 0], [ 9E9, 9E9, 9E9, 9E9, 9E9, 9E9] ], v30, fine, pen\WObj:=platform;
    MoveL [ [-4.688, -20.266, 45.753], [0.206, -0.977, -0.052, 0.000], [0, 0, 0, 0], [ 9E9, 9E9, 9E9, 9E9, 9E9, 9E9] ], v1000, fine, pen\WObj:=platform;
    
    !!-5.707973436343235, -0.2534999999999993;
    MoveL [ [-4.716, -20.186, 45.835], [0.204, -0.978, -0.049, 0.000], [0, 0, 0, 0], [ 9E9, 9E9, 9E9, 9E9, 9E9, 9E9] ], v1000, fine, pen\WObj:=platform;
    MoveL [ [-5.708, -0.253, -0.010], [0.204, -0.978, -0.049, 0.000], [0, 0, 0, 0], [ 9E9, 9E9, 9E9, 9E9, 9E9, 9E9] ], v30, fine, pen\WObj:=platform;
    MoveL [ [-4.716, -20.186, 45.835], [0.204, -0.978, -0.049, 0.000], [0, 0, 0, 0], [ 9E9, 9E9, 9E9, 9E9, 9E9, 9E9] ], v1000, fine, pen\WObj:=platform;
    
    !!-5.766516753639063, -0.35489999999999966;
    MoveL [ [-4.756, -20.136, 45.900], [0.202, -0.978, -0.050, 0.000], [0, 0, 0, 0], [ 9E9, 9E9, 9E9, 9E9, 9E9, 9E9] ], v1000, fine, pen\WObj:=platform;
    MoveL [ [-5.767, -0.355, -0.010], [0.202, -0.978, -0.050, 0.000], [0, 0, 0, 0], [ 9E9, 9E9, 9E9, 9E9, 9E9, 9E9] ], v30, fine, pen\WObj:=platform;
    MoveL [ [-4.756, -20.136, 45.900], [0.202, -0.978, -0.050, 0.000], [0, 0, 0, 0], [ 9E9, 9E9, 9E9, 9E9, 9E9, 9E9] ], v1000, fine, pen\WObj:=platform;
    
    !!-5.707973436343235, -0.4562999999999995;
    MoveL [ [-4.785, -20.054, 45.980], [0.200, -0.979, -0.046, 0.000], [0, 0, 0, 0], [ 9E9, 9E9, 9E9, 9E9, 9E9, 9E9] ], v1000, fine, pen\WObj:=platform;
    MoveL [ [-5.708, -0.456, -0.010], [0.200, -0.979, -0.046, 0.000], [0, 0, 0, 0], [ 9E9, 9E9, 9E9, 9E9, 9E9, 9E9] ], v30, fine, pen\WObj:=platform;
    MoveL [ [-4.785, -20.054, 45.980], [0.200, -0.979, -0.046, 0.000], [0, 0, 0, 0], [ 9E9, 9E9, 9E9, 9E9, 9E9, 9E9] ], v1000, fine, pen\WObj:=platform;
    
    !!-5.766516753639063, -0.5576999999999999;
    MoveL [ [-4.825, -20.002, 46.044], [0.199, -0.979, -0.047, 0.000], [0, 0, 0, 0], [ 9E9, 9E9, 9E9, 9E9, 9E9, 9E9] ], v1000, fine, pen\WObj:=platform;
    MoveL [ [-5.767, -0.558, -0.010], [0.199, -0.979, -0.047, 0.000], [0, 0, 0, 0], [ 9E9, 9E9, 9E9, 9E9, 9E9, 9E9] ], v30, fine, pen\WObj:=platform;
    MoveL [ [-4.825, -20.002, 46.044], [0.199, -0.979, -0.047, 0.000], [0, 0, 0, 0], [ 9E9, 9E9, 9E9, 9E9, 9E9, 9E9] ], v1000, fine, pen\WObj:=platform;
    
    !!-5.707973436343235, -0.6590999999999997;
    MoveL [ [-4.854, -19.918, 46.124], [0.197, -0.980, -0.043, 0.000], [0, 0, 0, 0], [ 9E9, 9E9, 9E9, 9E9, 9E9, 9E9] ], v1000, fine, pen\WObj:=platform;
    MoveL [ [-5.708, -0.659, -0.010], [0.197, -0.980, -0.043, 0.000], [0, 0, 0, 0], [ 9E9, 9E9, 9E9, 9E9, 9E9, 9E9] ], v30, fine, pen\WObj:=platform;
    MoveL [ [-4.854, -19.918, 46.124], [0.197, -0.980, -0.043, 0.000], [0, 0, 0, 0], [ 9E9, 9E9, 9E9, 9E9, 9E9, 9E9] ], v1000, fine, pen\WObj:=platform;
    
    !!-5.766516753639063, -0.7605000000000001;
    MoveL [ [-4.894, -19.866, 46.188], [0.195, -0.980, -0.045, 0.000], [0, 0, 0, 0], [ 9E9, 9E9, 9E9, 9E9, 9E9, 9E9] ], v1000, fine, pen\WObj:=platform;
    MoveL [ [-5.767, -0.761, -0.010], [0.195, -0.980, -0.045, 0.000], [0, 0, 0, 0], [ 9E9, 9E9, 9E9, 9E9, 9E9, 9E9] ], v30, fine, pen\WObj:=platform;
    MoveL [ [-4.894, -19.866, 46.188], [0.195, -0.980, -0.045, 0.000], [0, 0, 0, 0], [ 9E9, 9E9, 9E9, 9E9, 9E9, 9E9] ], v1000, fine, pen\WObj:=platform;
    
    !!-5.707973436343235, -0.8618999999999997;
    MoveL [ [-4.923, -19.780, 46.266], [0.193, -0.980, -0.041, 0.000], [0, 0, 0, 0], [ 9E9, 9E9, 9E9, 9E9, 9E9, 9E9] ], v1000, fine, pen\WObj:=platform;
    MoveL [ [-5.708, -0.862, -0.010], [0.193, -0.980, -0.041, 0.000], [0, 0, 0, 0], [ 9E9, 9E9, 9E9, 9E9, 9E9, 9E9] ], v30, fine, pen\WObj:=platform;
    MoveL [ [-4.923, -19.780, 46.266], [0.193, -0.980, -0.041, 0.000], [0, 0, 0, 0], [ 9E9, 9E9, 9E9, 9E9, 9E9, 9E9] ], v1000, fine, pen\WObj:=platform;
    
    !!-5.766516753639063, -0.9633;
    MoveL [ [-4.964, -19.725, 46.330], [0.191, -0.981, -0.042, 0.000], [0, 0, 0, 0], [ 9E9, 9E9, 9E9, 9E9, 9E9, 9E9] ], v1000, fine, pen\WObj:=platform;
    MoveL [ [-5.767, -0.963, -0.010], [0.191, -0.981, -0.042, 0.000], [0, 0, 0, 0], [ 9E9, 9E9, 9E9, 9E9, 9E9, 9E9] ], v30, fine, pen\WObj:=platform;
    MoveL [ [-4.964, -19.725, 46.330], [0.191, -0.981, -0.042, 0.000], [0, 0, 0, 0], [ 9E9, 9E9, 9E9, 9E9, 9E9, 9E9] ], v1000, fine, pen\WObj:=platform;
    
    !!-5.707973436343235, -1.0646999999999995;
    MoveL [ [-4.992, -19.637, 46.407], [0.189, -0.981, -0.038, 0.000], [0, 0, 0, 0], [ 9E9, 9E9, 9E9, 9E9, 9E9, 9E9] ], v1000, fine, pen\WObj:=platform;
    MoveL [ [-5.708, -1.065, -0.010], [0.189, -0.981, -0.038, 0.000], [0, 0, 0, 0], [ 9E9, 9E9, 9E9, 9E9, 9E9, 9E9] ], v30, fine, pen\WObj:=platform;
    MoveL [ [-4.992, -19.637, 46.407], [0.189, -0.981, -0.038, 0.000], [0, 0, 0, 0], [ 9E9, 9E9, 9E9, 9E9, 9E9, 9E9] ], v1000, fine, pen\WObj:=platform;
    
    !!-5.766516753639063, -1.1660999999999992;
    MoveL [ [-1.323, -15.678, 47.631], [0.154, -0.945, -0.289, 0.000], [0, 0, 0, 0], [ 9E9, 9E9, 9E9, 9E9, 9E9, 9E9] ], v1000, fine, pen\WObj:=platform;
    MoveL [ [-5.767, -1.166, -0.010], [0.154, -0.945, -0.289, 0.000], [0, 0, 0, 0], [ 9E9, 9E9, 9E9, 9E9, 9E9, 9E9] ], v30, fine, pen\WObj:=platform;
    MoveL [ [-1.323, -15.678, 47.631], [0.154, -0.945, -0.289, 0.000], [0, 0, 0, 0], [ 9E9, 9E9, 9E9, 9E9, 9E9, 9E9] ], v1000, fine, pen\WObj:=platform;
    
    !!-5.707973436343235, -1.2674999999999996;
    MoveL [ [-2.581, -8.795, 49.321], [0.082, -0.920, -0.382, 0.000], [0, 0, 0, 0], [ 9E9, 9E9, 9E9, 9E9, 9E9, 9E9] ], v1000, fine, pen\WObj:=platform;
    MoveL [ [-5.708, -1.267, -0.010], [0.082, -0.920, -0.382, 0.000], [0, 0, 0, 0], [ 9E9, 9E9, 9E9, 9E9, 9E9, 9E9] ], v30, fine, pen\WObj:=platform;
    MoveL [ [-2.581, -8.795, 49.321], [0.082, -0.920, -0.382, 0.000], [0, 0, 0, 0], [ 9E9, 9E9, 9E9, 9E9, 9E9, 9E9] ], v1000, fine, pen\WObj:=platform;
    
    !!-5.766516753639063, -1.3689;
    MoveL [ [-5.103, -19.434, 46.608], [0.184, -0.982, -0.036, 0.000], [0, 0, 0, 0], [ 9E9, 9E9, 9E9, 9E9, 9E9, 9E9] ], v1000, fine, pen\WObj:=platform;
    MoveL [ [-5.767, -1.369, -0.010], [0.184, -0.982, -0.036, 0.000], [0, 0, 0, 0], [ 9E9, 9E9, 9E9, 9E9, 9E9, 9E9] ], v30, fine, pen\WObj:=platform;
    MoveL [ [-5.103, -19.434, 46.608], [0.184, -0.982, -0.036, 0.000], [0, 0, 0, 0], [ 9E9, 9E9, 9E9, 9E9, 9E9, 9E9] ], v1000, fine, pen\WObj:=platform;
    
    !!-5.707973436343235, -1.4702999999999997;
    MoveL [ [-5.132, -19.342, 46.683], [0.182, -0.983, -0.032, 0.000], [0, 0, 0, 0], [ 9E9, 9E9, 9E9, 9E9, 9E9, 9E9] ], v1000, fine, pen\WObj:=platform;
    MoveL [ [-5.708, -1.470, -0.010], [0.182, -0.983, -0.032, 0.000], [0, 0, 0, 0], [ 9E9, 9E9, 9E9, 9E9, 9E9, 9E9] ], v30, fine, pen\WObj:=platform;
    MoveL [ [-5.132, -19.342, 46.683], [0.182, -0.983, -0.032, 0.000], [0, 0, 0, 0], [ 9E9, 9E9, 9E9, 9E9, 9E9, 9E9] ], v1000, fine, pen\WObj:=platform;
    
    !!-5.766516753639063, -1.5717;
    MoveL [ [-5.173, -19.283, 46.744], [0.180, -0.983, -0.033, 0.000], [0, 0, 0, 0], [ 9E9, 9E9, 9E9, 9E9, 9E9, 9E9] ], v1000, fine, pen\WObj:=platform;
    MoveL [ [-5.767, -1.572, -0.010], [0.180, -0.983, -0.033, 0.000], [0, 0, 0, 0], [ 9E9, 9E9, 9E9, 9E9, 9E9, 9E9] ], v30, fine, pen\WObj:=platform;
    MoveL [ [-5.173, -19.283, 46.744], [0.180, -0.983, -0.033, 0.000], [0, 0, 0, 0], [ 9E9, 9E9, 9E9, 9E9, 9E9, 9E9] ], v1000, fine, pen\WObj:=platform;
    
    !!-5.707973436343235, -1.6730999999999998;
    MoveL [ [-5.202, -19.190, 46.819], [0.178, -0.984, -0.028, 0.000], [0, 0, 0, 0], [ 9E9, 9E9, 9E9, 9E9, 9E9, 9E9] ], v1000, fine, pen\WObj:=platform;
    MoveL [ [-5.708, -1.673, -0.010], [0.178, -0.984, -0.028, 0.000], [0, 0, 0, 0], [ 9E9, 9E9, 9E9, 9E9, 9E9, 9E9] ], v30, fine, pen\WObj:=platform;
    MoveL [ [-5.202, -19.190, 46.819], [0.178, -0.984, -0.028, 0.000], [0, 0, 0, 0], [ 9E9, 9E9, 9E9, 9E9, 9E9, 9E9] ], v1000, fine, pen\WObj:=platform;
    
    !!-5.766516753639063, -1.7745000000000002;
    MoveL [ [-5.244, -19.129, 46.879], [0.176, -0.984, -0.030, 0.000], [0, 0, 0, 0], [ 9E9, 9E9, 9E9, 9E9, 9E9, 9E9] ], v1000, fine, pen\WObj:=platform;
    MoveL [ [-5.767, -1.775, -0.010], [0.176, -0.984, -0.030, 0.000], [0, 0, 0, 0], [ 9E9, 9E9, 9E9, 9E9, 9E9, 9E9] ], v30, fine, pen\WObj:=platform;
    MoveL [ [-5.244, -19.129, 46.879], [0.176, -0.984, -0.030, 0.000], [0, 0, 0, 0], [ 9E9, 9E9, 9E9, 9E9, 9E9, 9E9] ], v1000, fine, pen\WObj:=platform;
    
    !!-5.707973436343235, -1.8758999999999997;
    MoveL [ [-5.273, -19.034, 46.952], [0.174, -0.984, -0.025, 0.000], [0, 0, 0, 0], [ 9E9, 9E9, 9E9, 9E9, 9E9, 9E9] ], v1000, fine, pen\WObj:=platform;
    MoveL [ [-5.708, -1.876, -0.010], [0.174, -0.984, -0.025, 0.000], [0, 0, 0, 0], [ 9E9, 9E9, 9E9, 9E9, 9E9, 9E9] ], v30, fine, pen\WObj:=platform;
    MoveL [ [-5.273, -19.034, 46.952], [0.174, -0.984, -0.025, 0.000], [0, 0, 0, 0], [ 9E9, 9E9, 9E9, 9E9, 9E9, 9E9] ], v1000, fine, pen\WObj:=platform;
    
    !!-5.766516753639063, -1.9773;
    MoveL [ [-5.314, -18.971, 47.011], [0.173, -0.985, -0.026, 0.000], [0, 0, 0, 0], [ 9E9, 9E9, 9E9, 9E9, 9E9, 9E9] ], v1000, fine, pen\WObj:=platform;
    MoveL [ [-5.767, -1.977, -0.010], [0.173, -0.985, -0.026, 0.000], [0, 0, 0, 0], [ 9E9, 9E9, 9E9, 9E9, 9E9, 9E9] ], v30, fine, pen\WObj:=platform;
    MoveL [ [-5.314, -18.971, 47.011], [0.173, -0.985, -0.026, 0.000], [0, 0, 0, 0], [ 9E9, 9E9, 9E9, 9E9, 9E9, 9E9] ], v1000, fine, pen\WObj:=platform;
    
    !!-5.707973436343235, -2.0786999999999995;
    MoveL [ [-5.344, -18.874, 47.083], [0.170, -0.985, -0.021, 0.000], [0, 0, 0, 0], [ 9E9, 9E9, 9E9, 9E9, 9E9, 9E9] ], v1000, fine, pen\WObj:=platform;
    MoveL [ [-5.708, -2.079, -0.010], [0.170, -0.985, -0.021, 0.000], [0, 0, 0, 0], [ 9E9, 9E9, 9E9, 9E9, 9E9, 9E9] ], v30, fine, pen\WObj:=platform;
    MoveL [ [-5.344, -18.874, 47.083], [0.170, -0.985, -0.021, 0.000], [0, 0, 0, 0], [ 9E9, 9E9, 9E9, 9E9, 9E9, 9E9] ], v1000, fine, pen\WObj:=platform;
    
    !!-5.766516753639063, -2.1801000000000004;
    MoveL [ [-7.547, -9.920, 49.355], [0.080, -0.971, 0.224, 0.000], [0, 0, 0, 0], [ 9E9, 9E9, 9E9, 9E9, 9E9, 9E9] ], v1000, fine, pen\WObj:=platform;
    MoveL [ [-5.767, -2.180, -0.010], [0.080, -0.971, 0.224, 0.000], [0, 0, 0, 0], [ 9E9, 9E9, 9E9, 9E9, 9E9, 9E9] ], v30, fine, pen\WObj:=platform;
    MoveL [ [-7.547, -9.920, 49.355], [0.080, -0.971, 0.224, 0.000], [0, 0, 0, 0], [ 9E9, 9E9, 9E9, 9E9, 9E9, 9E9] ], v1000, fine, pen\WObj:=platform;
    
    !!-5.707973436343235, -2.2815;
    MoveL [ [-5.414, -18.711, 47.213], [0.167, -0.986, -0.018, 0.000], [0, 0, 0, 0], [ 9E9, 9E9, 9E9, 9E9, 9E9, 9E9] ], v1000, fine, pen\WObj:=platform;
    MoveL [ [-5.708, -2.281, -0.010], [0.167, -0.986, -0.018, 0.000], [0, 0, 0, 0], [ 9E9, 9E9, 9E9, 9E9, 9E9, 9E9] ], v30, fine, pen\WObj:=platform;
    MoveL [ [-5.414, -18.711, 47.213], [0.167, -0.986, -0.018, 0.000], [0, 0, 0, 0], [ 9E9, 9E9, 9E9, 9E9, 9E9, 9E9] ], v1000, fine, pen\WObj:=platform;
    
    !!-5.766516753639063, -2.3828999999999994;
    MoveL [ [-7.582, -9.680, 49.421], [0.075, -0.968, 0.241, 0.000], [0, 0, 0, 0], [ 9E9, 9E9, 9E9, 9E9, 9E9, 9E9] ], v1000, fine, pen\WObj:=platform;
    MoveL [ [-5.767, -2.383, -0.010], [0.075, -0.968, 0.241, 0.000], [0, 0, 0, 0], [ 9E9, 9E9, 9E9, 9E9, 9E9, 9E9] ], v30, fine, pen\WObj:=platform;
    MoveL [ [-7.582, -9.680, 49.421], [0.075, -0.968, 0.241, 0.000], [0, 0, 0, 0], [ 9E9, 9E9, 9E9, 9E9, 9E9, 9E9] ], v1000, fine, pen\WObj:=platform;
    
    !!-5.707973436343235, -2.4842999999999997;
    MoveL [ [-5.485, -18.545, 47.340], [0.163, -0.987, -0.014, 0.000], [0, 0, 0, 0], [ 9E9, 9E9, 9E9, 9E9, 9E9, 9E9] ], v1000, fine, pen\WObj:=platform;
    MoveL [ [-5.708, -2.484, -0.010], [0.163, -0.987, -0.014, 0.000], [0, 0, 0, 0], [ 9E9, 9E9, 9E9, 9E9, 9E9, 9E9] ], v30, fine, pen\WObj:=platform;
    MoveL [ [-5.485, -18.545, 47.340], [0.163, -0.987, -0.014, 0.000], [0, 0, 0, 0], [ 9E9, 9E9, 9E9, 9E9, 9E9, 9E9] ], v1000, fine, pen\WObj:=platform;
    
    !!-5.766516753639063, -2.5857;
    MoveL [ [-1.570, -14.872, 48.275], [0.131, -0.938, -0.320, 0.000], [0, 0, 0, 0], [ 9E9, 9E9, 9E9, 9E9, 9E9, 9E9] ], v1000, fine, pen\WObj:=platform;
    MoveL [ [-5.767, -2.586, -0.010], [0.131, -0.938, -0.320, 0.000], [0, 0, 0, 0], [ 9E9, 9E9, 9E9, 9E9, 9E9, 9E9] ], v30, fine, pen\WObj:=platform;
    MoveL [ [-1.570, -14.872, 48.275], [0.131, -0.938, -0.320, 0.000], [0, 0, 0, 0], [ 9E9, 9E9, 9E9, 9E9, 9E9, 9E9] ], v1000, fine, pen\WObj:=platform;
    
    !!-5.707973436343235, -2.6871;
    MoveL [ [-7.622, -9.310, 49.512], [0.069, -0.958, 0.277, 0.000], [0, 0, 0, 0], [ 9E9, 9E9, 9E9, 9E9, 9E9, 9E9] ], v1000, fine, pen\WObj:=platform;
    MoveL [ [-5.708, -2.687, -0.010], [0.069, -0.958, 0.277, 0.000], [0, 0, 0, 0], [ 9E9, 9E9, 9E9, 9E9, 9E9, 9E9] ], v30, fine, pen\WObj:=platform;
    MoveL [ [-7.622, -9.310, 49.512], [0.069, -0.958, 0.277, 0.000], [0, 0, 0, 0], [ 9E9, 9E9, 9E9, 9E9, 9E9, 9E9] ], v1000, fine, pen\WObj:=platform;
    
    !!-5.766516753639063, -2.7885;
    MoveL [ [-2.704, -7.637, 49.660], [0.057, -0.844, -0.533, 0.000], [0, 0, 0, 0], [ 9E9, 9E9, 9E9, 9E9, 9E9, 9E9] ], v1000, fine, pen\WObj:=platform;
    MoveL [ [-5.767, -2.788, -0.010], [0.057, -0.844, -0.533, 0.000], [0, 0, 0, 0], [ 9E9, 9E9, 9E9, 9E9, 9E9, 9E9] ], v30, fine, pen\WObj:=platform;
    MoveL [ [-2.704, -7.637, 49.660], [0.057, -0.844, -0.533, 0.000], [0, 0, 0, 0], [ 9E9, 9E9, 9E9, 9E9, 9E9, 9E9] ], v1000, fine, pen\WObj:=platform;
    
    !!-5.707973436343235, -2.8899000000000004;
    MoveL [ [-7.654, -9.067, 49.569], [0.065, -0.952, 0.300, 0.000], [0, 0, 0, 0], [ 9E9, 9E9, 9E9, 9E9, 9E9, 9E9] ], v1000, fine, pen\WObj:=platform;
    MoveL [ [-5.708, -2.890, -0.010], [0.065, -0.952, 0.300, 0.000], [0, 0, 0, 0], [ 9E9, 9E9, 9E9, 9E9, 9E9, 9E9] ], v30, fine, pen\WObj:=platform;
    MoveL [ [-7.654, -9.067, 49.569], [0.065, -0.952, 0.300, 0.000], [0, 0, 0, 0], [ 9E9, 9E9, 9E9, 9E9, 9E9, 9E9] ], v1000, fine, pen\WObj:=platform;
    
    !!-5.766516753639063, -2.9913000000000007;
    MoveL [ [-2.718, -7.478, 49.695], [0.054, -0.826, -0.561, 0.000], [0, 0, 0, 0], [ 9E9, 9E9, 9E9, 9E9, 9E9, 9E9] ], v1000, fine, pen\WObj:=platform;
    MoveL [ [-5.767, -2.991, -0.010], [0.054, -0.826, -0.561, 0.000], [0, 0, 0, 0], [ 9E9, 9E9, 9E9, 9E9, 9E9, 9E9] ], v30, fine, pen\WObj:=platform;
    MoveL [ [-2.718, -7.478, 49.695], [0.054, -0.826, -0.561, 0.000], [0, 0, 0, 0], [ 9E9, 9E9, 9E9, 9E9, 9E9, 9E9] ], v1000, fine, pen\WObj:=platform;
    
    !!-5.707973436343235, -3.0926999999999993;
    MoveL [ [-2.717, -7.395, 49.715], [0.052, -0.820, -0.570, 0.000], [0, 0, 0, 0], [ 9E9, 9E9, 9E9, 9E9, 9E9, 9E9] ], v1000, fine, pen\WObj:=platform;
    MoveL [ [-5.708, -3.093, -0.010], [0.052, -0.820, -0.570, 0.000], [0, 0, 0, 0], [ 9E9, 9E9, 9E9, 9E9, 9E9, 9E9] ], v30, fine, pen\WObj:=platform;
    MoveL [ [-2.717, -7.395, 49.715], [0.052, -0.820, -0.570, 0.000], [0, 0, 0, 0], [ 9E9, 9E9, 9E9, 9E9, 9E9, 9E9] ], v1000, fine, pen\WObj:=platform;
    
    !!-5.766516753639063, -3.1940999999999997;
    MoveL [ [-1.678, -14.500, 48.523], [0.121, -0.933, -0.338, 0.000], [0, 0, 0, 0], [ 9E9, 9E9, 9E9, 9E9, 9E9, 9E9] ], v1000, fine, pen\WObj:=platform;
    MoveL [ [-5.767, -3.194, -0.010], [0.121, -0.933, -0.338, 0.000], [0, 0, 0, 0], [ 9E9, 9E9, 9E9, 9E9, 9E9, 9E9] ], v30, fine, pen\WObj:=platform;
    MoveL [ [-1.678, -14.500, 48.523], [0.121, -0.933, -0.338, 0.000], [0, 0, 0, 0], [ 9E9, 9E9, 9E9, 9E9, 9E9, 9E9] ], v1000, fine, pen\WObj:=platform;
    
    !!-5.707973436343235, -3.2955;
    MoveL [ [1.374, -12.147, 48.688], [0.114, -0.776, -0.621, 0.000], [0, 0, 0, 0], [ 9E9, 9E9, 9E9, 9E9, 9E9, 9E9] ], v1000, fine, pen\WObj:=platform;
    MoveL [ [-5.708, -3.296, -0.010], [0.114, -0.776, -0.621, 0.000], [0, 0, 0, 0], [ 9E9, 9E9, 9E9, 9E9, 9E9, 9E9] ], v30, fine, pen\WObj:=platform;
    MoveL [ [1.374, -12.147, 48.688], [0.114, -0.776, -0.621, 0.000], [0, 0, 0, 0], [ 9E9, 9E9, 9E9, 9E9, 9E9, 9E9] ], v1000, fine, pen\WObj:=platform;
    
    !!-5.766516753639063, -3.3969000000000005;
    MoveL [ [-2.747, -7.158, 49.757], [0.048, -0.779, -0.625, 0.000], [0, 0, 0, 0], [ 9E9, 9E9, 9E9, 9E9, 9E9, 9E9] ], v1000, fine, pen\WObj:=platform;
    MoveL [ [-5.767, -3.397, -0.010], [0.048, -0.779, -0.625, 0.000], [0, 0, 0, 0], [ 9E9, 9E9, 9E9, 9E9, 9E9, 9E9] ], v30, fine, pen\WObj:=platform;
    MoveL [ [-2.747, -7.158, 49.757], [0.048, -0.779, -0.625, 0.000], [0, 0, 0, 0], [ 9E9, 9E9, 9E9, 9E9, 9E9, 9E9] ], v1000, fine, pen\WObj:=platform;
    
    !!-5.707973436343235, -3.498300000000001;
    MoveL [ [1.354, -12.059, 48.743], [0.112, -0.767, -0.632, 0.000], [0, 0, 0, 0], [ 9E9, 9E9, 9E9, 9E9, 9E9, 9E9] ], v1000, fine, pen\WObj:=platform;
    MoveL [ [-5.708, -3.498, -0.010], [0.112, -0.767, -0.632, 0.000], [0, 0, 0, 0], [ 9E9, 9E9, 9E9, 9E9, 9E9, 9E9] ], v30, fine, pen\WObj:=platform;
    MoveL [ [1.354, -12.059, 48.743], [0.112, -0.767, -0.632, 0.000], [0, 0, 0, 0], [ 9E9, 9E9, 9E9, 9E9, 9E9, 9E9] ], v1000, fine, pen\WObj:=platform;
    
    !!-5.766516753639063, -3.5996999999999995;
    MoveL [ [0.754, -6.229, 49.493], [0.070, -0.373, -0.925, 0.000], [0, 0, 0, 0], [ 9E9, 9E9, 9E9, 9E9, 9E9, 9E9] ], v1000, fine, pen\WObj:=platform;
    MoveL [ [-5.767, -3.600, -0.010], [0.070, -0.373, -0.925, 0.000], [0, 0, 0, 0], [ 9E9, 9E9, 9E9, 9E9, 9E9, 9E9] ], v30, fine, pen\WObj:=platform;
    MoveL [ [0.754, -6.229, 49.493], [0.070, -0.373, -0.925, 0.000], [0, 0, 0, 0], [ 9E9, 9E9, 9E9, 9E9, 9E9, 9E9] ], v1000, fine, pen\WObj:=platform;
    
    !!-5.707973436343235, -3.701099999999999;
    MoveL [ [3.614, -10.452, 48.647], [0.116, -0.583, -0.804, 0.000], [0, 0, 0, 0], [ 9E9, 9E9, 9E9, 9E9, 9E9, 9E9] ], v1000, fine, pen\WObj:=platform;
    MoveL [ [-5.708, -3.701, -0.010], [0.116, -0.583, -0.804, 0.000], [0, 0, 0, 0], [ 9E9, 9E9, 9E9, 9E9, 9E9, 9E9] ], v30, fine, pen\WObj:=platform;
    MoveL [ [3.614, -10.452, 48.647], [0.116, -0.583, -0.804, 0.000], [0, 0, 0, 0], [ 9E9, 9E9, 9E9, 9E9, 9E9, 9E9] ], v1000, fine, pen\WObj:=platform;
    
    !!-5.766516753639063, -3.8024999999999993;
    MoveL [ [-2.775, -6.836, 49.808], [0.043, -0.711, -0.702, 0.000], [0, 0, 0, 0], [ 9E9, 9E9, 9E9, 9E9, 9E9, 9E9] ], v1000, fine, pen\WObj:=platform;
    MoveL [ [-5.767, -3.802, -0.010], [0.043, -0.711, -0.702, 0.000], [0, 0, 0, 0], [ 9E9, 9E9, 9E9, 9E9, 9E9, 9E9] ], v30, fine, pen\WObj:=platform;
    MoveL [ [-2.775, -6.836, 49.808], [0.043, -0.711, -0.702, 0.000], [0, 0, 0, 0], [ 9E9, 9E9, 9E9, 9E9, 9E9, 9E9] ], v1000, fine, pen\WObj:=platform;
    
    !!-5.707973436343235, -3.9038999999999997;
    MoveL [ [3.603, -10.391, 48.685], [0.114, -0.568, -0.815, 0.000], [0, 0, 0, 0], [ 9E9, 9E9, 9E9, 9E9, 9E9, 9E9] ], v1000, fine, pen\WObj:=platform;
    MoveL [ [-5.708, -3.904, -0.010], [0.114, -0.568, -0.815, 0.000], [0, 0, 0, 0], [ 9E9, 9E9, 9E9, 9E9, 9E9, 9E9] ], v30, fine, pen\WObj:=platform;
    MoveL [ [3.603, -10.391, 48.685], [0.114, -0.568, -0.815, 0.000], [0, 0, 0, 0], [ 9E9, 9E9, 9E9, 9E9, 9E9, 9E9] ], v1000, fine, pen\WObj:=platform;
    
    !!-5.766516753639063, -4.0053;
    MoveL [ [3.583, -10.364, 48.695], [0.114, -0.559, -0.822, 0.000], [0, 0, 0, 0], [ 9E9, 9E9, 9E9, 9E9, 9E9, 9E9] ], v1000, fine, pen\WObj:=platform;
    MoveL [ [-5.767, -4.005, -0.010], [0.114, -0.559, -0.822, 0.000], [0, 0, 0, 0], [ 9E9, 9E9, 9E9, 9E9, 9E9, 9E9] ], v30, fine, pen\WObj:=platform;
    MoveL [ [3.583, -10.364, 48.695], [0.114, -0.559, -0.822, 0.000], [0, 0, 0, 0], [ 9E9, 9E9, 9E9, 9E9, 9E9, 9E9] ], v1000, fine, pen\WObj:=platform;
    
    !!-5.707973436343235, -4.1067;
    MoveL [ [0.745, -5.960, 49.537], [0.067, -0.275, -0.959, 0.000], [0, 0, 0, 0], [ 9E9, 9E9, 9E9, 9E9, 9E9, 9E9] ], v1000, fine, pen\WObj:=platform;
    MoveL [ [-5.708, -4.107, -0.010], [0.067, -0.275, -0.959, 0.000], [0, 0, 0, 0], [ 9E9, 9E9, 9E9, 9E9, 9E9, 9E9] ], v30, fine, pen\WObj:=platform;
    MoveL [ [0.745, -5.960, 49.537], [0.067, -0.275, -0.959, 0.000], [0, 0, 0, 0], [ 9E9, 9E9, 9E9, 9E9, 9E9, 9E9] ], v1000, fine, pen\WObj:=platform;
    
    !!-5.766516753639063, -4.208100000000001;
    MoveL [ [-1.862, -13.846, 48.897], [0.105, -0.922, -0.373, 0.000], [0, 0, 0, 0], [ 9E9, 9E9, 9E9, 9E9, 9E9, 9E9] ], v1000, fine, pen\WObj:=platform;
    MoveL [ [-5.767, -4.208, -0.010], [0.105, -0.922, -0.373, 0.000], [0, 0, 0, 0], [ 9E9, 9E9, 9E9, 9E9, 9E9, 9E9] ], v30, fine, pen\WObj:=platform;
    MoveL [ [-1.862, -13.846, 48.897], [0.105, -0.922, -0.373, 0.000], [0, 0, 0, 0], [ 9E9, 9E9, 9E9, 9E9, 9E9, 9E9] ], v1000, fine, pen\WObj:=platform;
    
    !!-5.707973436343235, -4.3095;
    MoveL [ [-1.874, -13.769, 48.937], [0.103, -0.922, -0.374, 0.000], [0, 0, 0, 0], [ 9E9, 9E9, 9E9, 9E9, 9E9, 9E9] ], v1000, fine, pen\WObj:=platform;
    MoveL [ [-5.708, -4.309, -0.010], [0.103, -0.922, -0.374, 0.000], [0, 0, 0, 0], [ 9E9, 9E9, 9E9, 9E9, 9E9, 9E9] ], v30, fine, pen\WObj:=platform;
    MoveL [ [-1.874, -13.769, 48.937], [0.103, -0.922, -0.374, 0.000], [0, 0, 0, 0], [ 9E9, 9E9, 9E9, 9E9, 9E9, 9E9] ], v1000, fine, pen\WObj:=platform;
    
    !!-5.766516753639063, -4.4109;
    MoveL [ [-2.816, -6.348, 49.865], [0.035, -0.548, -0.835, 0.000], [0, 0, 0, 0], [ 9E9, 9E9, 9E9, 9E9, 9E9, 9E9] ], v1000, fine, pen\WObj:=platform;
    MoveL [ [-5.767, -4.411, -0.010], [0.035, -0.548, -0.835, 0.000], [0, 0, 0, 0], [ 9E9, 9E9, 9E9, 9E9, 9E9, 9E9] ], v30, fine, pen\WObj:=platform;
    MoveL [ [-2.816, -6.348, 49.865], [0.035, -0.548, -0.835, 0.000], [0, 0, 0, 0], [ 9E9, 9E9, 9E9, 9E9, 9E9, 9E9] ], v1000, fine, pen\WObj:=platform;
    
    !!-5.707973436343235, -4.5123;
    MoveL [ [-1.911, -13.633, 49.004], [0.099, -0.919, -0.382, 0.000], [0, 0, 0, 0], [ 9E9, 9E9, 9E9, 9E9, 9E9, 9E9] ], v1000, fine, pen\WObj:=platform;
    MoveL [ [-5.708, -4.512, -0.010], [0.099, -0.919, -0.382, 0.000], [0, 0, 0, 0], [ 9E9, 9E9, 9E9, 9E9, 9E9, 9E9] ], v30, fine, pen\WObj:=platform;
    MoveL [ [-1.911, -13.633, 49.004], [0.099, -0.919, -0.382, 0.000], [0, 0, 0, 0], [ 9E9, 9E9, 9E9, 9E9, 9E9, 9E9] ], v1000, fine, pen\WObj:=platform;
    
    !!-5.766516753639063, -4.6137;
    MoveL [ [-1.937, -13.574, 49.031], [0.098, -0.915, -0.391, 0.000], [0, 0, 0, 0], [ 9E9, 9E9, 9E9, 9E9, 9E9, 9E9] ], v1000, fine, pen\WObj:=platform;
    MoveL [ [-5.767, -4.614, -0.010], [0.098, -0.915, -0.391, 0.000], [0, 0, 0, 0], [ 9E9, 9E9, 9E9, 9E9, 9E9, 9E9] ], v30, fine, pen\WObj:=platform;
    MoveL [ [-1.937, -13.574, 49.031], [0.098, -0.915, -0.391, 0.000], [0, 0, 0, 0], [ 9E9, 9E9, 9E9, 9E9, 9E9, 9E9] ], v1000, fine, pen\WObj:=platform;
    
    !!-5.707973436343235, -4.7151;
    MoveL [ [-1.948, -13.495, 49.069], [0.096, -0.915, -0.392, 0.000], [0, 0, 0, 0], [ 9E9, 9E9, 9E9, 9E9, 9E9, 9E9] ], v1000, fine, pen\WObj:=platform;
    MoveL [ [-5.708, -4.715, -0.010], [0.096, -0.915, -0.392, 0.000], [0, 0, 0, 0], [ 9E9, 9E9, 9E9, 9E9, 9E9, 9E9] ], v30, fine, pen\WObj:=platform;
    MoveL [ [-1.948, -13.495, 49.069], [0.096, -0.915, -0.392, 0.000], [0, 0, 0, 0], [ 9E9, 9E9, 9E9, 9E9, 9E9, 9E9] ], v1000, fine, pen\WObj:=platform;
    
    !!-5.766516753639063, -4.8165000000000004;
    MoveL [ [-7.922, -6.689, 49.908], [0.029, -0.655, 0.755, 0.000], [0, 0, 0, 0], [ 9E9, 9E9, 9E9, 9E9, 9E9, 9E9] ], v1000, fine, pen\WObj:=platform;
    MoveL [ [-5.767, -4.817, -0.010], [0.029, -0.655, 0.755, 0.000], [0, 0, 0, 0], [ 9E9, 9E9, 9E9, 9E9, 9E9, 9E9] ], v30, fine, pen\WObj:=platform;
    MoveL [ [-7.922, -6.689, 49.908], [0.029, -0.655, 0.755, 0.000], [0, 0, 0, 0], [ 9E9, 9E9, 9E9, 9E9, 9E9, 9E9] ], v1000, fine, pen\WObj:=platform;
    
    !!-5.707973436343235, -4.9179;
    MoveL [ [-2.840, -5.936, 49.897], [0.030, -0.334, -0.942, 0.000], [0, 0, 0, 0], [ 9E9, 9E9, 9E9, 9E9, 9E9, 9E9] ], v1000, fine, pen\WObj:=platform;
    MoveL [ [-5.708, -4.918, -0.010], [0.030, -0.334, -0.942, 0.000], [0, 0, 0, 0], [ 9E9, 9E9, 9E9, 9E9, 9E9, 9E9] ], v30, fine, pen\WObj:=platform;
    MoveL [ [-2.840, -5.936, 49.897], [0.030, -0.334, -0.942, 0.000], [0, 0, 0, 0], [ 9E9, 9E9, 9E9, 9E9, 9E9, 9E9] ], v1000, fine, pen\WObj:=platform;
    
    !!-5.766516753639063, -5.019300000000001;
    MoveL [ [-2.012, -13.296, 49.157], [0.091, -0.907, -0.411, 0.000], [0, 0, 0, 0], [ 9E9, 9E9, 9E9, 9E9, 9E9, 9E9] ], v1000, fine, pen\WObj:=platform;
    MoveL [ [-5.767, -5.019, -0.010], [0.091, -0.907, -0.411, 0.000], [0, 0, 0, 0], [ 9E9, 9E9, 9E9, 9E9, 9E9, 9E9] ], v30, fine, pen\WObj:=platform;
    MoveL [ [-2.012, -13.296, 49.157], [0.091, -0.907, -0.411, 0.000], [0, 0, 0, 0], [ 9E9, 9E9, 9E9, 9E9, 9E9, 9E9] ], v1000, fine, pen\WObj:=platform;
    
    !!-5.707973436343235, -5.1207;
    MoveL [ [-2.853, -5.772, 49.904], [0.029, -0.222, -0.975, 0.000], [0, 0, 0, 0], [ 9E9, 9E9, 9E9, 9E9, 9E9, 9E9] ], v1000, fine, pen\WObj:=platform;
    MoveL [ [-5.708, -5.121, -0.010], [0.029, -0.222, -0.975, 0.000], [0, 0, 0, 0], [ 9E9, 9E9, 9E9, 9E9, 9E9, 9E9] ], v30, fine, pen\WObj:=platform;
    MoveL [ [-2.853, -5.772, 49.904], [0.029, -0.222, -0.975, 0.000], [0, 0, 0, 0], [ 9E9, 9E9, 9E9, 9E9, 9E9, 9E9] ], v1000, fine, pen\WObj:=platform;
    
    !!-5.766516753639063, -5.222100000000001;
    MoveL [ [1.167, -11.275, 49.136], [0.092, -0.655, -0.750, 0.000], [0, 0, 0, 0], [ 9E9, 9E9, 9E9, 9E9, 9E9, 9E9] ], v1000, fine, pen\WObj:=platform;
    MoveL [ [-5.767, -5.222, -0.010], [0.092, -0.655, -0.750, 0.000], [0, 0, 0, 0], [ 9E9, 9E9, 9E9, 9E9, 9E9, 9E9] ], v30, fine, pen\WObj:=platform;
    MoveL [ [1.167, -11.275, 49.136], [0.092, -0.655, -0.750, 0.000], [0, 0, 0, 0], [ 9E9, 9E9, 9E9, 9E9, 9E9, 9E9] ], v1000, fine, pen\WObj:=platform;
    
    !!-5.707973436343235, -5.323500000000001;
    MoveL [ [1.166, -11.221, 49.163], [0.091, -0.648, -0.756, 0.000], [0, 0, 0, 0], [ 9E9, 9E9, 9E9, 9E9, 9E9, 9E9] ], v1000, fine, pen\WObj:=platform;
    MoveL [ [-5.708, -5.324, -0.010], [0.091, -0.648, -0.756, 0.000], [0, 0, 0, 0], [ 9E9, 9E9, 9E9, 9E9, 9E9, 9E9] ], v30, fine, pen\WObj:=platform;
    MoveL [ [1.166, -11.221, 49.163], [0.091, -0.648, -0.756, 0.000], [0, 0, 0, 0], [ 9E9, 9E9, 9E9, 9E9, 9E9, 9E9] ], v1000, fine, pen\WObj:=platform;
    
    !!-5.766516753639063, -5.424899999999999;
    MoveL [ [0.680, -5.262, 49.572], [0.065, 0.025, -0.998, 0.000], [0, 0, 0, 0], [ 9E9, 9E9, 9E9, 9E9, 9E9, 9E9] ], v1000, fine, pen\WObj:=platform;
    MoveL [ [-5.767, -5.425, -0.010], [0.065, 0.025, -0.998, 0.000], [0, 0, 0, 0], [ 9E9, 9E9, 9E9, 9E9, 9E9, 9E9] ], v30, fine, pen\WObj:=platform;
    MoveL [ [0.680, -5.262, 49.572], [0.065, 0.025, -0.998, 0.000], [0, 0, 0, 0], [ 9E9, 9E9, 9E9, 9E9, 9E9, 9E9] ], v1000, fine, pen\WObj:=platform;
    
    !!-5.707973436343235, -5.526299999999999;
    MoveL [ [1.144, -11.124, 49.201], [0.089, -0.630, -0.771, 0.000], [0, 0, 0, 0], [ 9E9, 9E9, 9E9, 9E9, 9E9, 9E9] ], v1000, fine, pen\WObj:=platform;
    MoveL [ [-5.708, -5.526, -0.010], [0.089, -0.630, -0.771, 0.000], [0, 0, 0, 0], [ 9E9, 9E9, 9E9, 9E9, 9E9, 9E9] ], v30, fine, pen\WObj:=platform;
    MoveL [ [1.144, -11.124, 49.201], [0.089, -0.630, -0.771, 0.000], [0, 0, 0, 0], [ 9E9, 9E9, 9E9, 9E9, 9E9, 9E9] ], v1000, fine, pen\WObj:=platform;
    
    !!-5.766516753639063, -5.6277;
    MoveL [ [-2.892, -5.364, 49.907], [0.029, 0.091, -0.995, 0.000], [0, 0, 0, 0], [ 9E9, 9E9, 9E9, 9E9, 9E9, 9E9] ], v1000, fine, pen\WObj:=platform;
    MoveL [ [-5.767, -5.628, -0.010], [0.029, 0.091, -0.995, 0.000], [0, 0, 0, 0], [ 9E9, 9E9, 9E9, 9E9, 9E9, 9E9] ], v30, fine, pen\WObj:=platform;
    MoveL [ [-2.892, -5.364, 49.907], [0.029, 0.091, -0.995, 0.000], [0, 0, 0, 0], [ 9E9, 9E9, 9E9, 9E9, 9E9, 9E9] ], v1000, fine, pen\WObj:=platform;
    
    !!-5.707973436343235, -5.729100000000001;
    MoveL [ [1.121, -11.026, 49.237], [0.087, -0.611, -0.787, 0.000], [0, 0, 0, 0], [ 9E9, 9E9, 9E9, 9E9, 9E9, 9E9] ], v1000, fine, pen\WObj:=platform;
    MoveL [ [-5.708, -5.729, -0.010], [0.087, -0.611, -0.787, 0.000], [0, 0, 0, 0], [ 9E9, 9E9, 9E9, 9E9, 9E9, 9E9] ], v30, fine, pen\WObj:=platform;
    MoveL [ [1.121, -11.026, 49.237], [0.087, -0.611, -0.787, 0.000], [0, 0, 0, 0], [ 9E9, 9E9, 9E9, 9E9, 9E9, 9E9] ], v1000, fine, pen\WObj:=platform;
    
    !!-5.766516753639063, -5.830500000000001;
    MoveL [ [-2.904, -5.200, 49.904], [0.029, 0.215, -0.976, 0.000], [0, 0, 0, 0], [ 9E9, 9E9, 9E9, 9E9, 9E9, 9E9] ], v1000, fine, pen\WObj:=platform;
    MoveL [ [-5.767, -5.831, -0.010], [0.029, 0.215, -0.976, 0.000], [0, 0, 0, 0], [ 9E9, 9E9, 9E9, 9E9, 9E9, 9E9] ], v30, fine, pen\WObj:=platform;
    MoveL [ [-2.904, -5.200, 49.904], [0.029, 0.215, -0.976, 0.000], [0, 0, 0, 0], [ 9E9, 9E9, 9E9, 9E9, 9E9, 9E9] ], v1000, fine, pen\WObj:=platform;
    
    !!-5.707973436343235, -5.931900000000001;
    MoveL [ [-2.174, -12.641, 49.412], [0.076, -0.882, -0.465, 0.000], [0, 0, 0, 0], [ 9E9, 9E9, 9E9, 9E9, 9E9, 9E9] ], v1000, fine, pen\WObj:=platform;
    MoveL [ [-5.708, -5.932, -0.010], [0.076, -0.882, -0.465, 0.000], [0, 0, 0, 0], [ 9E9, 9E9, 9E9, 9E9, 9E9, 9E9] ], v30, fine, pen\WObj:=platform;
    MoveL [ [-2.174, -12.641, 49.412], [0.076, -0.882, -0.465, 0.000], [0, 0, 0, 0], [ 9E9, 9E9, 9E9, 9E9, 9E9, 9E9] ], v1000, fine, pen\WObj:=platform;
    
    !!-5.766516753639063, -6.0333000000000006;
    MoveL [ [-2.916, -5.036, 49.899], [0.030, 0.330, -0.943, 0.000], [0, 0, 0, 0], [ 9E9, 9E9, 9E9, 9E9, 9E9, 9E9] ], v1000, fine, pen\WObj:=platform;
    MoveL [ [-5.767, -6.033, -0.010], [0.030, 0.330, -0.943, 0.000], [0, 0, 0, 0], [ 9E9, 9E9, 9E9, 9E9, 9E9, 9E9] ], v30, fine, pen\WObj:=platform;
    MoveL [ [-2.916, -5.036, 49.899], [0.030, 0.330, -0.943, 0.000], [0, 0, 0, 0], [ 9E9, 9E9, 9E9, 9E9, 9E9, 9E9] ], v1000, fine, pen\WObj:=platform;
    
    !!-5.707973436343235, -6.1347;
    MoveL [ [-2.212, -12.495, 49.460], [0.073, -0.874, -0.480, 0.000], [0, 0, 0, 0], [ 9E9, 9E9, 9E9, 9E9, 9E9, 9E9] ], v1000, fine, pen\WObj:=platform;
    MoveL [ [-5.708, -6.135, -0.010], [0.073, -0.874, -0.480, 0.000], [0, 0, 0, 0], [ 9E9, 9E9, 9E9, 9E9, 9E9, 9E9] ], v30, fine, pen\WObj:=platform;
    MoveL [ [-2.212, -12.495, 49.460], [0.073, -0.874, -0.480, 0.000], [0, 0, 0, 0], [ 9E9, 9E9, 9E9, 9E9, 9E9, 9E9] ], v1000, fine, pen\WObj:=platform;
    
    !!-5.766516753639063, -6.2361;
    MoveL [ [-2.238, -12.431, 49.479], [0.071, -0.867, -0.494, 0.000], [0, 0, 0, 0], [ 9E9, 9E9, 9E9, 9E9, 9E9, 9E9] ], v1000, fine, pen\WObj:=platform;
    MoveL [ [-5.767, -6.236, -0.010], [0.071, -0.867, -0.494, 0.000], [0, 0, 0, 0], [ 9E9, 9E9, 9E9, 9E9, 9E9, 9E9] ], v30, fine, pen\WObj:=platform;
    MoveL [ [-2.238, -12.431, 49.479], [0.071, -0.867, -0.494, 0.000], [0, 0, 0, 0], [ 9E9, 9E9, 9E9, 9E9, 9E9, 9E9] ], v1000, fine, pen\WObj:=platform;
    
    !!-5.707973436343235, -6.3375;
    MoveL [ [-2.250, -12.347, 49.507], [0.070, -0.865, -0.498, 0.000], [0, 0, 0, 0], [ 9E9, 9E9, 9E9, 9E9, 9E9, 9E9] ], v1000, fine, pen\WObj:=platform;
    MoveL [ [-5.708, -6.338, -0.010], [0.070, -0.865, -0.498, 0.000], [0, 0, 0, 0], [ 9E9, 9E9, 9E9, 9E9, 9E9, 9E9] ], v30, fine, pen\WObj:=platform;
    MoveL [ [-2.250, -12.347, 49.507], [0.070, -0.865, -0.498, 0.000], [0, 0, 0, 0], [ 9E9, 9E9, 9E9, 9E9, 9E9, 9E9] ], v1000, fine, pen\WObj:=platform;
    
    !!-5.766516753639063, -6.4389;
    MoveL [ [-2.938, -4.708, 49.880], [0.033, 0.522, -0.852, 0.000], [0, 0, 0, 0], [ 9E9, 9E9, 9E9, 9E9, 9E9, 9E9] ], v1000, fine, pen\WObj:=platform;
    MoveL [ [-5.767, -6.439, -0.010], [0.033, 0.522, -0.852, 0.000], [0, 0, 0, 0], [ 9E9, 9E9, 9E9, 9E9, 9E9, 9E9] ], v30, fine, pen\WObj:=platform;
    MoveL [ [-2.938, -4.708, 49.880], [0.033, 0.522, -0.852, 0.000], [0, 0, 0, 0], [ 9E9, 9E9, 9E9, 9E9, 9E9, 9E9] ], v1000, fine, pen\WObj:=platform;
    
    !!-5.707973436343235, -6.540300000000001;
    MoveL [ [-2.287, -12.198, 49.551], [0.066, -0.854, -0.516, 0.000], [0, 0, 0, 0], [ 9E9, 9E9, 9E9, 9E9, 9E9, 9E9] ], v1000, fine, pen\WObj:=platform;
    MoveL [ [-5.708, -6.540, -0.010], [0.066, -0.854, -0.516, 0.000], [0, 0, 0, 0], [ 9E9, 9E9, 9E9, 9E9, 9E9, 9E9] ], v30, fine, pen\WObj:=platform;
    MoveL [ [-2.287, -12.198, 49.551], [0.066, -0.854, -0.516, 0.000], [0, 0, 0, 0], [ 9E9, 9E9, 9E9, 9E9, 9E9, 9E9] ], v1000, fine, pen\WObj:=platform;
    
    !!-5.766516753639063, -6.641700000000002;
    MoveL [ [-6.929, -14.488, 49.357], [0.080, -0.986, 0.146, 0.000], [0, 0, 0, 0], [ 9E9, 9E9, 9E9, 9E9, 9E9, 9E9] ], v1000, fine, pen\WObj:=platform;
    MoveL [ [-5.767, -6.642, -0.010], [0.080, -0.986, 0.146, 0.000], [0, 0, 0, 0], [ 9E9, 9E9, 9E9, 9E9, 9E9, 9E9] ], v30, fine, pen\WObj:=platform;
    MoveL [ [-6.929, -14.488, 49.357], [0.080, -0.986, 0.146, 0.000], [0, 0, 0, 0], [ 9E9, 9E9, 9E9, 9E9, 9E9, 9E9] ], v1000, fine, pen\WObj:=platform;
    
    !!-5.649430119047407, 0.05070000000000019;
    MoveL [ [-4.608, -20.361, 45.622], [0.209, -0.977, -0.050, 0.000], [0, 0, 0, 0], [ 9E9, 9E9, 9E9, 9E9, 9E9, 9E9] ], v1000, fine, pen\WObj:=platform;
    MoveL [ [-5.649, 0.051, -0.010], [0.209, -0.977, -0.050, 0.000], [0, 0, 0, 0], [ 9E9, 9E9, 9E9, 9E9, 9E9, 9E9] ], v30, fine, pen\WObj:=platform;
    MoveL [ [-4.608, -20.361, 45.622], [0.209, -0.977, -0.050, 0.000], [0, 0, 0, 0], [ 9E9, 9E9, 9E9, 9E9, 9E9, 9E9] ], v1000, fine, pen\WObj:=platform;
    
    !!-5.59088680175158, -0.050699999999999634;
    MoveL [ [-4.636, -20.283, 45.704], [0.207, -0.977, -0.046, 0.000], [0, 0, 0, 0], [ 9E9, 9E9, 9E9, 9E9, 9E9, 9E9] ], v1000, fine, pen\WObj:=platform;
    MoveL [ [-5.591, -0.051, -0.010], [0.207, -0.977, -0.046, 0.000], [0, 0, 0, 0], [ 9E9, 9E9, 9E9, 9E9, 9E9, 9E9] ], v30, fine, pen\WObj:=platform;
    MoveL [ [-4.636, -20.283, 45.704], [0.207, -0.977, -0.046, 0.000], [0, 0, 0, 0], [ 9E9, 9E9, 9E9, 9E9, 9E9, 9E9] ], v1000, fine, pen\WObj:=platform;
    
    !!-5.649430119047407, -0.1521;
    MoveL [ [-4.676, -20.235, 45.769], [0.205, -0.978, -0.047, 0.000], [0, 0, 0, 0], [ 9E9, 9E9, 9E9, 9E9, 9E9, 9E9] ], v1000, fine, pen\WObj:=platform;
    MoveL [ [-5.649, -0.152, -0.010], [0.205, -0.978, -0.047, 0.000], [0, 0, 0, 0], [ 9E9, 9E9, 9E9, 9E9, 9E9, 9E9] ], v30, fine, pen\WObj:=platform;
    MoveL [ [-4.676, -20.235, 45.769], [0.205, -0.978, -0.047, 0.000], [0, 0, 0, 0], [ 9E9, 9E9, 9E9, 9E9, 9E9, 9E9] ], v1000, fine, pen\WObj:=platform;
    
    !!-5.59088680175158, -0.2534999999999993;
    MoveL [ [-4.704, -20.154, 45.850], [0.203, -0.978, -0.044, 0.000], [0, 0, 0, 0], [ 9E9, 9E9, 9E9, 9E9, 9E9, 9E9] ], v1000, fine, pen\WObj:=platform;
    MoveL [ [-5.591, -0.253, -0.010], [0.203, -0.978, -0.044, 0.000], [0, 0, 0, 0], [ 9E9, 9E9, 9E9, 9E9, 9E9, 9E9] ], v30, fine, pen\WObj:=platform;
    MoveL [ [-4.704, -20.154, 45.850], [0.203, -0.978, -0.044, 0.000], [0, 0, 0, 0], [ 9E9, 9E9, 9E9, 9E9, 9E9, 9E9] ], v1000, fine, pen\WObj:=platform;
    
    !!-5.649430119047407, -0.35489999999999966;
    MoveL [ [-4.744, -20.104, 45.915], [0.202, -0.978, -0.045, 0.000], [0, 0, 0, 0], [ 9E9, 9E9, 9E9, 9E9, 9E9, 9E9] ], v1000, fine, pen\WObj:=platform;
    MoveL [ [-5.649, -0.355, -0.010], [0.202, -0.978, -0.045, 0.000], [0, 0, 0, 0], [ 9E9, 9E9, 9E9, 9E9, 9E9, 9E9] ], v30, fine, pen\WObj:=platform;
    MoveL [ [-4.744, -20.104, 45.915], [0.202, -0.978, -0.045, 0.000], [0, 0, 0, 0], [ 9E9, 9E9, 9E9, 9E9, 9E9, 9E9] ], v1000, fine, pen\WObj:=platform;
    
    !!-5.59088680175158, -0.4562999999999995;
    MoveL [ [-4.773, -20.022, 45.996], [0.200, -0.979, -0.041, 0.000], [0, 0, 0, 0], [ 9E9, 9E9, 9E9, 9E9, 9E9, 9E9] ], v1000, fine, pen\WObj:=platform;
    MoveL [ [-5.591, -0.456, -0.010], [0.200, -0.979, -0.041, 0.000], [0, 0, 0, 0], [ 9E9, 9E9, 9E9, 9E9, 9E9, 9E9] ], v30, fine, pen\WObj:=platform;
    MoveL [ [-4.773, -20.022, 45.996], [0.200, -0.979, -0.041, 0.000], [0, 0, 0, 0], [ 9E9, 9E9, 9E9, 9E9, 9E9, 9E9] ], v1000, fine, pen\WObj:=platform;
    
    !!-5.649430119047407, -0.5576999999999999;
    MoveL [ [-4.813, -19.971, 46.060], [0.198, -0.979, -0.042, 0.000], [0, 0, 0, 0], [ 9E9, 9E9, 9E9, 9E9, 9E9, 9E9] ], v1000, fine, pen\WObj:=platform;
    MoveL [ [-5.649, -0.558, -0.010], [0.198, -0.979, -0.042, 0.000], [0, 0, 0, 0], [ 9E9, 9E9, 9E9, 9E9, 9E9, 9E9] ], v30, fine, pen\WObj:=platform;
    MoveL [ [-4.813, -19.971, 46.060], [0.198, -0.979, -0.042, 0.000], [0, 0, 0, 0], [ 9E9, 9E9, 9E9, 9E9, 9E9, 9E9] ], v1000, fine, pen\WObj:=platform;
    
    !!-5.59088680175158, -0.6590999999999997;
    MoveL [ [-4.842, -19.886, 46.139], [0.196, -0.980, -0.038, 0.000], [0, 0, 0, 0], [ 9E9, 9E9, 9E9, 9E9, 9E9, 9E9] ], v1000, fine, pen\WObj:=platform;
    MoveL [ [-5.591, -0.659, -0.010], [0.196, -0.980, -0.038, 0.000], [0, 0, 0, 0], [ 9E9, 9E9, 9E9, 9E9, 9E9, 9E9] ], v30, fine, pen\WObj:=platform;
    MoveL [ [-4.842, -19.886, 46.139], [0.196, -0.980, -0.038, 0.000], [0, 0, 0, 0], [ 9E9, 9E9, 9E9, 9E9, 9E9, 9E9] ], v1000, fine, pen\WObj:=platform;
    
    !!-5.649430119047407, -0.7605000000000001;
    MoveL [ [-4.882, -19.833, 46.203], [0.195, -0.980, -0.039, 0.000], [0, 0, 0, 0], [ 9E9, 9E9, 9E9, 9E9, 9E9, 9E9] ], v1000, fine, pen\WObj:=platform;
    MoveL [ [-5.649, -0.761, -0.010], [0.195, -0.980, -0.039, 0.000], [0, 0, 0, 0], [ 9E9, 9E9, 9E9, 9E9, 9E9, 9E9] ], v30, fine, pen\WObj:=platform;
    MoveL [ [-4.882, -19.833, 46.203], [0.195, -0.980, -0.039, 0.000], [0, 0, 0, 0], [ 9E9, 9E9, 9E9, 9E9, 9E9, 9E9] ], v1000, fine, pen\WObj:=platform;
    
    !!-5.59088680175158, -0.8618999999999997;
    MoveL [ [-4.911, -19.747, 46.281], [0.193, -0.981, -0.035, 0.000], [0, 0, 0, 0], [ 9E9, 9E9, 9E9, 9E9, 9E9, 9E9] ], v1000, fine, pen\WObj:=platform;
    MoveL [ [-5.591, -0.862, -0.010], [0.193, -0.981, -0.035, 0.000], [0, 0, 0, 0], [ 9E9, 9E9, 9E9, 9E9, 9E9, 9E9] ], v30, fine, pen\WObj:=platform;
    MoveL [ [-4.911, -19.747, 46.281], [0.193, -0.981, -0.035, 0.000], [0, 0, 0, 0], [ 9E9, 9E9, 9E9, 9E9, 9E9, 9E9] ], v1000, fine, pen\WObj:=platform;
    
    !!-5.649430119047407, -0.9633;
    MoveL [ [-4.951, -19.693, 46.344], [0.191, -0.981, -0.037, 0.000], [0, 0, 0, 0], [ 9E9, 9E9, 9E9, 9E9, 9E9, 9E9] ], v1000, fine, pen\WObj:=platform;
    MoveL [ [-5.649, -0.963, -0.010], [0.191, -0.981, -0.037, 0.000], [0, 0, 0, 0], [ 9E9, 9E9, 9E9, 9E9, 9E9, 9E9] ], v30, fine, pen\WObj:=platform;
    MoveL [ [-4.951, -19.693, 46.344], [0.191, -0.981, -0.037, 0.000], [0, 0, 0, 0], [ 9E9, 9E9, 9E9, 9E9, 9E9, 9E9] ], v1000, fine, pen\WObj:=platform;
    
    !!-5.59088680175158, -1.0646999999999995;
    MoveL [ [-4.980, -19.605, 46.422], [0.189, -0.981, -0.032, 0.000], [0, 0, 0, 0], [ 9E9, 9E9, 9E9, 9E9, 9E9, 9E9] ], v1000, fine, pen\WObj:=platform;
    MoveL [ [-5.591, -1.065, -0.010], [0.189, -0.981, -0.032, 0.000], [0, 0, 0, 0], [ 9E9, 9E9, 9E9, 9E9, 9E9, 9E9] ], v30, fine, pen\WObj:=platform;
    MoveL [ [-4.980, -19.605, 46.422], [0.189, -0.981, -0.032, 0.000], [0, 0, 0, 0], [ 9E9, 9E9, 9E9, 9E9, 9E9, 9E9] ], v1000, fine, pen\WObj:=platform;
    
    !!-5.649430119047407, -1.1660999999999992;
    MoveL [ [-5.021, -19.549, 46.484], [0.187, -0.982, -0.034, 0.000], [0, 0, 0, 0], [ 9E9, 9E9, 9E9, 9E9, 9E9, 9E9] ], v1000, fine, pen\WObj:=platform;
    MoveL [ [-5.649, -1.166, -0.010], [0.187, -0.982, -0.034, 0.000], [0, 0, 0, 0], [ 9E9, 9E9, 9E9, 9E9, 9E9, 9E9] ], v30, fine, pen\WObj:=platform;
    MoveL [ [-5.021, -19.549, 46.484], [0.187, -0.982, -0.034, 0.000], [0, 0, 0, 0], [ 9E9, 9E9, 9E9, 9E9, 9E9, 9E9] ], v1000, fine, pen\WObj:=platform;
    
    !!-5.59088680175158, -1.2674999999999996;
    MoveL [ [0.860, -7.420, 49.189], [0.089, -0.687, -0.721, 0.000], [0, 0, 0, 0], [ 9E9, 9E9, 9E9, 9E9, 9E9, 9E9] ], v1000, fine, pen\WObj:=platform;
    MoveL [ [-5.591, -1.267, -0.010], [0.089, -0.687, -0.721, 0.000], [0, 0, 0, 0], [ 9E9, 9E9, 9E9, 9E9, 9E9, 9E9] ], v30, fine, pen\WObj:=platform;
    MoveL [ [0.860, -7.420, 49.189], [0.089, -0.687, -0.721, 0.000], [0, 0, 0, 0], [ 9E9, 9E9, 9E9, 9E9, 9E9, 9E9] ], v1000, fine, pen\WObj:=platform;
    
    !!-5.649430119047407, -1.3689;
    MoveL [ [-5.091, -19.401, 46.622], [0.184, -0.983, -0.030, 0.000], [0, 0, 0, 0], [ 9E9, 9E9, 9E9, 9E9, 9E9, 9E9] ], v1000, fine, pen\WObj:=platform;
    MoveL [ [-5.649, -1.369, -0.010], [0.184, -0.983, -0.030, 0.000], [0, 0, 0, 0], [ 9E9, 9E9, 9E9, 9E9, 9E9, 9E9] ], v30, fine, pen\WObj:=platform;
    MoveL [ [-5.091, -19.401, 46.622], [0.184, -0.983, -0.030, 0.000], [0, 0, 0, 0], [ 9E9, 9E9, 9E9, 9E9, 9E9, 9E9] ], v1000, fine, pen\WObj:=platform;
    
    !!-5.59088680175158, -1.4702999999999997;
    MoveL [ [-5.120, -19.309, 46.697], [0.181, -0.983, -0.026, 0.000], [0, 0, 0, 0], [ 9E9, 9E9, 9E9, 9E9, 9E9, 9E9] ], v1000, fine, pen\WObj:=platform;
    MoveL [ [-5.591, -1.470, -0.010], [0.181, -0.983, -0.026, 0.000], [0, 0, 0, 0], [ 9E9, 9E9, 9E9, 9E9, 9E9, 9E9] ], v30, fine, pen\WObj:=platform;
    MoveL [ [-5.120, -19.309, 46.697], [0.181, -0.983, -0.026, 0.000], [0, 0, 0, 0], [ 9E9, 9E9, 9E9, 9E9, 9E9, 9E9] ], v1000, fine, pen\WObj:=platform;
    
    !!-5.649430119047407, -1.5717;
    MoveL [ [-5.161, -19.250, 46.758], [0.180, -0.983, -0.027, 0.000], [0, 0, 0, 0], [ 9E9, 9E9, 9E9, 9E9, 9E9, 9E9] ], v1000, fine, pen\WObj:=platform;
    MoveL [ [-5.649, -1.572, -0.010], [0.180, -0.983, -0.027, 0.000], [0, 0, 0, 0], [ 9E9, 9E9, 9E9, 9E9, 9E9, 9E9] ], v30, fine, pen\WObj:=platform;
    MoveL [ [-5.161, -19.250, 46.758], [0.180, -0.983, -0.027, 0.000], [0, 0, 0, 0], [ 9E9, 9E9, 9E9, 9E9, 9E9, 9E9] ], v1000, fine, pen\WObj:=platform;
    
    !!-5.59088680175158, -1.6730999999999998;
    MoveL [ [-5.190, -19.156, 46.832], [0.178, -0.984, -0.023, 0.000], [0, 0, 0, 0], [ 9E9, 9E9, 9E9, 9E9, 9E9, 9E9] ], v1000, fine, pen\WObj:=platform;
    MoveL [ [-5.591, -1.673, -0.010], [0.178, -0.984, -0.023, 0.000], [0, 0, 0, 0], [ 9E9, 9E9, 9E9, 9E9, 9E9, 9E9] ], v30, fine, pen\WObj:=platform;
    MoveL [ [-5.190, -19.156, 46.832], [0.178, -0.984, -0.023, 0.000], [0, 0, 0, 0], [ 9E9, 9E9, 9E9, 9E9, 9E9, 9E9] ], v1000, fine, pen\WObj:=platform;
    
    !!-5.649430119047407, -1.7745000000000002;
    MoveL [ [-5.231, -19.095, 46.892], [0.176, -0.984, -0.024, 0.000], [0, 0, 0, 0], [ 9E9, 9E9, 9E9, 9E9, 9E9, 9E9] ], v1000, fine, pen\WObj:=platform;
    MoveL [ [-5.649, -1.775, -0.010], [0.176, -0.984, -0.024, 0.000], [0, 0, 0, 0], [ 9E9, 9E9, 9E9, 9E9, 9E9, 9E9] ], v30, fine, pen\WObj:=platform;
    MoveL [ [-5.231, -19.095, 46.892], [0.176, -0.984, -0.024, 0.000], [0, 0, 0, 0], [ 9E9, 9E9, 9E9, 9E9, 9E9, 9E9] ], v1000, fine, pen\WObj:=platform;
    
    !!-5.59088680175158, -1.8758999999999997;
    MoveL [ [-5.260, -19.000, 46.965], [0.174, -0.985, -0.019, 0.000], [0, 0, 0, 0], [ 9E9, 9E9, 9E9, 9E9, 9E9, 9E9] ], v1000, fine, pen\WObj:=platform;
    MoveL [ [-5.591, -1.876, -0.010], [0.174, -0.985, -0.019, 0.000], [0, 0, 0, 0], [ 9E9, 9E9, 9E9, 9E9, 9E9, 9E9] ], v30, fine, pen\WObj:=platform;
    MoveL [ [-5.260, -19.000, 46.965], [0.174, -0.985, -0.019, 0.000], [0, 0, 0, 0], [ 9E9, 9E9, 9E9, 9E9, 9E9, 9E9] ], v1000, fine, pen\WObj:=platform;
    
    !!-5.649430119047407, -1.9773;
    MoveL [ [-5.302, -18.938, 47.024], [0.172, -0.985, -0.020, 0.000], [0, 0, 0, 0], [ 9E9, 9E9, 9E9, 9E9, 9E9, 9E9] ], v1000, fine, pen\WObj:=platform;
    MoveL [ [-5.649, -1.977, -0.010], [0.172, -0.985, -0.020, 0.000], [0, 0, 0, 0], [ 9E9, 9E9, 9E9, 9E9, 9E9, 9E9] ], v30, fine, pen\WObj:=platform;
    MoveL [ [-5.302, -18.938, 47.024], [0.172, -0.985, -0.020, 0.000], [0, 0, 0, 0], [ 9E9, 9E9, 9E9, 9E9, 9E9, 9E9] ], v1000, fine, pen\WObj:=platform;
    
    !!-5.59088680175158, -2.0786999999999995;
    MoveL [ [-5.331, -18.841, 47.096], [0.170, -0.985, -0.015, 0.000], [0, 0, 0, 0], [ 9E9, 9E9, 9E9, 9E9, 9E9, 9E9] ], v1000, fine, pen\WObj:=platform;
    MoveL [ [-5.591, -2.079, -0.010], [0.170, -0.985, -0.015, 0.000], [0, 0, 0, 0], [ 9E9, 9E9, 9E9, 9E9, 9E9, 9E9] ], v30, fine, pen\WObj:=platform;
    MoveL [ [-5.331, -18.841, 47.096], [0.170, -0.985, -0.015, 0.000], [0, 0, 0, 0], [ 9E9, 9E9, 9E9, 9E9, 9E9, 9E9] ], v1000, fine, pen\WObj:=platform;
    
    !!-5.649430119047407, -2.1801000000000004;
    MoveL [ [-5.373, -18.776, 47.154], [0.168, -0.986, -0.016, 0.000], [0, 0, 0, 0], [ 9E9, 9E9, 9E9, 9E9, 9E9, 9E9] ], v1000, fine, pen\WObj:=platform;
    MoveL [ [-5.649, -2.180, -0.010], [0.168, -0.986, -0.016, 0.000], [0, 0, 0, 0], [ 9E9, 9E9, 9E9, 9E9, 9E9, 9E9] ], v30, fine, pen\WObj:=platform;
    MoveL [ [-5.373, -18.776, 47.154], [0.168, -0.986, -0.016, 0.000], [0, 0, 0, 0], [ 9E9, 9E9, 9E9, 9E9, 9E9, 9E9] ], v1000, fine, pen\WObj:=platform;
    
    !!-5.59088680175158, -2.2815;
    MoveL [ [-5.402, -18.678, 47.225], [0.166, -0.986, -0.011, 0.000], [0, 0, 0, 0], [ 9E9, 9E9, 9E9, 9E9, 9E9, 9E9] ], v1000, fine, pen\WObj:=platform;
    MoveL [ [-5.591, -2.281, -0.010], [0.166, -0.986, -0.011, 0.000], [0, 0, 0, 0], [ 9E9, 9E9, 9E9, 9E9, 9E9, 9E9] ], v30, fine, pen\WObj:=platform;
    MoveL [ [-5.402, -18.678, 47.225], [0.166, -0.986, -0.011, 0.000], [0, 0, 0, 0], [ 9E9, 9E9, 9E9, 9E9, 9E9, 9E9] ], v1000, fine, pen\WObj:=platform;
    
    !!-5.649430119047407, -2.3828999999999994;
    MoveL [ [-7.563, -9.665, 49.420], [0.076, -0.964, 0.253, 0.000], [0, 0, 0, 0], [ 9E9, 9E9, 9E9, 9E9, 9E9, 9E9] ], v1000, fine, pen\WObj:=platform;
    MoveL [ [-5.649, -2.383, -0.010], [0.076, -0.964, 0.253, 0.000], [0, 0, 0, 0], [ 9E9, 9E9, 9E9, 9E9, 9E9, 9E9] ], v30, fine, pen\WObj:=platform;
    MoveL [ [-7.563, -9.665, 49.420], [0.076, -0.964, 0.253, 0.000], [0, 0, 0, 0], [ 9E9, 9E9, 9E9, 9E9, 9E9, 9E9] ], v1000, fine, pen\WObj:=platform;
    
    !!-5.59088680175158, -2.4842999999999997;
    MoveL [ [-5.473, -18.511, 47.352], [0.162, -0.987, -0.007, 0.000], [0, 0, 0, 0], [ 9E9, 9E9, 9E9, 9E9, 9E9, 9E9] ], v1000, fine, pen\WObj:=platform;
    MoveL [ [-5.591, -2.484, -0.010], [0.162, -0.987, -0.007, 0.000], [0, 0, 0, 0], [ 9E9, 9E9, 9E9, 9E9, 9E9, 9E9] ], v30, fine, pen\WObj:=platform;
    MoveL [ [-5.473, -18.511, 47.352], [0.162, -0.987, -0.007, 0.000], [0, 0, 0, 0], [ 9E9, 9E9, 9E9, 9E9, 9E9, 9E9] ], v1000, fine, pen\WObj:=platform;
    
    !!-5.649430119047407, -2.5857;
    MoveL [ [-2.672, -7.788, 49.629], [0.060, -0.866, -0.496, 0.000], [0, 0, 0, 0], [ 9E9, 9E9, 9E9, 9E9, 9E9, 9E9] ], v1000, fine, pen\WObj:=platform;
    MoveL [ [-5.649, -2.586, -0.010], [0.060, -0.866, -0.496, 0.000], [0, 0, 0, 0], [ 9E9, 9E9, 9E9, 9E9, 9E9, 9E9] ], v30, fine, pen\WObj:=platform;
    MoveL [ [-2.672, -7.788, 49.629], [0.060, -0.866, -0.496, 0.000], [0, 0, 0, 0], [ 9E9, 9E9, 9E9, 9E9, 9E9, 9E9] ], v1000, fine, pen\WObj:=platform;
    
    !!-5.59088680175158, -2.6871;
    MoveL [ [-5.544, -18.342, 47.476], [0.159, -0.987, -0.003, 0.000], [0, 0, 0, 0], [ 9E9, 9E9, 9E9, 9E9, 9E9, 9E9] ], v1000, fine, pen\WObj:=platform;
    MoveL [ [-5.591, -2.687, -0.010], [0.159, -0.987, -0.003, 0.000], [0, 0, 0, 0], [ 9E9, 9E9, 9E9, 9E9, 9E9, 9E9] ], v30, fine, pen\WObj:=platform;
    MoveL [ [-5.544, -18.342, 47.476], [0.159, -0.987, -0.003, 0.000], [0, 0, 0, 0], [ 9E9, 9E9, 9E9, 9E9, 9E9, 9E9] ], v1000, fine, pen\WObj:=platform;
    
    !!-5.649430119047407, -2.7885;
    MoveL [ [-1.590, -14.732, 48.373], [0.127, -0.939, -0.319, 0.000], [0, 0, 0, 0], [ 9E9, 9E9, 9E9, 9E9, 9E9, 9E9] ], v1000, fine, pen\WObj:=platform;
    MoveL [ [-5.649, -2.788, -0.010], [0.127, -0.939, -0.319, 0.000], [0, 0, 0, 0], [ 9E9, 9E9, 9E9, 9E9, 9E9, 9E9] ], v30, fine, pen\WObj:=platform;
    MoveL [ [-1.590, -14.732, 48.373], [0.127, -0.939, -0.319, 0.000], [0, 0, 0, 0], [ 9E9, 9E9, 9E9, 9E9, 9E9, 9E9] ], v1000, fine, pen\WObj:=platform;
    
    !!-5.59088680175158, -2.8899000000000004;
    MoveL [ [-1.601, -14.661, 48.421], [0.125, -0.940, -0.319, 0.000], [0, 0, 0, 0], [ 9E9, 9E9, 9E9, 9E9, 9E9, 9E9] ], v1000, fine, pen\WObj:=platform;
    MoveL [ [-5.591, -2.890, -0.010], [0.125, -0.940, -0.319, 0.000], [0, 0, 0, 0], [ 9E9, 9E9, 9E9, 9E9, 9E9, 9E9] ], v30, fine, pen\WObj:=platform;
    MoveL [ [-1.601, -14.661, 48.421], [0.125, -0.940, -0.319, 0.000], [0, 0, 0, 0], [ 9E9, 9E9, 9E9, 9E9, 9E9, 9E9] ], v1000, fine, pen\WObj:=platform;
    
    !!-5.649430119047407, -2.9913000000000007;
    MoveL [ [-1.626, -14.608, 48.455], [0.124, -0.938, -0.325, 0.000], [0, 0, 0, 0], [ 9E9, 9E9, 9E9, 9E9, 9E9, 9E9] ], v1000, fine, pen\WObj:=platform;
    MoveL [ [-5.649, -2.991, -0.010], [0.124, -0.938, -0.325, 0.000], [0, 0, 0, 0], [ 9E9, 9E9, 9E9, 9E9, 9E9, 9E9] ], v30, fine, pen\WObj:=platform;
    MoveL [ [-1.626, -14.608, 48.455], [0.124, -0.938, -0.325, 0.000], [0, 0, 0, 0], [ 9E9, 9E9, 9E9, 9E9, 9E9, 9E9] ], v1000, fine, pen\WObj:=platform;
    
    !!-5.59088680175158, -3.0926999999999993;
    MoveL [ [-1.637, -14.536, 48.502], [0.122, -0.938, -0.324, 0.000], [0, 0, 0, 0], [ 9E9, 9E9, 9E9, 9E9, 9E9, 9E9] ], v1000, fine, pen\WObj:=platform;
    MoveL [ [-5.591, -3.093, -0.010], [0.122, -0.938, -0.324, 0.000], [0, 0, 0, 0], [ 9E9, 9E9, 9E9, 9E9, 9E9, 9E9] ], v30, fine, pen\WObj:=platform;
    MoveL [ [-1.637, -14.536, 48.502], [0.122, -0.938, -0.324, 0.000], [0, 0, 0, 0], [ 9E9, 9E9, 9E9, 9E9, 9E9, 9E9] ], v1000, fine, pen\WObj:=platform;
    
    !!-5.649430119047407, -3.1940999999999997;
    MoveL [ [-2.716, -7.312, 49.734], [0.051, -0.813, -0.579, 0.000], [0, 0, 0, 0], [ 9E9, 9E9, 9E9, 9E9, 9E9, 9E9] ], v1000, fine, pen\WObj:=platform;
    MoveL [ [-5.649, -3.194, -0.010], [0.051, -0.813, -0.579, 0.000], [0, 0, 0, 0], [ 9E9, 9E9, 9E9, 9E9, 9E9, 9E9] ], v30, fine, pen\WObj:=platform;
    MoveL [ [-2.716, -7.312, 49.734], [0.051, -0.813, -0.579, 0.000], [0, 0, 0, 0], [ 9E9, 9E9, 9E9, 9E9, 9E9, 9E9] ], v1000, fine, pen\WObj:=platform;
    
    !!-5.59088680175158, -3.2955;
    MoveL [ [-2.715, -7.228, 49.752], [0.049, -0.806, -0.590, 0.000], [0, 0, 0, 0], [ 9E9, 9E9, 9E9, 9E9, 9E9, 9E9] ], v1000, fine, pen\WObj:=platform;
    MoveL [ [-5.591, -3.296, -0.010], [0.049, -0.806, -0.590, 0.000], [0, 0, 0, 0], [ 9E9, 9E9, 9E9, 9E9, 9E9, 9E9] ], v30, fine, pen\WObj:=platform;
    MoveL [ [-2.715, -7.228, 49.752], [0.049, -0.806, -0.590, 0.000], [0, 0, 0, 0], [ 9E9, 9E9, 9E9, 9E9, 9E9, 9E9] ], v1000, fine, pen\WObj:=platform;
    
    !!-5.649430119047407, -3.3969000000000005;
    MoveL [ [1.374, -12.098, 48.724], [0.113, -0.773, -0.624, 0.000], [0, 0, 0, 0], [ 9E9, 9E9, 9E9, 9E9, 9E9, 9E9] ], v1000, fine, pen\WObj:=platform;
    MoveL [ [-5.649, -3.397, -0.010], [0.113, -0.773, -0.624, 0.000], [0, 0, 0, 0], [ 9E9, 9E9, 9E9, 9E9, 9E9, 9E9] ], v30, fine, pen\WObj:=platform;
    MoveL [ [1.374, -12.098, 48.724], [0.113, -0.773, -0.624, 0.000], [0, 0, 0, 0], [ 9E9, 9E9, 9E9, 9E9, 9E9, 9E9] ], v1000, fine, pen\WObj:=platform;
    
    !!-5.59088680175158, -3.498300000000001;
    MoveL [ [1.375, -12.048, 48.759], [0.111, -0.770, -0.628, 0.000], [0, 0, 0, 0], [ 9E9, 9E9, 9E9, 9E9, 9E9, 9E9] ], v1000, fine, pen\WObj:=platform;
    MoveL [ [-5.591, -3.498, -0.010], [0.111, -0.770, -0.628, 0.000], [0, 0, 0, 0], [ 9E9, 9E9, 9E9, 9E9, 9E9, 9E9] ], v30, fine, pen\WObj:=platform;
    MoveL [ [1.375, -12.048, 48.759], [0.111, -0.770, -0.628, 0.000], [0, 0, 0, 0], [ 9E9, 9E9, 9E9, 9E9, 9E9, 9E9] ], v1000, fine, pen\WObj:=platform;
    
    !!-5.649430119047407, -3.5996999999999995;
    MoveL [ [-2.745, -6.990, 49.790], [0.045, -0.759, -0.650, 0.000], [0, 0, 0, 0], [ 9E9, 9E9, 9E9, 9E9, 9E9, 9E9] ], v1000, fine, pen\WObj:=platform;
    MoveL [ [-5.649, -3.600, -0.010], [0.045, -0.759, -0.650, 0.000], [0, 0, 0, 0], [ 9E9, 9E9, 9E9, 9E9, 9E9, 9E9] ], v30, fine, pen\WObj:=platform;
    MoveL [ [-2.745, -6.990, 49.790], [0.045, -0.759, -0.650, 0.000], [0, 0, 0, 0], [ 9E9, 9E9, 9E9, 9E9, 9E9, 9E9] ], v1000, fine, pen\WObj:=platform;
    
    !!-5.59088680175158, -3.701099999999999;
    MoveL [ [1.355, -11.958, 48.812], [0.109, -0.761, -0.640, 0.000], [0, 0, 0, 0], [ 9E9, 9E9, 9E9, 9E9, 9E9, 9E9] ], v1000, fine, pen\WObj:=platform;
    MoveL [ [-5.591, -3.701, -0.010], [0.109, -0.761, -0.640, 0.000], [0, 0, 0, 0], [ 9E9, 9E9, 9E9, 9E9, 9E9, 9E9] ], v30, fine, pen\WObj:=platform;
    MoveL [ [1.355, -11.958, 48.812], [0.109, -0.761, -0.640, 0.000], [0, 0, 0, 0], [ 9E9, 9E9, 9E9, 9E9, 9E9, 9E9] ], v1000, fine, pen\WObj:=platform;
    
    !!-5.649430119047407, -3.8024999999999993;
    MoveL [ [3.270, -5.640, 49.154], [0.091, -0.201, -0.975, 0.000], [0, 0, 0, 0], [ 9E9, 9E9, 9E9, 9E9, 9E9, 9E9] ], v1000, fine, pen\WObj:=platform;
    MoveL [ [-5.649, -3.802, -0.010], [0.091, -0.201, -0.975, 0.000], [0, 0, 0, 0], [ 9E9, 9E9, 9E9, 9E9, 9E9, 9E9] ], v30, fine, pen\WObj:=platform;
    MoveL [ [3.270, -5.640, 49.154], [0.091, -0.201, -0.975, 0.000], [0, 0, 0, 0], [ 9E9, 9E9, 9E9, 9E9, 9E9, 9E9] ], v1000, fine, pen\WObj:=platform;
    
    !!-5.59088680175158, -3.9038999999999997;
    MoveL [ [3.629, -10.384, 48.703], [0.113, -0.571, -0.813, 0.000], [0, 0, 0, 0], [ 9E9, 9E9, 9E9, 9E9, 9E9, 9E9] ], v1000, fine, pen\WObj:=platform;
    MoveL [ [-5.591, -3.904, -0.010], [0.113, -0.571, -0.813, 0.000], [0, 0, 0, 0], [ 9E9, 9E9, 9E9, 9E9, 9E9, 9E9] ], v30, fine, pen\WObj:=platform;
    MoveL [ [3.629, -10.384, 48.703], [0.113, -0.571, -0.813, 0.000], [0, 0, 0, 0], [ 9E9, 9E9, 9E9, 9E9, 9E9, 9E9] ], v1000, fine, pen\WObj:=platform;
    
    !!-5.649430119047407, -4.0053;
    MoveL [ [0.759, -6.011, 49.537], [0.067, -0.298, -0.952, 0.000], [0, 0, 0, 0], [ 9E9, 9E9, 9E9, 9E9, 9E9, 9E9] ], v1000, fine, pen\WObj:=platform;
    MoveL [ [-5.649, -4.005, -0.010], [0.067, -0.298, -0.952, 0.000], [0, 0, 0, 0], [ 9E9, 9E9, 9E9, 9E9, 9E9, 9E9] ], v30, fine, pen\WObj:=platform;
    MoveL [ [0.759, -6.011, 49.537], [0.067, -0.298, -0.952, 0.000], [0, 0, 0, 0], [ 9E9, 9E9, 9E9, 9E9, 9E9, 9E9] ], v1000, fine, pen\WObj:=platform;
    
    !!-5.59088680175158, -4.1067;
    MoveL [ [1.314, -11.775, 48.914], [0.104, -0.739, -0.666, 0.000], [0, 0, 0, 0], [ 9E9, 9E9, 9E9, 9E9, 9E9, 9E9] ], v1000, fine, pen\WObj:=platform;
    MoveL [ [-5.591, -4.107, -0.010], [0.104, -0.739, -0.666, 0.000], [0, 0, 0, 0], [ 9E9, 9E9, 9E9, 9E9, 9E9, 9E9] ], v30, fine, pen\WObj:=platform;
    MoveL [ [1.314, -11.775, 48.914], [0.104, -0.739, -0.666, 0.000], [0, 0, 0, 0], [ 9E9, 9E9, 9E9, 9E9, 9E9, 9E9] ], v1000, fine, pen\WObj:=platform;
    
    !!-5.649430119047407, -4.208100000000001;
    MoveL [ [1.294, -11.735, 48.930], [0.103, -0.731, -0.674, 0.000], [0, 0, 0, 0], [ 9E9, 9E9, 9E9, 9E9, 9E9, 9E9] ], v1000, fine, pen\WObj:=platform;
    MoveL [ [-5.649, -4.208, -0.010], [0.103, -0.731, -0.674, 0.000], [0, 0, 0, 0], [ 9E9, 9E9, 9E9, 9E9, 9E9, 9E9] ], v30, fine, pen\WObj:=platform;
    MoveL [ [1.294, -11.735, 48.930], [0.103, -0.731, -0.674, 0.000], [0, 0, 0, 0], [ 9E9, 9E9, 9E9, 9E9, 9E9, 9E9] ], v1000, fine, pen\WObj:=platform;
    
    !!-5.59088680175158, -4.3095;
    MoveL [ [0.758, -5.848, 49.561], [0.065, -0.235, -0.970, 0.000], [0, 0, 0, 0], [ 9E9, 9E9, 9E9, 9E9, 9E9, 9E9] ], v1000, fine, pen\WObj:=platform;
    MoveL [ [-5.591, -4.309, -0.010], [0.065, -0.235, -0.970, 0.000], [0, 0, 0, 0], [ 9E9, 9E9, 9E9, 9E9, 9E9, 9E9] ], v30, fine, pen\WObj:=platform;
    MoveL [ [0.758, -5.848, 49.561], [0.065, -0.235, -0.970, 0.000], [0, 0, 0, 0], [ 9E9, 9E9, 9E9, 9E9, 9E9, 9E9] ], v1000, fine, pen\WObj:=platform;
    
    !!-5.649430119047407, -4.4109;
    MoveL [ [-1.885, -13.692, 48.977], [0.101, -0.922, -0.374, 0.000], [0, 0, 0, 0], [ 9E9, 9E9, 9E9, 9E9, 9E9, 9E9] ], v1000, fine, pen\WObj:=platform;
    MoveL [ [-5.649, -4.411, -0.010], [0.101, -0.922, -0.374, 0.000], [0, 0, 0, 0], [ 9E9, 9E9, 9E9, 9E9, 9E9, 9E9] ], v30, fine, pen\WObj:=platform;
    MoveL [ [-1.885, -13.692, 48.977], [0.101, -0.922, -0.374, 0.000], [0, 0, 0, 0], [ 9E9, 9E9, 9E9, 9E9, 9E9, 9E9] ], v1000, fine, pen\WObj:=platform;
    
    !!-5.59088680175158, -4.5123;
    MoveL [ [-2.798, -6.256, 49.881], [0.033, -0.529, -0.848, 0.000], [0, 0, 0, 0], [ 9E9, 9E9, 9E9, 9E9, 9E9, 9E9] ], v1000, fine, pen\WObj:=platform;
    MoveL [ [-5.591, -4.512, -0.010], [0.033, -0.529, -0.848, 0.000], [0, 0, 0, 0], [ 9E9, 9E9, 9E9, 9E9, 9E9, 9E9] ], v30, fine, pen\WObj:=platform;
    MoveL [ [-2.798, -6.256, 49.881], [0.033, -0.529, -0.848, 0.000], [0, 0, 0, 0], [ 9E9, 9E9, 9E9, 9E9, 9E9, 9E9] ], v1000, fine, pen\WObj:=platform;
    
    !!-5.649430119047407, -4.6137;
    MoveL [ [-6.224, -16.590, 48.531], [0.121, -0.992, 0.048, 0.000], [0, 0, 0, 0], [ 9E9, 9E9, 9E9, 9E9, 9E9, 9E9] ], v1000, fine, pen\WObj:=platform;
    MoveL [ [-5.649, -4.614, -0.010], [0.121, -0.992, 0.048, 0.000], [0, 0, 0, 0], [ 9E9, 9E9, 9E9, 9E9, 9E9, 9E9] ], v30, fine, pen\WObj:=platform;
    MoveL [ [-6.224, -16.590, 48.531], [0.121, -0.992, 0.048, 0.000], [0, 0, 0, 0], [ 9E9, 9E9, 9E9, 9E9, 9E9, 9E9] ], v1000, fine, pen\WObj:=platform;
    
    !!-5.59088680175158, -4.7151;
    MoveL [ [-1.933, -13.476, 49.080], [0.095, -0.919, -0.384, 0.000], [0, 0, 0, 0], [ 9E9, 9E9, 9E9, 9E9, 9E9, 9E9] ], v1000, fine, pen\WObj:=platform;
    MoveL [ [-5.591, -4.715, -0.010], [0.095, -0.919, -0.384, 0.000], [0, 0, 0, 0], [ 9E9, 9E9, 9E9, 9E9, 9E9, 9E9] ], v30, fine, pen\WObj:=platform;
    MoveL [ [-1.933, -13.476, 49.080], [0.095, -0.919, -0.384, 0.000], [0, 0, 0, 0], [ 9E9, 9E9, 9E9, 9E9, 9E9, 9E9] ], v1000, fine, pen\WObj:=platform;
    
    !!-5.649430119047407, -4.8165000000000004;
    MoveL [ [-1.959, -13.416, 49.106], [0.094, -0.915, -0.393, 0.000], [0, 0, 0, 0], [ 9E9, 9E9, 9E9, 9E9, 9E9, 9E9] ], v1000, fine, pen\WObj:=platform;
    MoveL [ [-5.649, -4.817, -0.010], [0.094, -0.915, -0.393, 0.000], [0, 0, 0, 0], [ 9E9, 9E9, 9E9, 9E9, 9E9, 9E9] ], v30, fine, pen\WObj:=platform;
    MoveL [ [-1.959, -13.416, 49.106], [0.094, -0.915, -0.393, 0.000], [0, 0, 0, 0], [ 9E9, 9E9, 9E9, 9E9, 9E9, 9E9] ], v1000, fine, pen\WObj:=platform;
    
    !!-5.59088680175158, -4.9179;
    MoveL [ [-6.323, -16.268, 48.679], [0.114, -0.991, 0.064, 0.000], [0, 0, 0, 0], [ 9E9, 9E9, 9E9, 9E9, 9E9, 9E9] ], v1000, fine, pen\WObj:=platform;
    MoveL [ [-5.591, -4.918, -0.010], [0.114, -0.991, 0.064, 0.000], [0, 0, 0, 0], [ 9E9, 9E9, 9E9, 9E9, 9E9, 9E9] ], v30, fine, pen\WObj:=platform;
    MoveL [ [-6.323, -16.268, 48.679], [0.114, -0.991, 0.064, 0.000], [0, 0, 0, 0], [ 9E9, 9E9, 9E9, 9E9, 9E9, 9E9] ], v1000, fine, pen\WObj:=platform;
    
    !!-5.649430119047407, -5.019300000000001;
    MoveL [ [-2.838, -5.850, 49.904], [0.029, -0.283, -0.959, 0.000], [0, 0, 0, 0], [ 9E9, 9E9, 9E9, 9E9, 9E9, 9E9] ], v1000, fine, pen\WObj:=platform;
    MoveL [ [-5.649, -5.019, -0.010], [0.029, -0.283, -0.959, 0.000], [0, 0, 0, 0], [ 9E9, 9E9, 9E9, 9E9, 9E9, 9E9] ], v30, fine, pen\WObj:=platform;
    MoveL [ [-2.838, -5.850, 49.904], [0.029, -0.283, -0.959, 0.000], [0, 0, 0, 0], [ 9E9, 9E9, 9E9, 9E9, 9E9, 9E9] ], v1000, fine, pen\WObj:=platform;
    
    !!-5.59088680175158, -5.1207;
    MoveL [ [1.208, -11.305, 49.138], [0.092, -0.670, -0.737, 0.000], [0, 0, 0, 0], [ 9E9, 9E9, 9E9, 9E9, 9E9, 9E9] ], v1000, fine, pen\WObj:=platform;
    MoveL [ [-5.591, -5.121, -0.010], [0.092, -0.670, -0.737, 0.000], [0, 0, 0, 0], [ 9E9, 9E9, 9E9, 9E9, 9E9, 9E9] ], v30, fine, pen\WObj:=platform;
    MoveL [ [1.208, -11.305, 49.138], [0.092, -0.670, -0.737, 0.000], [0, 0, 0, 0], [ 9E9, 9E9, 9E9, 9E9, 9E9, 9E9] ], v1000, fine, pen\WObj:=platform;
    
    !!-5.649430119047407, -5.222100000000001;
    MoveL [ [-2.851, -5.686, 49.909], [0.028, -0.163, -0.986, 0.000], [0, 0, 0, 0], [ 9E9, 9E9, 9E9, 9E9, 9E9, 9E9] ], v1000, fine, pen\WObj:=platform;
    MoveL [ [-5.649, -5.222, -0.010], [0.028, -0.163, -0.986, 0.000], [0, 0, 0, 0], [ 9E9, 9E9, 9E9, 9E9, 9E9, 9E9] ], v30, fine, pen\WObj:=platform;
    MoveL [ [-2.851, -5.686, 49.909], [0.028, -0.163, -0.986, 0.000], [0, 0, 0, 0], [ 9E9, 9E9, 9E9, 9E9, 9E9, 9E9] ], v1000, fine, pen\WObj:=platform;
    
    !!-5.59088680175158, -5.323500000000001;
    MoveL [ [1.186, -11.208, 49.178], [0.090, -0.653, -0.752, 0.000], [0, 0, 0, 0], [ 9E9, 9E9, 9E9, 9E9, 9E9, 9E9] ], v1000, fine, pen\WObj:=platform;
    MoveL [ [-5.591, -5.324, -0.010], [0.090, -0.653, -0.752, 0.000], [0, 0, 0, 0], [ 9E9, 9E9, 9E9, 9E9, 9E9, 9E9] ], v30, fine, pen\WObj:=platform;
    MoveL [ [1.186, -11.208, 49.178], [0.090, -0.653, -0.752, 0.000], [0, 0, 0, 0], [ 9E9, 9E9, 9E9, 9E9, 9E9, 9E9] ], v1000, fine, pen\WObj:=platform;
    
    !!-5.649430119047407, -5.424899999999999;
    MoveL [ [-2.072, -12.993, 49.284], [0.084, -0.901, -0.426, 0.000], [0, 0, 0, 0], [ 9E9, 9E9, 9E9, 9E9, 9E9, 9E9] ], v1000, fine, pen\WObj:=platform;
    MoveL [ [-5.649, -5.425, -0.010], [0.084, -0.901, -0.426, 0.000], [0, 0, 0, 0], [ 9E9, 9E9, 9E9, 9E9, 9E9, 9E9] ], v30, fine, pen\WObj:=platform;
    MoveL [ [-2.072, -12.993, 49.284], [0.084, -0.901, -0.426, 0.000], [0, 0, 0, 0], [ 9E9, 9E9, 9E9, 9E9, 9E9, 9E9] ], v1000, fine, pen\WObj:=platform;
    
    !!-5.59088680175158, -5.526299999999999;
    MoveL [ [-2.861, -5.436, 49.915], [0.027, 0.033, -0.999, 0.000], [0, 0, 0, 0], [ 9E9, 9E9, 9E9, 9E9, 9E9, 9E9] ], v1000, fine, pen\WObj:=platform;
    MoveL [ [-5.591, -5.526, -0.010], [0.027, 0.033, -0.999, 0.000], [0, 0, 0, 0], [ 9E9, 9E9, 9E9, 9E9, 9E9, 9E9] ], v30, fine, pen\WObj:=platform;
    MoveL [ [-2.861, -5.436, 49.915], [0.027, 0.033, -0.999, 0.000], [0, 0, 0, 0], [ 9E9, 9E9, 9E9, 9E9, 9E9, 9E9] ], v1000, fine, pen\WObj:=platform;
    
    !!-5.649430119047407, -5.6277;
    MoveL [ [3.504, -9.848, 48.964], [0.101, -0.417, -0.903, 0.000], [0, 0, 0, 0], [ 9E9, 9E9, 9E9, 9E9, 9E9, 9E9] ], v1000, fine, pen\WObj:=platform;
    MoveL [ [-5.649, -5.628, -0.010], [0.101, -0.417, -0.903, 0.000], [0, 0, 0, 0], [ 9E9, 9E9, 9E9, 9E9, 9E9, 9E9] ], v30, fine, pen\WObj:=platform;
    MoveL [ [3.504, -9.848, 48.964], [0.101, -0.417, -0.903, 0.000], [0, 0, 0, 0], [ 9E9, 9E9, 9E9, 9E9, 9E9, 9E9] ], v1000, fine, pen\WObj:=platform;
    
    !!-5.59088680175158, -5.729100000000001;
    MoveL [ [-2.873, -5.272, 49.914], [0.028, 0.166, -0.986, 0.000], [0, 0, 0, 0], [ 9E9, 9E9, 9E9, 9E9, 9E9, 9E9] ], v1000, fine, pen\WObj:=platform;
    MoveL [ [-5.591, -5.729, -0.010], [0.028, 0.166, -0.986, 0.000], [0, 0, 0, 0], [ 9E9, 9E9, 9E9, 9E9, 9E9, 9E9] ], v30, fine, pen\WObj:=platform;
    MoveL [ [-2.873, -5.272, 49.914], [0.028, 0.166, -0.986, 0.000], [0, 0, 0, 0], [ 9E9, 9E9, 9E9, 9E9, 9E9, 9E9] ], v1000, fine, pen\WObj:=platform;
    
    !!-5.649430119047407, -5.830500000000001;
    MoveL [ [-2.148, -12.704, 49.391], [0.077, -0.888, -0.453, 0.000], [0, 0, 0, 0], [ 9E9, 9E9, 9E9, 9E9, 9E9, 9E9] ], v1000, fine, pen\WObj:=platform;
    MoveL [ [-5.649, -5.831, -0.010], [0.077, -0.888, -0.453, 0.000], [0, 0, 0, 0], [ 9E9, 9E9, 9E9, 9E9, 9E9, 9E9] ], v30, fine, pen\WObj:=platform;
    MoveL [ [-2.148, -12.704, 49.391], [0.077, -0.888, -0.453, 0.000], [0, 0, 0, 0], [ 9E9, 9E9, 9E9, 9E9, 9E9, 9E9] ], v1000, fine, pen\WObj:=platform;
    
    !!-5.59088680175158, -5.931900000000001;
    MoveL [ [0.688, -4.985, 49.585], [0.064, 0.149, -0.987, 0.000], [0, 0, 0, 0], [ 9E9, 9E9, 9E9, 9E9, 9E9, 9E9] ], v1000, fine, pen\WObj:=platform;
    MoveL [ [-5.591, -5.932, -0.010], [0.064, 0.149, -0.987, 0.000], [0, 0, 0, 0], [ 9E9, 9E9, 9E9, 9E9, 9E9, 9E9] ], v30, fine, pen\WObj:=platform;
    MoveL [ [0.688, -4.985, 49.585], [0.064, 0.149, -0.987, 0.000], [0, 0, 0, 0], [ 9E9, 9E9, 9E9, 9E9, 9E9, 9E9] ], v1000, fine, pen\WObj:=platform;
    
    !!-5.649430119047407, -6.0333000000000006;
    MoveL [ [-2.186, -12.558, 49.441], [0.074, -0.881, -0.468, 0.000], [0, 0, 0, 0], [ 9E9, 9E9, 9E9, 9E9, 9E9, 9E9] ], v1000, fine, pen\WObj:=platform;
    MoveL [ [-5.649, -6.033, -0.010], [0.074, -0.881, -0.468, 0.000], [0, 0, 0, 0], [ 9E9, 9E9, 9E9, 9E9, 9E9, 9E9] ], v30, fine, pen\WObj:=platform;
    MoveL [ [-2.186, -12.558, 49.441], [0.074, -0.881, -0.468, 0.000], [0, 0, 0, 0], [ 9E9, 9E9, 9E9, 9E9, 9E9, 9E9] ], v1000, fine, pen\WObj:=platform;
    
    !!-5.59088680175158, -6.1347;
    MoveL [ [-2.897, -4.943, 49.903], [0.029, 0.404, -0.914, 0.000], [0, 0, 0, 0], [ 9E9, 9E9, 9E9, 9E9, 9E9, 9E9] ], v1000, fine, pen\WObj:=platform;
    MoveL [ [-5.591, -6.135, -0.010], [0.029, 0.404, -0.914, 0.000], [0, 0, 0, 0], [ 9E9, 9E9, 9E9, 9E9, 9E9, 9E9] ], v30, fine, pen\WObj:=platform;
    MoveL [ [-2.897, -4.943, 49.903], [0.029, 0.404, -0.914, 0.000], [0, 0, 0, 0], [ 9E9, 9E9, 9E9, 9E9, 9E9, 9E9] ], v1000, fine, pen\WObj:=platform;
    
    !!-5.649430119047407, -6.2361;
    MoveL [ [-2.223, -12.411, 49.489], [0.071, -0.872, -0.484, 0.000], [0, 0, 0, 0], [ 9E9, 9E9, 9E9, 9E9, 9E9, 9E9] ], v1000, fine, pen\WObj:=platform;
    MoveL [ [-5.649, -6.236, -0.010], [0.071, -0.872, -0.484, 0.000], [0, 0, 0, 0], [ 9E9, 9E9, 9E9, 9E9, 9E9, 9E9] ], v30, fine, pen\WObj:=platform;
    MoveL [ [-2.223, -12.411, 49.489], [0.071, -0.872, -0.484, 0.000], [0, 0, 0, 0], [ 9E9, 9E9, 9E9, 9E9, 9E9, 9E9] ], v1000, fine, pen\WObj:=platform;
    
    !!-5.59088680175158, -6.3375;
    MoveL [ [0.669, -4.769, 49.572], [0.065, 0.242, -0.968, 0.000], [0, 0, 0, 0], [ 9E9, 9E9, 9E9, 9E9, 9E9, 9E9] ], v1000, fine, pen\WObj:=platform;
    MoveL [ [-5.591, -6.338, -0.010], [0.065, 0.242, -0.968, 0.000], [0, 0, 0, 0], [ 9E9, 9E9, 9E9, 9E9, 9E9, 9E9] ], v30, fine, pen\WObj:=platform;
    MoveL [ [0.669, -4.769, 49.572], [0.065, 0.242, -0.968, 0.000], [0, 0, 0, 0], [ 9E9, 9E9, 9E9, 9E9, 9E9, 9E9] ], v1000, fine, pen\WObj:=platform;
    
    !!-5.649430119047407, -6.4389;
    MoveL [ [-6.847, -14.678, 49.292], [0.084, -0.986, 0.143, 0.000], [0, 0, 0, 0], [ 9E9, 9E9, 9E9, 9E9, 9E9, 9E9] ], v1000, fine, pen\WObj:=platform;
