MODULE MainModule
  PERS wobjdata platform := [ FALSE, TRUE, "", [ [800, 0, 600], [1, 0, 0 ,0] ], [ [0, 0, 0], [1, 0, 0 ,0] ] ];
  PERS tooldata pen := [ TRUE, [[0, 0, 100], [1, 0, 0 ,0]], [0.8,[0, 0, 30], [1, 0, 0, 0], 0, 0, 0]];
  PROC main()
    ConfL\Off;
    ConfJ\Off;
    SingArea\Wrist;
    !!-0.16887495373796524, -3.9000000000000004;
    MoveL [ [-6.632, -2.135, 49.529], [0.067, 0.263, 0.962, 0.000], [0, 0, 0, 0], [ 9E9, 9E9, 9E9, 9E9, 9E9, 9E9] ], v1000, fine, pen\WObj:=platform;
    MoveL [ [-0.169, -3.900, -0.020], [0.067, 0.263, 0.962, 0.000], [0, 0, 0, 0], [ 9E9, 9E9, 9E9, 9E9, 9E9, 9E9] ], v30, fine, pen\WObj:=platform;
    MoveL [ [-6.632, -2.135, 49.529], [0.067, 0.263, 0.962, 0.000], [0, 0, 0, 0], [ 9E9, 9E9, 9E9, 9E9, 9E9, 9E9] ], v1000, fine, pen\WObj:=platform;
    
    !!-0.6754998149518621, -3.0225;
    MoveL [ [-9.190, 11.446, 47.077], [0.170, 0.849, 0.500, 0.000], [0, 0, 0, 0], [ 9E9, 9E9, 9E9, 9E9, 9E9, 9E9] ], v1000, fine, pen\WObj:=platform;
    MoveL [ [-0.675, -3.022, -0.020], [0.170, 0.849, 0.500, 0.000], [0, 0, 0, 0], [ 9E9, 9E9, 9E9, 9E9, 9E9, 9E9] ], v30, fine, pen\WObj:=platform;
    MoveL [ [-9.190, 11.446, 47.077], [0.170, 0.849, 0.500, 0.000], [0, 0, 0, 0], [ 9E9, 9E9, 9E9, 9E9, 9E9, 9E9] ], v1000, fine, pen\WObj:=platform;
    
    !!-0.7317914661978508, -2.9250000000000007;
    MoveL [ [-4.824, -1.112, 49.779], [0.045, 0.405, 0.913, 0.000], [0, 0, 0, 0], [ 9E9, 9E9, 9E9, 9E9, 9E9, 9E9] ], v1000, fine, pen\WObj:=platform;
    MoveL [ [-0.732, -2.925, -0.020], [0.045, 0.405, 0.913, 0.000], [0, 0, 0, 0], [ 9E9, 9E9, 9E9, 9E9, 9E9, 9E9] ], v30, fine, pen\WObj:=platform;
    MoveL [ [-4.824, -1.112, 49.779], [0.045, 0.405, 0.913, 0.000], [0, 0, 0, 0], [ 9E9, 9E9, 9E9, 9E9, 9E9, 9E9] ], v1000, fine, pen\WObj:=platform;
    
    !!-0.7880831174438396, -2.8275000000000006;
    MoveL [ [-5.763, -3.644, 49.725], [0.050, -0.162, 0.986, 0.000], [0, 0, 0, 0], [ 9E9, 9E9, 9E9, 9E9, 9E9, 9E9] ], v1000, fine, pen\WObj:=platform;
    MoveL [ [-0.788, -2.828, -0.020], [0.050, -0.162, 0.986, 0.000], [0, 0, 0, 0], [ 9E9, 9E9, 9E9, 9E9, 9E9, 9E9] ], v30, fine, pen\WObj:=platform;
    MoveL [ [-5.763, -3.644, 49.725], [0.050, -0.162, 0.986, 0.000], [0, 0, 0, 0], [ 9E9, 9E9, 9E9, 9E9, 9E9, 9E9] ], v1000, fine, pen\WObj:=platform;
    
    !!-0.8443747686898273, -2.7300000000000004;
    MoveL [ [-9.888, -5.890, 49.054], [0.096, -0.328, 0.940, 0.000], [0, 0, 0, 0], [ 9E9, 9E9, 9E9, 9E9, 9E9, 9E9] ], v1000, fine, pen\WObj:=platform;
    MoveL [ [-0.844, -2.730, -0.020], [0.096, -0.328, 0.940, 0.000], [0, 0, 0, 0], [ 9E9, 9E9, 9E9, 9E9, 9E9, 9E9] ], v30, fine, pen\WObj:=platform;
    MoveL [ [-9.888, -5.890, 49.054], [0.096, -0.328, 0.940, 0.000], [0, 0, 0, 0], [ 9E9, 9E9, 9E9, 9E9, 9E9, 9E9] ], v1000, fine, pen\WObj:=platform;
    
    !!-0.9006664199358161, -2.632500000000001;
    MoveL [ [-12.037, -11.136, 47.977], [0.142, -0.601, 0.787, 0.000], [0, 0, 0, 0], [ 9E9, 9E9, 9E9, 9E9, 9E9, 9E9] ], v1000, fine, pen\WObj:=platform;
    MoveL [ [-0.901, -2.633, -0.020], [0.142, -0.601, 0.787, 0.000], [0, 0, 0, 0], [ 9E9, 9E9, 9E9, 9E9, 9E9, 9E9] ], v30, fine, pen\WObj:=platform;
    MoveL [ [-12.037, -11.136, 47.977], [0.142, -0.601, 0.787, 0.000], [0, 0, 0, 0], [ 9E9, 9E9, 9E9, 9E9, 9E9, 9E9] ], v1000, fine, pen\WObj:=platform;
    
    !!-0.9569580711818043, -2.5350000000000006;
    MoveL [ [-12.034, -11.209, 47.960], [0.142, -0.610, 0.779, 0.000], [0, 0, 0, 0], [ 9E9, 9E9, 9E9, 9E9, 9E9, 9E9] ], v1000, fine, pen\WObj:=platform;
    MoveL [ [-0.957, -2.535, -0.020], [0.142, -0.610, 0.779, 0.000], [0, 0, 0, 0], [ 9E9, 9E9, 9E9, 9E9, 9E9, 9E9] ], v30, fine, pen\WObj:=platform;
    MoveL [ [-12.034, -11.209, 47.960], [0.142, -0.610, 0.779, 0.000], [0, 0, 0, 0], [ 9E9, 9E9, 9E9, 9E9, 9E9, 9E9] ], v1000, fine, pen\WObj:=platform;
    
    !!-1.0132497224277937, -2.4375;
    MoveL [ [-5.650, 10.778, 47.979], [0.141, 0.934, 0.328, 0.000], [0, 0, 0, 0], [ 9E9, 9E9, 9E9, 9E9, 9E9, 9E9] ], v1000, fine, pen\WObj:=platform;
    MoveL [ [-1.013, -2.438, -0.020], [0.141, 0.934, 0.328, 0.000], [0, 0, 0, 0], [ 9E9, 9E9, 9E9, 9E9, 9E9, 9E9] ], v30, fine, pen\WObj:=platform;
    MoveL [ [-5.650, 10.778, 47.979], [0.141, 0.934, 0.328, 0.000], [0, 0, 0, 0], [ 9E9, 9E9, 9E9, 9E9, 9E9, 9E9] ], v1000, fine, pen\WObj:=platform;
    
    !!-1.0695413736737818, -2.3400000000000007;
    MoveL [ [-12.099, -2.742, 48.747], [0.111, -0.036, 0.993, 0.000], [0, 0, 0, 0], [ 9E9, 9E9, 9E9, 9E9, 9E9, 9E9] ], v1000, fine, pen\WObj:=platform;
    MoveL [ [-1.070, -2.340, -0.020], [0.111, -0.036, 0.993, 0.000], [0, 0, 0, 0], [ 9E9, 9E9, 9E9, 9E9, 9E9, 9E9] ], v30, fine, pen\WObj:=platform;
    MoveL [ [-12.099, -2.742, 48.747], [0.111, -0.036, 0.993, 0.000], [0, 0, 0, 0], [ 9E9, 9E9, 9E9, 9E9, 9E9, 9E9] ], v1000, fine, pen\WObj:=platform;
    
    !!-1.12583302491977, -2.2424999999999997;
    MoveL [ [6.840, 1.263, 49.217], [0.087, 0.401, -0.912, 0.000], [0, 0, 0, 0], [ 9E9, 9E9, 9E9, 9E9, 9E9, 9E9] ], v1000, fine, pen\WObj:=platform;
    MoveL [ [-1.126, -2.242, -0.020], [0.087, 0.401, -0.912, 0.000], [0, 0, 0, 0], [ 9E9, 9E9, 9E9, 9E9, 9E9, 9E9] ], v30, fine, pen\WObj:=platform;
    MoveL [ [6.840, 1.263, 49.217], [0.087, 0.401, -0.912, 0.000], [0, 0, 0, 0], [ 9E9, 9E9, 9E9, 9E9, 9E9, 9E9] ], v1000, fine, pen\WObj:=platform;
    
    !!-1.182124676165759, -2.1450000000000005;
    MoveL [ [6.885, 0.913, 49.230], [0.087, 0.353, -0.932, 0.000], [0, 0, 0, 0], [ 9E9, 9E9, 9E9, 9E9, 9E9, 9E9] ], v1000, fine, pen\WObj:=platform;
    MoveL [ [-1.182, -2.145, -0.020], [0.087, 0.353, -0.932, 0.000], [0, 0, 0, 0], [ 9E9, 9E9, 9E9, 9E9, 9E9, 9E9] ], v30, fine, pen\WObj:=platform;
    MoveL [ [6.885, 0.913, 49.230], [0.087, 0.353, -0.932, 0.000], [0, 0, 0, 0], [ 9E9, 9E9, 9E9, 9E9, 9E9, 9E9] ], v1000, fine, pen\WObj:=platform;
    
    !!-0.22516660498395402, -3.802500000000001;
    MoveL [ [-5.601, -0.819, 49.601], [0.062, 0.484, 0.873, 0.000], [0, 0, 0, 0], [ 9E9, 9E9, 9E9, 9E9, 9E9, 9E9] ], v1000, fine, pen\WObj:=platform;
    MoveL [ [-0.225, -3.803, -0.020], [0.062, 0.484, 0.873, 0.000], [0, 0, 0, 0], [ 9E9, 9E9, 9E9, 9E9, 9E9, 9E9] ], v30, fine, pen\WObj:=platform;
    MoveL [ [-5.601, -0.819, 49.601], [0.062, 0.484, 0.873, 0.000], [0, 0, 0, 0], [ 9E9, 9E9, 9E9, 9E9, 9E9, 9E9] ], v1000, fine, pen\WObj:=platform;
    
    !!-1.238416327411747, -2.0475;
    MoveL [ [-2.931, 13.373, 47.513], [0.157, 0.982, 0.108, 0.000], [0, 0, 0, 0], [ 9E9, 9E9, 9E9, 9E9, 9E9, 9E9] ], v1000, fine, pen\WObj:=platform;
    MoveL [ [-1.238, -2.047, -0.020], [0.157, 0.982, 0.108, 0.000], [0, 0, 0, 0], [ 9E9, 9E9, 9E9, 9E9, 9E9, 9E9] ], v30, fine, pen\WObj:=platform;
    MoveL [ [-2.931, 13.373, 47.513], [0.157, 0.982, 0.108, 0.000], [0, 0, 0, 0], [ 9E9, 9E9, 9E9, 9E9, 9E9, 9E9] ], v1000, fine, pen\WObj:=platform;
    
    !!-1.294707978657736, -1.9500000000000006;
    MoveL [ [-9.374, 0.348, 49.269], [0.084, 0.273, 0.958, 0.000], [0, 0, 0, 0], [ 9E9, 9E9, 9E9, 9E9, 9E9, 9E9] ], v1000, fine, pen\WObj:=platform;
    MoveL [ [-1.295, -1.950, -0.020], [0.084, 0.273, 0.958, 0.000], [0, 0, 0, 0], [ 9E9, 9E9, 9E9, 9E9, 9E9, 9E9] ], v30, fine, pen\WObj:=platform;
    MoveL [ [-9.374, 0.348, 49.269], [0.084, 0.273, 0.958, 0.000], [0, 0, 0, 0], [ 9E9, 9E9, 9E9, 9E9, 9E9, 9E9] ], v1000, fine, pen\WObj:=platform;
    
    !!-1.3509996299037241, -1.8525000000000003;
    MoveL [ [-5.029, -6.169, 49.657], [0.057, -0.760, 0.648, 0.000], [0, 0, 0, 0], [ 9E9, 9E9, 9E9, 9E9, 9E9, 9E9] ], v1000, fine, pen\WObj:=platform;
    MoveL [ [-1.351, -1.853, -0.020], [0.057, -0.760, 0.648, 0.000], [0, 0, 0, 0], [ 9E9, 9E9, 9E9, 9E9, 9E9, 9E9] ], v30, fine, pen\WObj:=platform;
    MoveL [ [-5.029, -6.169, 49.657], [0.057, -0.760, 0.648, 0.000], [0, 0, 0, 0], [ 9E9, 9E9, 9E9, 9E9, 9E9, 9E9] ], v1000, fine, pen\WObj:=platform;
    
    !!-1.4072912811497122, -1.755000000000001;
    MoveL [ [-4.327, -8.819, 49.392], [0.077, -0.921, 0.381, 0.000], [0, 0, 0, 0], [ 9E9, 9E9, 9E9, 9E9, 9E9, 9E9] ], v1000, fine, pen\WObj:=platform;
    MoveL [ [-1.407, -1.755, -0.020], [0.077, -0.921, 0.381, 0.000], [0, 0, 0, 0], [ 9E9, 9E9, 9E9, 9E9, 9E9, 9E9] ], v30, fine, pen\WObj:=platform;
    MoveL [ [-4.327, -8.819, 49.392], [0.077, -0.921, 0.381, 0.000], [0, 0, 0, 0], [ 9E9, 9E9, 9E9, 9E9, 9E9, 9E9] ], v1000, fine, pen\WObj:=platform;
    
    !!-1.4635829323957021, -1.6574999999999995;
    MoveL [ [-2.525, -7.276, 49.652], [0.057, -0.981, 0.185, 0.000], [0, 0, 0, 0], [ 9E9, 9E9, 9E9, 9E9, 9E9, 9E9] ], v1000, fine, pen\WObj:=platform;
    MoveL [ [-1.464, -1.657, -0.020], [0.057, -0.981, 0.185, 0.000], [0, 0, 0, 0], [ 9E9, 9E9, 9E9, 9E9, 9E9, 9E9] ], v30, fine, pen\WObj:=platform;
    MoveL [ [-2.525, -7.276, 49.652], [0.057, -0.981, 0.185, 0.000], [0, 0, 0, 0], [ 9E9, 9E9, 9E9, 9E9, 9E9, 9E9] ], v1000, fine, pen\WObj:=platform;
    
    !!-1.5198745836416898, -1.5600000000000003;
    MoveL [ [-3.564, -12.263, 48.778], [0.110, -0.976, 0.186, 0.000], [0, 0, 0, 0], [ 9E9, 9E9, 9E9, 9E9, 9E9, 9E9] ], v1000, fine, pen\WObj:=platform;
    MoveL [ [-1.520, -1.560, -0.020], [0.110, -0.976, 0.186, 0.000], [0, 0, 0, 0], [ 9E9, 9E9, 9E9, 9E9, 9E9, 9E9] ], v30, fine, pen\WObj:=platform;
    MoveL [ [-3.564, -12.263, 48.778], [0.110, -0.976, 0.186, 0.000], [0, 0, 0, 0], [ 9E9, 9E9, 9E9, 9E9, 9E9, 9E9] ], v1000, fine, pen\WObj:=platform;
    
    !!-1.5761662348876782, -1.4625;
    MoveL [ [-2.433, 12.230, 48.061], [0.139, 0.988, 0.062, 0.000], [0, 0, 0, 0], [ 9E9, 9E9, 9E9, 9E9, 9E9, 9E9] ], v1000, fine, pen\WObj:=platform;
    MoveL [ [-1.576, -1.462, -0.020], [0.139, 0.988, 0.062, 0.000], [0, 0, 0, 0], [ 9E9, 9E9, 9E9, 9E9, 9E9, 9E9] ], v30, fine, pen\WObj:=platform;
    MoveL [ [-2.433, 12.230, 48.061], [0.139, 0.988, 0.062, 0.000], [0, 0, 0, 0], [ 9E9, 9E9, 9E9, 9E9, 9E9, 9E9] ], v1000, fine, pen\WObj:=platform;
    
    !!-1.6324578861336665, -1.3650000000000007;
    MoveL [ [-7.275, 2.022, 49.545], [0.066, 0.514, 0.856, 0.000], [0, 0, 0, 0], [ 9E9, 9E9, 9E9, 9E9, 9E9, 9E9] ], v1000, fine, pen\WObj:=platform;
    MoveL [ [-1.632, -1.365, -0.020], [0.066, 0.514, 0.856, 0.000], [0, 0, 0, 0], [ 9E9, 9E9, 9E9, 9E9, 9E9, 9E9] ], v30, fine, pen\WObj:=platform;
    MoveL [ [-7.275, 2.022, 49.545], [0.066, 0.514, 0.856, 0.000], [0, 0, 0, 0], [ 9E9, 9E9, 9E9, 9E9, 9E9, 9E9] ], v1000, fine, pen\WObj:=platform;
    
    !!-1.6887495373796557, -1.2675000000000003;
    MoveL [ [-3.809, -10.974, 48.983], [0.100, -0.972, 0.212, 0.000], [0, 0, 0, 0], [ 9E9, 9E9, 9E9, 9E9, 9E9, 9E9] ], v1000, fine, pen\WObj:=platform;
    MoveL [ [-1.689, -1.268, -0.020], [0.100, -0.972, 0.212, 0.000], [0, 0, 0, 0], [ 9E9, 9E9, 9E9, 9E9, 9E9, 9E9] ], v30, fine, pen\WObj:=platform;
    MoveL [ [-3.809, -10.974, 48.983], [0.100, -0.972, 0.212, 0.000], [0, 0, 0, 0], [ 9E9, 9E9, 9E9, 9E9, 9E9, 9E9] ], v1000, fine, pen\WObj:=platform;
    
    !!-1.745041188625644, -1.170000000000001;
    MoveL [ [-10.577, -3.199, 49.152], [0.091, -0.223, 0.971, 0.000], [0, 0, 0, 0], [ 9E9, 9E9, 9E9, 9E9, 9E9, 9E9] ], v1000, fine, pen\WObj:=platform;
    MoveL [ [-1.745, -1.170, -0.020], [0.091, -0.223, 0.971, 0.000], [0, 0, 0, 0], [ 9E9, 9E9, 9E9, 9E9, 9E9, 9E9] ], v30, fine, pen\WObj:=platform;
    MoveL [ [-10.577, -3.199, 49.152], [0.091, -0.223, 0.971, 0.000], [0, 0, 0, 0], [ 9E9, 9E9, 9E9, 9E9, 9E9, 9E9] ], v1000, fine, pen\WObj:=platform;
    
    !!-0.2814582562299428, -3.7050000000000005;
    MoveL [ [-5.577, -0.974, 49.624], [0.060, 0.458, 0.887, 0.000], [0, 0, 0, 0], [ 9E9, 9E9, 9E9, 9E9, 9E9, 9E9] ], v1000, fine, pen\WObj:=platform;
    MoveL [ [-0.281, -3.705, -0.020], [0.060, 0.458, 0.887, 0.000], [0, 0, 0, 0], [ 9E9, 9E9, 9E9, 9E9, 9E9, 9E9] ], v30, fine, pen\WObj:=platform;
    MoveL [ [-5.577, -0.974, 49.624], [0.060, 0.458, 0.887, 0.000], [0, 0, 0, 0], [ 9E9, 9E9, 9E9, 9E9, 9E9, 9E9] ], v1000, fine, pen\WObj:=platform;
    
    !!-1.8013328398716326, -1.0724999999999996;
    MoveL [ [-3.797, -11.277, 48.887], [0.105, -0.976, 0.191, 0.000], [0, 0, 0, 0], [ 9E9, 9E9, 9E9, 9E9, 9E9, 9E9] ], v1000, fine, pen\WObj:=platform;
    MoveL [ [-1.801, -1.072, -0.020], [0.105, -0.976, 0.191, 0.000], [0, 0, 0, 0], [ 9E9, 9E9, 9E9, 9E9, 9E9, 9E9] ], v30, fine, pen\WObj:=platform;
    MoveL [ [-3.797, -11.277, 48.887], [0.105, -0.976, 0.191, 0.000], [0, 0, 0, 0], [ 9E9, 9E9, 9E9, 9E9, 9E9, 9E9] ], v1000, fine, pen\WObj:=platform;
    
    !!-1.8576244911176216, -0.9750000000000003;
    MoveL [ [3.732, -16.324, 47.236], [0.166, -0.927, -0.337, 0.000], [0, 0, 0, 0], [ 9E9, 9E9, 9E9, 9E9, 9E9, 9E9] ], v1000, fine, pen\WObj:=platform;
    MoveL [ [-1.858, -0.975, -0.020], [0.166, -0.927, -0.337, 0.000], [0, 0, 0, 0], [ 9E9, 9E9, 9E9, 9E9, 9E9, 9E9] ], v30, fine, pen\WObj:=platform;
    MoveL [ [3.732, -16.324, 47.236], [0.166, -0.927, -0.337, 0.000], [0, 0, 0, 0], [ 9E9, 9E9, 9E9, 9E9, 9E9, 9E9] ], v1000, fine, pen\WObj:=platform;
    
    !!-1.9139161423636097, -0.8775;
    MoveL [ [-5.319, -13.358, 48.277], [0.130, -0.956, 0.261, 0.000], [0, 0, 0, 0], [ 9E9, 9E9, 9E9, 9E9, 9E9, 9E9] ], v1000, fine, pen\WObj:=platform;
    MoveL [ [-1.914, -0.877, -0.020], [0.130, -0.956, 0.261, 0.000], [0, 0, 0, 0], [ 9E9, 9E9, 9E9, 9E9, 9E9, 9E9] ], v30, fine, pen\WObj:=platform;
    MoveL [ [-5.319, -13.358, 48.277], [0.130, -0.956, 0.261, 0.000], [0, 0, 0, 0], [ 9E9, 9E9, 9E9, 9E9, 9E9, 9E9] ], v1000, fine, pen\WObj:=platform;
    
    !!-1.9702077936095979, -0.7799999999999996;
    MoveL [ [-9.088, -1.030, 49.470], [0.071, -0.035, 0.997, 0.000], [0, 0, 0, 0], [ 9E9, 9E9, 9E9, 9E9, 9E9, 9E9] ], v1000, fine, pen\WObj:=platform;
    MoveL [ [-1.970, -0.780, -0.020], [0.071, -0.035, 0.997, 0.000], [0, 0, 0, 0], [ 9E9, 9E9, 9E9, 9E9, 9E9, 9E9] ], v30, fine, pen\WObj:=platform;
    MoveL [ [-9.088, -1.030, 49.470], [0.071, -0.035, 0.997, 0.000], [0, 0, 0, 0], [ 9E9, 9E9, 9E9, 9E9, 9E9, 9E9] ], v1000, fine, pen\WObj:=platform;
    
    !!-2.026499444855587, -0.6825000000000003;
    MoveL [ [-9.978, -6.754, 48.969], [0.101, -0.604, 0.791, 0.000], [0, 0, 0, 0], [ 9E9, 9E9, 9E9, 9E9, 9E9, 9E9] ], v1000, fine, pen\WObj:=platform;
    MoveL [ [-2.026, -0.683, -0.020], [0.101, -0.604, 0.791, 0.000], [0, 0, 0, 0], [ 9E9, 9E9, 9E9, 9E9, 9E9, 9E9] ], v30, fine, pen\WObj:=platform;
    MoveL [ [-9.978, -6.754, 48.969], [0.101, -0.604, 0.791, 0.000], [0, 0, 0, 0], [ 9E9, 9E9, 9E9, 9E9, 9E9, 9E9] ], v1000, fine, pen\WObj:=platform;
    
    !!-2.082791096101575, -0.585;
    MoveL [ [-11.882, -4.252, 48.873], [0.105, -0.348, 0.931, 0.000], [0, 0, 0, 0], [ 9E9, 9E9, 9E9, 9E9, 9E9, 9E9] ], v1000, fine, pen\WObj:=platform;
    MoveL [ [-2.083, -0.585, -0.020], [0.105, -0.348, 0.931, 0.000], [0, 0, 0, 0], [ 9E9, 9E9, 9E9, 9E9, 9E9, 9E9] ], v30, fine, pen\WObj:=platform;
    MoveL [ [-11.882, -4.252, 48.873], [0.105, -0.348, 0.931, 0.000], [0, 0, 0, 0], [ 9E9, 9E9, 9E9, 9E9, 9E9, 9E9] ], v1000, fine, pen\WObj:=platform;
    
    !!-0.3377499074759316, -3.6075;
    MoveL [ [-6.574, -2.560, 49.578], [0.063, 0.165, 0.984, 0.000], [0, 0, 0, 0], [ 9E9, 9E9, 9E9, 9E9, 9E9, 9E9] ], v1000, fine, pen\WObj:=platform;
    MoveL [ [-0.338, -3.607, -0.020], [0.063, 0.165, 0.984, 0.000], [0, 0, 0, 0], [ 9E9, 9E9, 9E9, 9E9, 9E9, 9E9] ], v30, fine, pen\WObj:=platform;
    MoveL [ [-6.574, -2.560, 49.578], [0.063, 0.165, 0.984, 0.000], [0, 0, 0, 0], [ 9E9, 9E9, 9E9, 9E9, 9E9, 9E9] ], v1000, fine, pen\WObj:=platform;
    
    !!-0.39404155872191926, -3.51;
    MoveL [ [-5.529, -1.285, 49.666], [0.056, 0.397, 0.916, 0.000], [0, 0, 0, 0], [ 9E9, 9E9, 9E9, 9E9, 9E9, 9E9] ], v1000, fine, pen\WObj:=platform;
    MoveL [ [-0.394, -3.510, -0.020], [0.056, 0.397, 0.916, 0.000], [0, 0, 0, 0], [ 9E9, 9E9, 9E9, 9E9, 9E9, 9E9] ], v30, fine, pen\WObj:=platform;
    MoveL [ [-5.529, -1.285, 49.666], [0.056, 0.397, 0.916, 0.000], [0, 0, 0, 0], [ 9E9, 9E9, 9E9, 9E9, 9E9, 9E9] ], v1000, fine, pen\WObj:=platform;
    
    !!-0.45033320996790804, -3.4125000000000005;
    MoveL [ [-9.981, -10.064, 48.610], [0.117, -0.568, 0.814, 0.000], [0, 0, 0, 0], [ 9E9, 9E9, 9E9, 9E9, 9E9, 9E9] ], v1000, fine, pen\WObj:=platform;
    MoveL [ [-0.450, -3.413, -0.020], [0.117, -0.568, 0.814, 0.000], [0, 0, 0, 0], [ 9E9, 9E9, 9E9, 9E9, 9E9, 9E9] ], v30, fine, pen\WObj:=platform;
    MoveL [ [-9.981, -10.064, 48.610], [0.117, -0.568, 0.814, 0.000], [0, 0, 0, 0], [ 9E9, 9E9, 9E9, 9E9, 9E9, 9E9] ], v1000, fine, pen\WObj:=platform;
    
    !!-0.5066248612138968, -3.3150000000000004;
    MoveL [ [-8.790, -11.009, 48.685], [0.114, -0.676, 0.728, 0.000], [0, 0, 0, 0], [ 9E9, 9E9, 9E9, 9E9, 9E9, 9E9] ], v1000, fine, pen\WObj:=platform;
    MoveL [ [-0.507, -3.315, -0.020], [0.114, -0.676, 0.728, 0.000], [0, 0, 0, 0], [ 9E9, 9E9, 9E9, 9E9, 9E9, 9E9] ], v30, fine, pen\WObj:=platform;
    MoveL [ [-8.790, -11.009, 48.685], [0.114, -0.676, 0.728, 0.000], [0, 0, 0, 0], [ 9E9, 9E9, 9E9, 9E9, 9E9, 9E9] ], v1000, fine, pen\WObj:=platform;
    
    !!-0.5629165124598845, -3.217500000000001;
    MoveL [ [-12.052, -10.696, 48.064], [0.138, -0.540, 0.830, 0.000], [0, 0, 0, 0], [ 9E9, 9E9, 9E9, 9E9, 9E9, 9E9] ], v1000, fine, pen\WObj:=platform;
    MoveL [ [-0.563, -3.218, -0.020], [0.138, -0.540, 0.830, 0.000], [0, 0, 0, 0], [ 9E9, 9E9, 9E9, 9E9, 9E9, 9E9] ], v30, fine, pen\WObj:=platform;
    MoveL [ [-12.052, -10.696, 48.064], [0.138, -0.540, 0.830, 0.000], [0, 0, 0, 0], [ 9E9, 9E9, 9E9, 9E9, 9E9, 9E9] ], v1000, fine, pen\WObj:=platform;
    
    !!-0.6192081637058744, -3.119999999999999;
    MoveL [ [-7.280, 8.084, 48.251], [0.131, 0.852, 0.507, 0.000], [0, 0, 0, 0], [ 9E9, 9E9, 9E9, 9E9, 9E9, 9E9] ], v1000, fine, pen\WObj:=platform;
    MoveL [ [-0.619, -3.120, -0.020], [0.131, 0.852, 0.507, 0.000], [0, 0, 0, 0], [ 9E9, 9E9, 9E9, 9E9, 9E9, 9E9] ], v30, fine, pen\WObj:=platform;
    MoveL [ [-7.280, 8.084, 48.251], [0.131, 0.852, 0.507, 0.000], [0, 0, 0, 0], [ 9E9, 9E9, 9E9, 9E9, 9E9, 9E9] ], v1000, fine, pen\WObj:=platform;
    
    !!-0.11258330249197757, -3.9975000000000005;
    MoveL [ [-6.651, -1.994, 49.510], [0.069, 0.292, 0.954, 0.000], [0, 0, 0, 0], [ 9E9, 9E9, 9E9, 9E9, 9E9, 9E9] ], v1000, fine, pen\WObj:=platform;
    MoveL [ [-0.113, -3.998, -0.020], [0.069, 0.292, 0.954, 0.000], [0, 0, 0, 0], [ 9E9, 9E9, 9E9, 9E9, 9E9, 9E9] ], v30, fine, pen\WObj:=platform;
    MoveL [ [-6.651, -1.994, 49.510], [0.069, 0.292, 0.954, 0.000], [0, 0, 0, 0], [ 9E9, 9E9, 9E9, 9E9, 9E9, 9E9] ], v1000, fine, pen\WObj:=platform;
    
    !!-0.05629165124598767, -4.095;
    MoveL [ [-6.670, -1.853, 49.490], [0.070, 0.320, 0.945, 0.000], [0, 0, 0, 0], [ 9E9, 9E9, 9E9, 9E9, 9E9, 9E9] ], v1000, fine, pen\WObj:=platform;
    MoveL [ [-0.056, -4.095, -0.020], [0.070, 0.320, 0.945, 0.000], [0, 0, 0, 0], [ 9E9, 9E9, 9E9, 9E9, 9E9, 9E9] ], v30, fine, pen\WObj:=platform;
    MoveL [ [-6.670, -1.853, 49.490], [0.070, 0.320, 0.945, 0.000], [0, 0, 0, 0], [ 9E9, 9E9, 9E9, 9E9, 9E9, 9E9] ], v1000, fine, pen\WObj:=platform;
    
    !!0.45033320996790804, -4.972500000000001;
    MoveL [ [-10.789, -1.048, 48.542], [0.120, 0.327, 0.937, 0.000], [0, 0, 0, 0], [ 9E9, 9E9, 9E9, 9E9, 9E9, 9E9] ], v1000, fine, pen\WObj:=platform;
    MoveL [ [0.450, -4.973, -0.020], [0.120, 0.327, 0.937, 0.000], [0, 0, 0, 0], [ 9E9, 9E9, 9E9, 9E9, 9E9, 9E9] ], v30, fine, pen\WObj:=platform;
    MoveL [ [-10.789, -1.048, 48.542], [0.120, 0.327, 0.937, 0.000], [0, 0, 0, 0], [ 9E9, 9E9, 9E9, 9E9, 9E9, 9E9] ], v1000, fine, pen\WObj:=platform;
    
    !!0.5066248612138968, -5.070000000000001;
    MoveL [ [-3.540, -8.514, 49.697], [0.053, -0.647, 0.760, 0.000], [0, 0, 0, 0], [ 9E9, 9E9, 9E9, 9E9, 9E9, 9E9] ], v1000, fine, pen\WObj:=platform;
    MoveL [ [0.507, -5.070, -0.020], [0.053, -0.647, 0.760, 0.000], [0, 0, 0, 0], [ 9E9, 9E9, 9E9, 9E9, 9E9, 9E9] ], v30, fine, pen\WObj:=platform;
    MoveL [ [-3.540, -8.514, 49.697], [0.053, -0.647, 0.760, 0.000], [0, 0, 0, 0], [ 9E9, 9E9, 9E9, 9E9, 9E9, 9E9] ], v1000, fine, pen\WObj:=platform;
    
    !!0.5629165124598845, -5.1675;
    MoveL [ [-3.682, -10.722, 49.489], [0.070, -0.793, 0.606, 0.000], [0, 0, 0, 0], [ 9E9, 9E9, 9E9, 9E9, 9E9, 9E9] ], v1000, fine, pen\WObj:=platform;
    MoveL [ [0.563, -5.168, -0.020], [0.070, -0.793, 0.606, 0.000], [0, 0, 0, 0], [ 9E9, 9E9, 9E9, 9E9, 9E9, 9E9] ], v30, fine, pen\WObj:=platform;
    MoveL [ [-3.682, -10.722, 49.489], [0.070, -0.793, 0.606, 0.000], [0, 0, 0, 0], [ 9E9, 9E9, 9E9, 9E9, 9E9, 9E9] ], v1000, fine, pen\WObj:=platform;
    
    !!0.6192081637058744, -5.265;
    MoveL [ [-4.955, -15.022, 48.701], [0.113, -0.863, 0.493, 0.000], [0, 0, 0, 0], [ 9E9, 9E9, 9E9, 9E9, 9E9, 9E9] ], v1000, fine, pen\WObj:=platform;
    MoveL [ [0.619, -5.265, -0.020], [0.113, -0.863, 0.493, 0.000], [0, 0, 0, 0], [ 9E9, 9E9, 9E9, 9E9, 9E9, 9E9] ], v30, fine, pen\WObj:=platform;
    MoveL [ [-4.955, -15.022, 48.701], [0.113, -0.863, 0.493, 0.000], [0, 0, 0, 0], [ 9E9, 9E9, 9E9, 9E9, 9E9, 9E9] ], v1000, fine, pen\WObj:=platform;
    
    !!0.6754998149518621, -5.362500000000001;
    MoveL [ [-8.869, -1.245, 48.887], [0.105, 0.394, 0.913, 0.000], [0, 0, 0, 0], [ 9E9, 9E9, 9E9, 9E9, 9E9, 9E9] ], v1000, fine, pen\WObj:=platform;
    MoveL [ [0.675, -5.363, -0.020], [0.105, 0.394, 0.913, 0.000], [0, 0, 0, 0], [ 9E9, 9E9, 9E9, 9E9, 9E9, 9E9] ], v30, fine, pen\WObj:=platform;
    MoveL [ [-8.869, -1.245, 48.887], [0.105, 0.394, 0.913, 0.000], [0, 0, 0, 0], [ 9E9, 9E9, 9E9, 9E9, 9E9, 9E9] ], v1000, fine, pen\WObj:=platform;
    
    !!0.7317914661978508, -5.460000000000001;
    MoveL [ [-2.305, -1.025, 49.690], [0.054, 0.824, 0.564, 0.000], [0, 0, 0, 0], [ 9E9, 9E9, 9E9, 9E9, 9E9, 9E9] ], v1000, fine, pen\WObj:=platform;
    MoveL [ [0.732, -5.460, -0.020], [0.054, 0.824, 0.564, 0.000], [0, 0, 0, 0], [ 9E9, 9E9, 9E9, 9E9, 9E9, 9E9] ], v30, fine, pen\WObj:=platform;
    MoveL [ [-2.305, -1.025, 49.690], [0.054, 0.824, 0.564, 0.000], [0, 0, 0, 0], [ 9E9, 9E9, 9E9, 9E9, 9E9, 9E9] ], v1000, fine, pen\WObj:=platform;
    
    !!0.7880831174438396, -5.557500000000001;
    MoveL [ [-4.133, 5.175, 48.566], [0.119, 0.903, 0.414, 0.000], [0, 0, 0, 0], [ 9E9, 9E9, 9E9, 9E9, 9E9, 9E9] ], v1000, fine, pen\WObj:=platform;
    MoveL [ [0.788, -5.558, -0.020], [0.119, 0.903, 0.414, 0.000], [0, 0, 0, 0], [ 9E9, 9E9, 9E9, 9E9, 9E9, 9E9] ], v30, fine, pen\WObj:=platform;
    MoveL [ [-4.133, 5.175, 48.566], [0.119, 0.903, 0.414, 0.000], [0, 0, 0, 0], [ 9E9, 9E9, 9E9, 9E9, 9E9, 9E9] ], v1000, fine, pen\WObj:=platform;
    
    !!0.8443747686898284, -5.655000000000001;
    MoveL [ [-2.354, -0.633, 49.624], [0.060, 0.842, 0.536, 0.000], [0, 0, 0, 0], [ 9E9, 9E9, 9E9, 9E9, 9E9, 9E9] ], v1000, fine, pen\WObj:=platform;
    MoveL [ [0.844, -5.655, -0.020], [0.060, 0.842, 0.536, 0.000], [0, 0, 0, 0], [ 9E9, 9E9, 9E9, 9E9, 9E9, 9E9] ], v30, fine, pen\WObj:=platform;
    MoveL [ [-2.354, -0.633, 49.624], [0.060, 0.842, 0.536, 0.000], [0, 0, 0, 0], [ 9E9, 9E9, 9E9, 9E9, 9E9, 9E9] ], v1000, fine, pen\WObj:=platform;
    
    !!0.9006664199358161, -5.752500000000001;
    MoveL [ [-2.379, -0.437, 49.588], [0.063, 0.849, 0.524, 0.000], [0, 0, 0, 0], [ 9E9, 9E9, 9E9, 9E9, 9E9, 9E9] ], v1000, fine, pen\WObj:=platform;
    MoveL [ [0.901, -5.753, -0.020], [0.063, 0.849, 0.524, 0.000], [0, 0, 0, 0], [ 9E9, 9E9, 9E9, 9E9, 9E9, 9E9] ], v30, fine, pen\WObj:=platform;
    MoveL [ [-2.379, -0.437, 49.588], [0.063, 0.849, 0.524, 0.000], [0, 0, 0, 0], [ 9E9, 9E9, 9E9, 9E9, 9E9, 9E9] ], v1000, fine, pen\WObj:=platform;
    
    !!0.9569580711818049, -5.8500000000000005;
    MoveL [ [-3.789, -20.860, 47.437], [0.159, -0.941, 0.298, 0.000], [0, 0, 0, 0], [ 9E9, 9E9, 9E9, 9E9, 9E9, 9E9] ], v1000, fine, pen\WObj:=platform;
    MoveL [ [0.957, -5.850, -0.020], [0.159, -0.941, 0.298, 0.000], [0, 0, 0, 0], [ 9E9, 9E9, 9E9, 9E9, 9E9, 9E9] ], v30, fine, pen\WObj:=platform;
    MoveL [ [-3.789, -20.860, 47.437], [0.159, -0.941, 0.298, 0.000], [0, 0, 0, 0], [ 9E9, 9E9, 9E9, 9E9, 9E9, 9E9] ], v1000, fine, pen\WObj:=platform;
    
    !!0, -4.192500000000001;
    MoveL [ [-9.940, 4.610, 48.185], [0.134, 0.657, 0.742, 0.000], [0, 0, 0, 0], [ 9E9, 9E9, 9E9, 9E9, 9E9, 9E9] ], v1000, fine, pen\WObj:=platform;
    MoveL [ [0.000, -4.193, -0.020], [0.134, 0.657, 0.742, 0.000], [0, 0, 0, 0], [ 9E9, 9E9, 9E9, 9E9, 9E9, 9E9] ], v30, fine, pen\WObj:=platform;
    MoveL [ [-9.940, 4.610, 48.185], [0.134, 0.657, 0.742, 0.000], [0, 0, 0, 0], [ 9E9, 9E9, 9E9, 9E9, 9E9, 9E9] ], v1000, fine, pen\WObj:=platform;
    
    !!1.0132497224277925, -5.9475;
    MoveL [ [-11.588, -9.964, 48.199], [0.133, -0.301, 0.944, 0.000], [0, 0, 0, 0], [ 9E9, 9E9, 9E9, 9E9, 9E9, 9E9] ], v1000, fine, pen\WObj:=platform;
    MoveL [ [1.013, -5.947, -0.020], [0.133, -0.301, 0.944, 0.000], [0, 0, 0, 0], [ 9E9, 9E9, 9E9, 9E9, 9E9, 9E9] ], v30, fine, pen\WObj:=platform;
    MoveL [ [-11.588, -9.964, 48.199], [0.133, -0.301, 0.944, 0.000], [0, 0, 0, 0], [ 9E9, 9E9, 9E9, 9E9, 9E9, 9E9] ], v1000, fine, pen\WObj:=platform;
    
    !!1.0695413736737813, -6.045000000000002;
    MoveL [ [-12.022, -1.523, 48.023], [0.140, 0.323, 0.936, 0.000], [0, 0, 0, 0], [ 9E9, 9E9, 9E9, 9E9, 9E9, 9E9] ], v1000, fine, pen\WObj:=platform;
    MoveL [ [1.070, -6.045, -0.020], [0.140, 0.323, 0.936, 0.000], [0, 0, 0, 0], [ 9E9, 9E9, 9E9, 9E9, 9E9, 9E9] ], v30, fine, pen\WObj:=platform;
    MoveL [ [-12.022, -1.523, 48.023], [0.140, 0.323, 0.936, 0.000], [0, 0, 0, 0], [ 9E9, 9E9, 9E9, 9E9, 9E9, 9E9] ], v1000, fine, pen\WObj:=platform;
    
    !!1.125833024919769, -6.142500000000001;
    MoveL [ [-12.021, -1.449, 47.992], [0.141, 0.333, 0.932, 0.000], [0, 0, 0, 0], [ 9E9, 9E9, 9E9, 9E9, 9E9, 9E9] ], v1000, fine, pen\WObj:=platform;
    MoveL [ [1.126, -6.143, -0.020], [0.141, 0.333, 0.932, 0.000], [0, 0, 0, 0], [ 9E9, 9E9, 9E9, 9E9, 9E9, 9E9] ], v30, fine, pen\WObj:=platform;
    MoveL [ [-12.021, -1.449, 47.992], [0.141, 0.333, 0.932, 0.000], [0, 0, 0, 0], [ 9E9, 9E9, 9E9, 9E9, 9E9, 9E9] ], v1000, fine, pen\WObj:=platform;
    
    !!1.182124676165759, -6.240000000000001;
    MoveL [ [-8.967, -0.251, 48.571], [0.119, 0.505, 0.855, 0.000], [0, 0, 0, 0], [ 9E9, 9E9, 9E9, 9E9, 9E9, 9E9] ], v1000, fine, pen\WObj:=platform;
    MoveL [ [1.182, -6.240, -0.020], [0.119, 0.505, 0.855, 0.000], [0, 0, 0, 0], [ 9E9, 9E9, 9E9, 9E9, 9E9, 9E9] ], v30, fine, pen\WObj:=platform;
    MoveL [ [-8.967, -0.251, 48.571], [0.119, 0.505, 0.855, 0.000], [0, 0, 0, 0], [ 9E9, 9E9, 9E9, 9E9, 9E9, 9E9] ], v1000, fine, pen\WObj:=platform;
    
    !!1.2384163274117477, -6.3375;
    MoveL [ [-9.912, -17.274, 47.478], [0.158, -0.691, 0.705, 0.000], [0, 0, 0, 0], [ 9E9, 9E9, 9E9, 9E9, 9E9, 9E9] ], v1000, fine, pen\WObj:=platform;
    MoveL [ [1.238, -6.338, -0.020], [0.158, -0.691, 0.705, 0.000], [0, 0, 0, 0], [ 9E9, 9E9, 9E9, 9E9, 9E9, 9E9] ], v30, fine, pen\WObj:=platform;
    MoveL [ [-9.912, -17.274, 47.478], [0.158, -0.691, 0.705, 0.000], [0, 0, 0, 0], [ 9E9, 9E9, 9E9, 9E9, 9E9, 9E9] ], v1000, fine, pen\WObj:=platform;
    
    !!1.2947079786577353, -6.4350000000000005;
    MoveL [ [-9.903, -17.193, 47.508], [0.157, -0.684, 0.712, 0.000], [0, 0, 0, 0], [ 9E9, 9E9, 9E9, 9E9, 9E9, 9E9] ], v1000, fine, pen\WObj:=platform;
    MoveL [ [1.295, -6.435, -0.020], [0.157, -0.684, 0.712, 0.000], [0, 0, 0, 0], [ 9E9, 9E9, 9E9, 9E9, 9E9, 9E9] ], v30, fine, pen\WObj:=platform;
    MoveL [ [-9.903, -17.193, 47.508], [0.157, -0.684, 0.712, 0.000], [0, 0, 0, 0], [ 9E9, 9E9, 9E9, 9E9, 9E9, 9E9] ], v1000, fine, pen\WObj:=platform;
    
    !!1.3509996299037252, -6.532500000000001;
    MoveL [ [-9.893, -17.112, 47.537], [0.156, -0.677, 0.719, 0.000], [0, 0, 0, 0], [ 9E9, 9E9, 9E9, 9E9, 9E9, 9E9] ], v1000, fine, pen\WObj:=platform;
    MoveL [ [1.351, -6.533, -0.020], [0.156, -0.677, 0.719, 0.000], [0, 0, 0, 0], [ 9E9, 9E9, 9E9, 9E9, 9E9, 9E9] ], v30, fine, pen\WObj:=platform;
    MoveL [ [-9.893, -17.112, 47.537], [0.156, -0.677, 0.719, 0.000], [0, 0, 0, 0], [ 9E9, 9E9, 9E9, 9E9, 9E9, 9E9] ], v1000, fine, pen\WObj:=platform;
    
    !!1.407291281149713, -6.630000000000001;
    MoveL [ [-9.883, -17.030, 47.565], [0.155, -0.669, 0.727, 0.000], [0, 0, 0, 0], [ 9E9, 9E9, 9E9, 9E9, 9E9, 9E9] ], v1000, fine, pen\WObj:=platform;
    MoveL [ [1.407, -6.630, -0.020], [0.155, -0.669, 0.727, 0.000], [0, 0, 0, 0], [ 9E9, 9E9, 9E9, 9E9, 9E9, 9E9] ], v30, fine, pen\WObj:=platform;
    MoveL [ [-9.883, -17.030, 47.565], [0.155, -0.669, 0.727, 0.000], [0, 0, 0, 0], [ 9E9, 9E9, 9E9, 9E9, 9E9, 9E9] ], v1000, fine, pen\WObj:=platform;
    
    !!1.4635829323957017, -6.727500000000001;
    MoveL [ [-0.717, -2.407, 49.745], [0.048, 0.892, 0.450, 0.000], [0, 0, 0, 0], [ 9E9, 9E9, 9E9, 9E9, 9E9, 9E9] ], v1000, fine, pen\WObj:=platform;
    MoveL [ [1.464, -6.728, -0.020], [0.048, 0.892, 0.450, 0.000], [0, 0, 0, 0], [ 9E9, 9E9, 9E9, 9E9, 9E9, 9E9] ], v30, fine, pen\WObj:=platform;
    MoveL [ [-0.717, -2.407, 49.745], [0.048, 0.892, 0.450, 0.000], [0, 0, 0, 0], [ 9E9, 9E9, 9E9, 9E9, 9E9, 9E9] ], v1000, fine, pen\WObj:=platform;
    
    !!1.5198745836416894, -6.825000000000001;
    MoveL [ [0.202, 16.541, 44.165], [0.241, 0.969, 0.055, 0.000], [0, 0, 0, 0], [ 9E9, 9E9, 9E9, 9E9, 9E9, 9E9] ], v1000, fine, pen\WObj:=platform;
    MoveL [ [1.520, -6.825, -0.020], [0.241, 0.969, 0.055, 0.000], [0, 0, 0, 0], [ 9E9, 9E9, 9E9, 9E9, 9E9, 9E9] ], v30, fine, pen\WObj:=platform;
    MoveL [ [0.202, 16.541, 44.165], [0.241, 0.969, 0.055, 0.000], [0, 0, 0, 0], [ 9E9, 9E9, 9E9, 9E9, 9E9, 9E9] ], v1000, fine, pen\WObj:=platform;
    
    !!0.05629165124598767, -4.290000000000001;
    MoveL [ [-9.196, -19.293, 46.770], [0.179, -0.837, 0.516, 0.000], [0, 0, 0, 0], [ 9E9, 9E9, 9E9, 9E9, 9E9, 9E9] ], v1000, fine, pen\WObj:=platform;
    MoveL [ [0.056, -4.290, -0.020], [0.179, -0.837, 0.516, 0.000], [0, 0, 0, 0], [ 9E9, 9E9, 9E9, 9E9, 9E9, 9E9] ], v30, fine, pen\WObj:=platform;
    MoveL [ [-9.196, -19.293, 46.770], [0.179, -0.837, 0.516, 0.000], [0, 0, 0, 0], [ 9E9, 9E9, 9E9, 9E9, 9E9, 9E9] ], v1000, fine, pen\WObj:=platform;
    
    !!1.5761662348876782, -6.922500000000001;
    MoveL [ [-3.606, 15.453, 44.392], [0.236, 0.947, 0.219, 0.000], [0, 0, 0, 0], [ 9E9, 9E9, 9E9, 9E9, 9E9, 9E9] ], v1000, fine, pen\WObj:=platform;
    MoveL [ [1.576, -6.923, -0.020], [0.236, 0.947, 0.219, 0.000], [0, 0, 0, 0], [ 9E9, 9E9, 9E9, 9E9, 9E9, 9E9] ], v30, fine, pen\WObj:=platform;
    MoveL [ [-3.606, 15.453, 44.392], [0.236, 0.947, 0.219, 0.000], [0, 0, 0, 0], [ 9E9, 9E9, 9E9, 9E9, 9E9, 9E9] ], v1000, fine, pen\WObj:=platform;
    
    !!1.6324578861336658, -7.0200000000000005;
    MoveL [ [-3.676, 15.591, 44.258], [0.239, 0.945, 0.222, 0.000], [0, 0, 0, 0], [ 9E9, 9E9, 9E9, 9E9, 9E9, 9E9] ], v1000, fine, pen\WObj:=platform;
    MoveL [ [1.632, -7.020, -0.020], [0.239, 0.945, 0.222, 0.000], [0, 0, 0, 0], [ 9E9, 9E9, 9E9, 9E9, 9E9, 9E9] ], v30, fine, pen\WObj:=platform;
    MoveL [ [-3.676, 15.591, 44.258], [0.239, 0.945, 0.222, 0.000], [0, 0, 0, 0], [ 9E9, 9E9, 9E9, 9E9, 9E9, 9E9] ], v1000, fine, pen\WObj:=platform;
    
    !!1.6887495373796557, -7.1175000000000015;
    MoveL [ [-5.769, -2.474, 49.202], [0.088, 0.527, 0.846, 0.000], [0, 0, 0, 0], [ 9E9, 9E9, 9E9, 9E9, 9E9, 9E9] ], v1000, fine, pen\WObj:=platform;
    MoveL [ [1.689, -7.118, -0.020], [0.088, 0.527, 0.846, 0.000], [0, 0, 0, 0], [ 9E9, 9E9, 9E9, 9E9, 9E9, 9E9] ], v30, fine, pen\WObj:=platform;
    MoveL [ [-5.769, -2.474, 49.202], [0.088, 0.527, 0.846, 0.000], [0, 0, 0, 0], [ 9E9, 9E9, 9E9, 9E9, 9E9, 9E9] ], v1000, fine, pen\WObj:=platform;
    
    !!1.7450411886256434, -7.215000000000002;
    MoveL [ [5.846, 14.995, 44.588], [0.232, 0.957, -0.177, 0.000], [0, 0, 0, 0], [ 9E9, 9E9, 9E9, 9E9, 9E9, 9E9] ], v1000, fine, pen\WObj:=platform;
    MoveL [ [1.745, -7.215, -0.020], [0.232, 0.957, -0.177, 0.000], [0, 0, 0, 0], [ 9E9, 9E9, 9E9, 9E9, 9E9, 9E9] ], v30, fine, pen\WObj:=platform;
    MoveL [ [5.846, 14.995, 44.588], [0.232, 0.957, -0.177, 0.000], [0, 0, 0, 0], [ 9E9, 9E9, 9E9, 9E9, 9E9, 9E9] ], v1000, fine, pen\WObj:=platform;
    
    !!1.8013328398716322, -7.312500000000001;
    MoveL [ [5.728, 15.291, 44.406], [0.236, 0.957, -0.166, 0.000], [0, 0, 0, 0], [ 9E9, 9E9, 9E9, 9E9, 9E9, 9E9] ], v1000, fine, pen\WObj:=platform;
    MoveL [ [1.801, -7.313, -0.020], [0.236, 0.957, -0.166, 0.000], [0, 0, 0, 0], [ 9E9, 9E9, 9E9, 9E9, 9E9, 9E9] ], v30, fine, pen\WObj:=platform;
    MoveL [ [5.728, 15.291, 44.406], [0.236, 0.957, -0.166, 0.000], [0, 0, 0, 0], [ 9E9, 9E9, 9E9, 9E9, 9E9, 9E9] ], v1000, fine, pen\WObj:=platform;
    
    !!1.857624491117621, -7.410000000000001;
    MoveL [ [-5.807, -2.036, 49.096], [0.094, 0.572, 0.815, 0.000], [0, 0, 0, 0], [ 9E9, 9E9, 9E9, 9E9, 9E9, 9E9] ], v1000, fine, pen\WObj:=platform;
    MoveL [ [1.858, -7.410, -0.020], [0.094, 0.572, 0.815, 0.000], [0, 0, 0, 0], [ 9E9, 9E9, 9E9, 9E9, 9E9, 9E9] ], v30, fine, pen\WObj:=platform;
    MoveL [ [-5.807, -2.036, 49.096], [0.094, 0.572, 0.815, 0.000], [0, 0, 0, 0], [ 9E9, 9E9, 9E9, 9E9, 9E9, 9E9] ], v1000, fine, pen\WObj:=platform;
    
    !!1.9139161423636097, -7.507500000000001;
    MoveL [ [-6.013, 13.524, 44.644], [0.231, 0.910, 0.343, 0.000], [0, 0, 0, 0], [ 9E9, 9E9, 9E9, 9E9, 9E9, 9E9] ], v1000, fine, pen\WObj:=platform;
    MoveL [ [1.914, -7.508, -0.020], [0.231, 0.910, 0.343, 0.000], [0, 0, 0, 0], [ 9E9, 9E9, 9E9, 9E9, 9E9, 9E9] ], v30, fine, pen\WObj:=platform;
    MoveL [ [-6.013, 13.524, 44.644], [0.231, 0.910, 0.343, 0.000], [0, 0, 0, 0], [ 9E9, 9E9, 9E9, 9E9, 9E9, 9E9] ], v1000, fine, pen\WObj:=platform;
    
    !!0.11258330249197757, -4.387500000000001;
    MoveL [ [-7.372, -24.614, 45.090], [0.221, -0.915, 0.338, 0.000], [0, 0, 0, 0], [ 9E9, 9E9, 9E9, 9E9, 9E9, 9E9] ], v1000, fine, pen\WObj:=platform;
    MoveL [ [0.113, -4.388, -0.020], [0.221, -0.915, 0.338, 0.000], [0, 0, 0, 0], [ 9E9, 9E9, 9E9, 9E9, 9E9, 9E9] ], v30, fine, pen\WObj:=platform;
    MoveL [ [-7.372, -24.614, 45.090], [0.221, -0.915, 0.338, 0.000], [0, 0, 0, 0], [ 9E9, 9E9, 9E9, 9E9, 9E9, 9E9] ], v1000, fine, pen\WObj:=platform;
    
    !!0.16887495373796635, -4.485;
    MoveL [ [-7.646, -13.640, 48.510], [0.121, -0.755, 0.644, 0.000], [0, 0, 0, 0], [ 9E9, 9E9, 9E9, 9E9, 9E9, 9E9] ], v1000, fine, pen\WObj:=platform;
    MoveL [ [0.169, -4.485, -0.020], [0.121, -0.755, 0.644, 0.000], [0, 0, 0, 0], [ 9E9, 9E9, 9E9, 9E9, 9E9, 9E9] ], v30, fine, pen\WObj:=platform;
    MoveL [ [-7.646, -13.640, 48.510], [0.121, -0.755, 0.644, 0.000], [0, 0, 0, 0], [ 9E9, 9E9, 9E9, 9E9, 9E9, 9E9] ], v1000, fine, pen\WObj:=platform;
    
    !!0.22516660498395402, -4.582500000000001;
    MoveL [ [-7.176, -2.208, 49.372], [0.078, 0.305, 0.949, 0.000], [0, 0, 0, 0], [ 9E9, 9E9, 9E9, 9E9, 9E9, 9E9] ], v1000, fine, pen\WObj:=platform;
    MoveL [ [0.225, -4.583, -0.020], [0.078, 0.305, 0.949, 0.000], [0, 0, 0, 0], [ 9E9, 9E9, 9E9, 9E9, 9E9, 9E9] ], v30, fine, pen\WObj:=platform;
    MoveL [ [-7.176, -2.208, 49.372], [0.078, 0.305, 0.949, 0.000], [0, 0, 0, 0], [ 9E9, 9E9, 9E9, 9E9, 9E9, 9E9] ], v1000, fine, pen\WObj:=platform;
    
    !!0.2814582562299428, -4.680000000000001;
    MoveL [ [-10.767, -1.324, 48.628], [0.116, 0.289, 0.950, 0.000], [0, 0, 0, 0], [ 9E9, 9E9, 9E9, 9E9, 9E9, 9E9] ], v1000, fine, pen\WObj:=platform;
    MoveL [ [0.281, -4.680, -0.020], [0.116, 0.289, 0.950, 0.000], [0, 0, 0, 0], [ 9E9, 9E9, 9E9, 9E9, 9E9, 9E9] ], v30, fine, pen\WObj:=platform;
    MoveL [ [-10.767, -1.324, 48.628], [0.116, 0.289, 0.950, 0.000], [0, 0, 0, 0], [ 9E9, 9E9, 9E9, 9E9, 9E9, 9E9] ], v1000, fine, pen\WObj:=platform;
    
    !!0.3377499074759305, -4.7775;
    MoveL [ [-1.242, -16.967, 48.446], [0.124, -0.984, 0.128, 0.000], [0, 0, 0, 0], [ 9E9, 9E9, 9E9, 9E9, 9E9, 9E9] ], v1000, fine, pen\WObj:=platform;
    MoveL [ [0.338, -4.777, -0.020], [0.124, -0.984, 0.128, 0.000], [0, 0, 0, 0], [ 9E9, 9E9, 9E9, 9E9, 9E9, 9E9] ], v30, fine, pen\WObj:=platform;
    MoveL [ [-1.242, -16.967, 48.446], [0.124, -0.984, 0.128, 0.000], [0, 0, 0, 0], [ 9E9, 9E9, 9E9, 9E9, 9E9, 9E9] ], v1000, fine, pen\WObj:=platform;
    
    !!0.39404155872191926, -4.875;
    MoveL [ [-10.782, -1.140, 48.572], [0.119, 0.315, 0.942, 0.000], [0, 0, 0, 0], [ 9E9, 9E9, 9E9, 9E9, 9E9, 9E9] ], v1000, fine, pen\WObj:=platform;
    MoveL [ [0.394, -4.875, -0.020], [0.119, 0.315, 0.942, 0.000], [0, 0, 0, 0], [ 9E9, 9E9, 9E9, 9E9, 9E9, 9E9] ], v30, fine, pen\WObj:=platform;
    MoveL [ [-10.782, -1.140, 48.572], [0.119, 0.315, 0.942, 0.000], [0, 0, 0, 0], [ 9E9, 9E9, 9E9, 9E9, 9E9, 9E9] ], v1000, fine, pen\WObj:=platform;
    
    !!-1.182124676165759, -3.9000000000000004;
    MoveL [ [-11.010, -12.660, 48.216], [0.133, -0.659, 0.740, 0.000], [0, 0, 0, 0], [ 9E9, 9E9, 9E9, 9E9, 9E9, 9E9] ], v1000, fine, pen\WObj:=platform;
    MoveL [ [-1.182, -3.900, -0.020], [0.133, -0.659, 0.740, 0.000], [0, 0, 0, 0], [ 9E9, 9E9, 9E9, 9E9, 9E9, 9E9] ], v30, fine, pen\WObj:=platform;
    MoveL [ [-11.010, -12.660, 48.216], [0.133, -0.659, 0.740, 0.000], [0, 0, 0, 0], [ 9E9, 9E9, 9E9, 9E9, 9E9, 9E9] ], v1000, fine, pen\WObj:=platform;
    
    !!-1.6887495373796557, -3.0225;
    MoveL [ [-4.562, -1.053, 49.859], [0.035, 0.565, 0.824, 0.000], [0, 0, 0, 0], [ 9E9, 9E9, 9E9, 9E9, 9E9, 9E9] ], v1000, fine, pen\WObj:=platform;
    MoveL [ [-1.689, -3.022, -0.020], [0.035, 0.565, 0.824, 0.000], [0, 0, 0, 0], [ 9E9, 9E9, 9E9, 9E9, 9E9, 9E9] ], v30, fine, pen\WObj:=platform;
    MoveL [ [-4.562, -1.053, 49.859], [0.035, 0.565, 0.824, 0.000], [0, 0, 0, 0], [ 9E9, 9E9, 9E9, 9E9, 9E9, 9E9] ], v1000, fine, pen\WObj:=platform;
    
    !!-1.745041188625644, -2.9250000000000007;
    MoveL [ [-4.535, -1.218, 49.873], [0.033, 0.522, 0.853, 0.000], [0, 0, 0, 0], [ 9E9, 9E9, 9E9, 9E9, 9E9, 9E9] ], v1000, fine, pen\WObj:=platform;
    MoveL [ [-1.745, -2.925, -0.020], [0.033, 0.522, 0.853, 0.000], [0, 0, 0, 0], [ 9E9, 9E9, 9E9, 9E9, 9E9, 9E9] ], v30, fine, pen\WObj:=platform;
    MoveL [ [-4.535, -1.218, 49.873], [0.033, 0.522, 0.853, 0.000], [0, 0, 0, 0], [ 9E9, 9E9, 9E9, 9E9, 9E9, 9E9] ], v1000, fine, pen\WObj:=platform;
    
    !!-1.8013328398716326, -2.8275000000000006;
    MoveL [ [-8.852, 10.975, 47.517], [0.157, 0.880, 0.449, 0.000], [0, 0, 0, 0], [ 9E9, 9E9, 9E9, 9E9, 9E9, 9E9] ], v1000, fine, pen\WObj:=platform;
    MoveL [ [-1.801, -2.828, -0.020], [0.157, 0.880, 0.449, 0.000], [0, 0, 0, 0], [ 9E9, 9E9, 9E9, 9E9, 9E9, 9E9] ], v30, fine, pen\WObj:=platform;
    MoveL [ [-8.852, 10.975, 47.517], [0.157, 0.880, 0.449, 0.000], [0, 0, 0, 0], [ 9E9, 9E9, 9E9, 9E9, 9E9, 9E9] ], v1000, fine, pen\WObj:=platform;
    
    !!-1.8576244911176216, -2.7300000000000004;
    MoveL [ [-9.775, -10.673, 48.706], [0.113, -0.704, 0.701, 0.000], [0, 0, 0, 0], [ 9E9, 9E9, 9E9, 9E9, 9E9, 9E9] ], v1000, fine, pen\WObj:=platform;
    MoveL [ [-1.858, -2.730, -0.020], [0.113, -0.704, 0.701, 0.000], [0, 0, 0, 0], [ 9E9, 9E9, 9E9, 9E9, 9E9, 9E9] ], v30, fine, pen\WObj:=platform;
    MoveL [ [-9.775, -10.673, 48.706], [0.113, -0.704, 0.701, 0.000], [0, 0, 0, 0], [ 9E9, 9E9, 9E9, 9E9, 9E9, 9E9] ], v1000, fine, pen\WObj:=platform;
    
    !!-1.9139161423636097, -2.632500000000001;
    MoveL [ [-9.770, -10.767, 48.684], [0.114, -0.715, 0.690, 0.000], [0, 0, 0, 0], [ 9E9, 9E9, 9E9, 9E9, 9E9, 9E9] ], v1000, fine, pen\WObj:=platform;
    MoveL [ [-1.914, -2.633, -0.020], [0.114, -0.715, 0.690, 0.000], [0, 0, 0, 0], [ 9E9, 9E9, 9E9, 9E9, 9E9, 9E9] ], v30, fine, pen\WObj:=platform;
    MoveL [ [-9.770, -10.767, 48.684], [0.114, -0.715, 0.690, 0.000], [0, 0, 0, 0], [ 9E9, 9E9, 9E9, 9E9, 9E9, 9E9] ], v1000, fine, pen\WObj:=platform;
    
    !!-1.9702077936095979, -2.5350000000000006;
    MoveL [ [-6.150, -2.739, 49.805], [0.042, -0.049, 0.998, 0.000], [0, 0, 0, 0], [ 9E9, 9E9, 9E9, 9E9, 9E9, 9E9] ], v1000, fine, pen\WObj:=platform;
    MoveL [ [-1.970, -2.535, -0.020], [0.042, -0.049, 0.998, 0.000], [0, 0, 0, 0], [ 9E9, 9E9, 9E9, 9E9, 9E9, 9E9] ], v30, fine, pen\WObj:=platform;
    MoveL [ [-6.150, -2.739, 49.805], [0.042, -0.049, 0.998, 0.000], [0, 0, 0, 0], [ 9E9, 9E9, 9E9, 9E9, 9E9, 9E9] ], v1000, fine, pen\WObj:=platform;
    
    !!-2.026499444855587, -2.4375;
    MoveL [ [-6.128, -2.884, 49.809], [0.041, -0.108, 0.993, 0.000], [0, 0, 0, 0], [ 9E9, 9E9, 9E9, 9E9, 9E9, 9E9] ], v1000, fine, pen\WObj:=platform;
    MoveL [ [-2.026, -2.438, -0.020], [0.041, -0.108, 0.993, 0.000], [0, 0, 0, 0], [ 9E9, 9E9, 9E9, 9E9, 9E9, 9E9] ], v30, fine, pen\WObj:=platform;
    MoveL [ [-6.128, -2.884, 49.809], [0.041, -0.108, 0.993, 0.000], [0, 0, 0, 0], [ 9E9, 9E9, 9E9, 9E9, 9E9, 9E9] ], v1000, fine, pen\WObj:=platform;
    
    !!-2.082791096101575, -2.3400000000000007;
    MoveL [ [1.996, 5.708, 49.159], [0.091, 0.888, -0.450, 0.000], [0, 0, 0, 0], [ 9E9, 9E9, 9E9, 9E9, 9E9, 9E9] ], v1000, fine, pen\WObj:=platform;
    MoveL [ [-2.083, -2.340, -0.020], [0.091, 0.888, -0.450, 0.000], [0, 0, 0, 0], [ 9E9, 9E9, 9E9, 9E9, 9E9, 9E9] ], v30, fine, pen\WObj:=platform;
    MoveL [ [1.996, 5.708, 49.159], [0.091, 0.888, -0.450, 0.000], [0, 0, 0, 0], [ 9E9, 9E9, 9E9, 9E9, 9E9, 9E9] ], v1000, fine, pen\WObj:=platform;
    
    !!-2.1390827473475635, -2.2424999999999997;
    MoveL [ [-7.868, -12.060, 48.671], [0.114, -0.858, 0.501, 0.000], [0, 0, 0, 0], [ 9E9, 9E9, 9E9, 9E9, 9E9, 9E9] ], v1000, fine, pen\WObj:=platform;
    MoveL [ [-2.139, -2.242, -0.020], [0.114, -0.858, 0.501, 0.000], [0, 0, 0, 0], [ 9E9, 9E9, 9E9, 9E9, 9E9, 9E9] ], v30, fine, pen\WObj:=platform;
    MoveL [ [-7.868, -12.060, 48.671], [0.114, -0.858, 0.501, 0.000], [0, 0, 0, 0], [ 9E9, 9E9, 9E9, 9E9, 9E9, 9E9] ], v1000, fine, pen\WObj:=platform;
    
    !!-2.195374398593552, -2.1450000000000005;
    MoveL [ [-7.863, -12.168, 48.636], [0.116, -0.865, 0.489, 0.000], [0, 0, 0, 0], [ 9E9, 9E9, 9E9, 9E9, 9E9, 9E9] ], v1000, fine, pen\WObj:=platform;
    MoveL [ [-2.195, -2.145, -0.020], [0.116, -0.865, 0.489, 0.000], [0, 0, 0, 0], [ 9E9, 9E9, 9E9, 9E9, 9E9, 9E9] ], v30, fine, pen\WObj:=platform;
    MoveL [ [-7.863, -12.168, 48.636], [0.116, -0.865, 0.489, 0.000], [0, 0, 0, 0], [ 9E9, 9E9, 9E9, 9E9, 9E9, 9E9] ], v1000, fine, pen\WObj:=platform;
    
    !!-1.238416327411747, -3.802500000000001;
    MoveL [ [-9.824, -9.619, 48.893], [0.104, -0.558, 0.823, 0.000], [0, 0, 0, 0], [ 9E9, 9E9, 9E9, 9E9, 9E9, 9E9] ], v1000, fine, pen\WObj:=platform;
    MoveL [ [-1.238, -3.803, -0.020], [0.104, -0.558, 0.823, 0.000], [0, 0, 0, 0], [ 9E9, 9E9, 9E9, 9E9, 9E9, 9E9] ], v30, fine, pen\WObj:=platform;
    MoveL [ [-9.824, -9.619, 48.893], [0.104, -0.558, 0.823, 0.000], [0, 0, 0, 0], [ 9E9, 9E9, 9E9, 9E9, 9E9, 9E9] ], v1000, fine, pen\WObj:=platform;
    
    !!-2.25166604983954, -2.0475;
    MoveL [ [-8.245, -16.375, 47.507], [0.157, -0.911, 0.381, 0.000], [0, 0, 0, 0], [ 9E9, 9E9, 9E9, 9E9, 9E9, 9E9] ], v1000, fine, pen\WObj:=platform;
    MoveL [ [-2.252, -2.047, -0.020], [0.157, -0.911, 0.381, 0.000], [0, 0, 0, 0], [ 9E9, 9E9, 9E9, 9E9, 9E9, 9E9] ], v30, fine, pen\WObj:=platform;
    MoveL [ [-8.245, -16.375, 47.507], [0.157, -0.911, 0.381, 0.000], [0, 0, 0, 0], [ 9E9, 9E9, 9E9, 9E9, 9E9, 9E9] ], v1000, fine, pen\WObj:=platform;
    
    !!-2.3079577010855292, -1.9500000000000006;
    MoveL [ [-5.975, -14.605, 48.213], [0.133, -0.952, 0.276, 0.000], [0, 0, 0, 0], [ 9E9, 9E9, 9E9, 9E9, 9E9, 9E9] ], v1000, fine, pen\WObj:=platform;
    MoveL [ [-2.308, -1.950, -0.020], [0.133, -0.952, 0.276, 0.000], [0, 0, 0, 0], [ 9E9, 9E9, 9E9, 9E9, 9E9, 9E9] ], v30, fine, pen\WObj:=platform;
    MoveL [ [-5.975, -14.605, 48.213], [0.133, -0.952, 0.276, 0.000], [0, 0, 0, 0], [ 9E9, 9E9, 9E9, 9E9, 9E9, 9E9] ], v1000, fine, pen\WObj:=platform;
    
    !!-2.364249352331518, -1.8525000000000003;
    MoveL [ [4.200, -13.978, 48.041], [0.139, -0.871, -0.471, 0.000], [0, 0, 0, 0], [ 9E9, 9E9, 9E9, 9E9, 9E9, 9E9] ], v1000, fine, pen\WObj:=platform;
    MoveL [ [-2.364, -1.853, -0.020], [0.139, -0.871, -0.471, 0.000], [0, 0, 0, 0], [ 9E9, 9E9, 9E9, 9E9, 9E9, 9E9] ], v30, fine, pen\WObj:=platform;
    MoveL [ [4.200, -13.978, 48.041], [0.139, -0.871, -0.471, 0.000], [0, 0, 0, 0], [ 9E9, 9E9, 9E9, 9E9, 9E9, 9E9] ], v1000, fine, pen\WObj:=platform;
    
    !!-2.420541003577506, -1.755000000000001;
    MoveL [ [4.167, -14.209, 47.954], [0.142, -0.875, -0.463, 0.000], [0, 0, 0, 0], [ 9E9, 9E9, 9E9, 9E9, 9E9, 9E9] ], v1000, fine, pen\WObj:=platform;
    MoveL [ [-2.421, -1.755, -0.020], [0.142, -0.875, -0.463, 0.000], [0, 0, 0, 0], [ 9E9, 9E9, 9E9, 9E9, 9E9, 9E9] ], v30, fine, pen\WObj:=platform;
    MoveL [ [4.167, -14.209, 47.954], [0.142, -0.875, -0.463, 0.000], [0, 0, 0, 0], [ 9E9, 9E9, 9E9, 9E9, 9E9, 9E9] ], v1000, fine, pen\WObj:=platform;
    
    !!-2.476832654823495, -1.6574999999999995;
    MoveL [ [-3.144, -23.309, 45.044], [0.222, -0.975, 0.030, 0.000], [0, 0, 0, 0], [ 9E9, 9E9, 9E9, 9E9, 9E9, 9E9] ], v1000, fine, pen\WObj:=platform;
    MoveL [ [-2.477, -1.657, -0.020], [0.222, -0.975, 0.030, 0.000], [0, 0, 0, 0], [ 9E9, 9E9, 9E9, 9E9, 9E9, 9E9] ], v30, fine, pen\WObj:=platform;
    MoveL [ [-3.144, -23.309, 45.044], [0.222, -0.975, 0.030, 0.000], [0, 0, 0, 0], [ 9E9, 9E9, 9E9, 9E9, 9E9, 9E9] ], v1000, fine, pen\WObj:=platform;
    
    !!-2.533124306069483, -1.5600000000000003;
    MoveL [ [-3.172, -23.406, 44.951], [0.224, -0.974, 0.028, 0.000], [0, 0, 0, 0], [ 9E9, 9E9, 9E9, 9E9, 9E9, 9E9] ], v1000, fine, pen\WObj:=platform;
    MoveL [ [-2.533, -1.560, -0.020], [0.224, -0.974, 0.028, 0.000], [0, 0, 0, 0], [ 9E9, 9E9, 9E9, 9E9, 9E9, 9E9] ], v30, fine, pen\WObj:=platform;
    MoveL [ [-3.172, -23.406, 44.951], [0.224, -0.974, 0.028, 0.000], [0, 0, 0, 0], [ 9E9, 9E9, 9E9, 9E9, 9E9, 9E9] ], v1000, fine, pen\WObj:=platform;
    
    !!-2.589415957315471, -1.4625;
    MoveL [ [-3.200, -23.501, 44.857], [0.226, -0.974, 0.027, 0.000], [0, 0, 0, 0], [ 9E9, 9E9, 9E9, 9E9, 9E9, 9E9] ], v1000, fine, pen\WObj:=platform;
    MoveL [ [-2.589, -1.462, -0.020], [0.226, -0.974, 0.027, 0.000], [0, 0, 0, 0], [ 9E9, 9E9, 9E9, 9E9, 9E9, 9E9] ], v30, fine, pen\WObj:=platform;
    MoveL [ [-3.200, -23.501, 44.857], [0.226, -0.974, 0.027, 0.000], [0, 0, 0, 0], [ 9E9, 9E9, 9E9, 9E9, 9E9, 9E9] ], v1000, fine, pen\WObj:=platform;
    
    !!-2.6457076085614597, -1.3650000000000007;
    MoveL [ [-5.065, -12.619, 48.637], [0.116, -0.971, 0.209, 0.000], [0, 0, 0, 0], [ 9E9, 9E9, 9E9, 9E9, 9E9, 9E9] ], v1000, fine, pen\WObj:=platform;
    MoveL [ [-2.646, -1.365, -0.020], [0.116, -0.971, 0.209, 0.000], [0, 0, 0, 0], [ 9E9, 9E9, 9E9, 9E9, 9E9, 9E9] ], v30, fine, pen\WObj:=platform;
    MoveL [ [-5.065, -12.619, 48.637], [0.116, -0.971, 0.209, 0.000], [0, 0, 0, 0], [ 9E9, 9E9, 9E9, 9E9, 9E9, 9E9] ], v1000, fine, pen\WObj:=platform;
    
    !!-2.701999259807449, -1.2675000000000003;
    MoveL [ [-5.180, -6.096, 49.685], [0.054, -0.888, 0.456, 0.000], [0, 0, 0, 0], [ 9E9, 9E9, 9E9, 9E9, 9E9, 9E9] ], v1000, fine, pen\WObj:=platform;
    MoveL [ [-2.702, -1.268, -0.020], [0.054, -0.888, 0.456, 0.000], [0, 0, 0, 0], [ 9E9, 9E9, 9E9, 9E9, 9E9, 9E9] ], v30, fine, pen\WObj:=platform;
    MoveL [ [-5.180, -6.096, 49.685], [0.054, -0.888, 0.456, 0.000], [0, 0, 0, 0], [ 9E9, 9E9, 9E9, 9E9, 9E9, 9E9] ], v1000, fine, pen\WObj:=platform;
    
    !!-2.7582909110534377, -1.170000000000001;
    MoveL [ [-10.733, 4.349, 49.030], [0.097, 0.566, 0.818, 0.000], [0, 0, 0, 0], [ 9E9, 9E9, 9E9, 9E9, 9E9, 9E9] ], v1000, fine, pen\WObj:=platform;
    MoveL [ [-2.758, -1.170, -0.020], [0.097, 0.566, 0.818, 0.000], [0, 0, 0, 0], [ 9E9, 9E9, 9E9, 9E9, 9E9, 9E9] ], v30, fine, pen\WObj:=platform;
    MoveL [ [-10.733, 4.349, 49.030], [0.097, 0.566, 0.818, 0.000], [0, 0, 0, 0], [ 9E9, 9E9, 9E9, 9E9, 9E9, 9E9] ], v1000, fine, pen\WObj:=platform;
    
    !!-1.2947079786577353, -3.7050000000000005;
    MoveL [ [-5.950, -12.393, 48.999], [0.099, -0.877, 0.470, 0.000], [0, 0, 0, 0], [ 9E9, 9E9, 9E9, 9E9, 9E9, 9E9] ], v1000, fine, pen\WObj:=platform;
    MoveL [ [-1.295, -3.705, -0.020], [0.099, -0.877, 0.470, 0.000], [0, 0, 0, 0], [ 9E9, 9E9, 9E9, 9E9, 9E9, 9E9] ], v30, fine, pen\WObj:=platform;
    MoveL [ [-5.950, -12.393, 48.999], [0.099, -0.877, 0.470, 0.000], [0, 0, 0, 0], [ 9E9, 9E9, 9E9, 9E9, 9E9, 9E9] ], v1000, fine, pen\WObj:=platform;
    
    !!-2.814582562299426, -1.0724999999999996;
    MoveL [ [-3.870, -7.267, 49.584], [0.063, -0.984, 0.168, 0.000], [0, 0, 0, 0], [ 9E9, 9E9, 9E9, 9E9, 9E9, 9E9] ], v1000, fine, pen\WObj:=platform;
    MoveL [ [-2.815, -1.072, -0.020], [0.063, -0.984, 0.168, 0.000], [0, 0, 0, 0], [ 9E9, 9E9, 9E9, 9E9, 9E9, 9E9] ], v30, fine, pen\WObj:=platform;
    MoveL [ [-3.870, -7.267, 49.584], [0.063, -0.984, 0.168, 0.000], [0, 0, 0, 0], [ 9E9, 9E9, 9E9, 9E9, 9E9, 9E9] ], v1000, fine, pen\WObj:=platform;
    
    !!-1.3509996299037241, -3.6075;
    MoveL [ [-11.263, 4.663, 48.285], [0.130, 0.635, 0.761, 0.000], [0, 0, 0, 0], [ 9E9, 9E9, 9E9, 9E9, 9E9, 9E9] ], v1000, fine, pen\WObj:=platform;
    MoveL [ [-1.351, -3.607, -0.020], [0.130, 0.635, 0.761, 0.000], [0, 0, 0, 0], [ 9E9, 9E9, 9E9, 9E9, 9E9, 9E9] ], v30, fine, pen\WObj:=platform;
    MoveL [ [-11.263, 4.663, 48.285], [0.130, 0.635, 0.761, 0.000], [0, 0, 0, 0], [ 9E9, 9E9, 9E9, 9E9, 9E9, 9E9] ], v1000, fine, pen\WObj:=platform;
    
    !!-1.4072912811497122, -3.51;
    MoveL [ [-6.123, 1.741, 49.479], [0.071, 0.742, 0.666, 0.000], [0, 0, 0, 0], [ 9E9, 9E9, 9E9, 9E9, 9E9, 9E9] ], v1000, fine, pen\WObj:=platform;
    MoveL [ [-1.407, -3.510, -0.020], [0.071, 0.742, 0.666, 0.000], [0, 0, 0, 0], [ 9E9, 9E9, 9E9, 9E9, 9E9, 9E9] ], v30, fine, pen\WObj:=platform;
    MoveL [ [-6.123, 1.741, 49.479], [0.071, 0.742, 0.666, 0.000], [0, 0, 0, 0], [ 9E9, 9E9, 9E9, 9E9, 9E9, 9E9] ], v1000, fine, pen\WObj:=platform;
    
    !!-1.4635829323957006, -3.4125000000000005;
    MoveL [ [-11.229, 4.482, 48.377], [0.127, 0.624, 0.771, 0.000], [0, 0, 0, 0], [ 9E9, 9E9, 9E9, 9E9, 9E9, 9E9] ], v1000, fine, pen\WObj:=platform;
    MoveL [ [-1.464, -3.413, -0.020], [0.127, 0.624, 0.771, 0.000], [0, 0, 0, 0], [ 9E9, 9E9, 9E9, 9E9, 9E9, 9E9] ], v30, fine, pen\WObj:=platform;
    MoveL [ [-11.229, 4.482, 48.377], [0.127, 0.624, 0.771, 0.000], [0, 0, 0, 0], [ 9E9, 9E9, 9E9, 9E9, 9E9, 9E9] ], v1000, fine, pen\WObj:=platform;
    
    !!-1.5198745836416898, -3.3150000000000004;
    MoveL [ [-4.642, -0.559, 49.806], [0.042, 0.661, 0.749, 0.000], [0, 0, 0, 0], [ 9E9, 9E9, 9E9, 9E9, 9E9, 9E9] ], v1000, fine, pen\WObj:=platform;
    MoveL [ [-1.520, -3.315, -0.020], [0.042, 0.661, 0.749, 0.000], [0, 0, 0, 0], [ 9E9, 9E9, 9E9, 9E9, 9E9, 9E9] ], v30, fine, pen\WObj:=platform;
    MoveL [ [-4.642, -0.559, 49.806], [0.042, 0.661, 0.749, 0.000], [0, 0, 0, 0], [ 9E9, 9E9, 9E9, 9E9, 9E9, 9E9] ], v1000, fine, pen\WObj:=platform;
    
    !!-1.5761662348876782, -3.217500000000001;
    MoveL [ [-3.876, 0.160, 49.813], [0.041, 0.826, 0.562, 0.000], [0, 0, 0, 0], [ 9E9, 9E9, 9E9, 9E9, 9E9, 9E9] ], v1000, fine, pen\WObj:=platform;
    MoveL [ [-1.576, -3.218, -0.020], [0.041, 0.826, 0.562, 0.000], [0, 0, 0, 0], [ 9E9, 9E9, 9E9, 9E9, 9E9, 9E9] ], v30, fine, pen\WObj:=platform;
    MoveL [ [-3.876, 0.160, 49.813], [0.041, 0.826, 0.562, 0.000], [0, 0, 0, 0], [ 9E9, 9E9, 9E9, 9E9, 9E9, 9E9] ], v1000, fine, pen\WObj:=platform;
    
    !!-1.6324578861336665, -3.119999999999999;
    MoveL [ [-8.972, 11.303, 47.289], [0.164, 0.879, 0.447, 0.000], [0, 0, 0, 0], [ 9E9, 9E9, 9E9, 9E9, 9E9, 9E9] ], v1000, fine, pen\WObj:=platform;
    MoveL [ [-1.632, -3.120, -0.020], [0.164, 0.879, 0.447, 0.000], [0, 0, 0, 0], [ 9E9, 9E9, 9E9, 9E9, 9E9, 9E9] ], v30, fine, pen\WObj:=platform;
    MoveL [ [-8.972, 11.303, 47.289], [0.164, 0.879, 0.447, 0.000], [0, 0, 0, 0], [ 9E9, 9E9, 9E9, 9E9, 9E9, 9E9] ], v1000, fine, pen\WObj:=platform;
    
    !!-1.12583302491977, -3.9975000000000005;
    MoveL [ [-9.310, 12.231, 46.559], [0.185, 0.877, 0.443, 0.000], [0, 0, 0, 0], [ 9E9, 9E9, 9E9, 9E9, 9E9, 9E9] ], v1000, fine, pen\WObj:=platform;
    MoveL [ [-1.126, -3.998, -0.020], [0.185, 0.877, 0.443, 0.000], [0, 0, 0, 0], [ 9E9, 9E9, 9E9, 9E9, 9E9, 9E9] ], v30, fine, pen\WObj:=platform;
    MoveL [ [-9.310, 12.231, 46.559], [0.185, 0.877, 0.443, 0.000], [0, 0, 0, 0], [ 9E9, 9E9, 9E9, 9E9, 9E9, 9E9] ], v1000, fine, pen\WObj:=platform;
    
    !!-1.0695413736737818, -4.095;
    MoveL [ [-9.346, 12.329, 46.475], [0.187, 0.877, 0.442, 0.000], [0, 0, 0, 0], [ 9E9, 9E9, 9E9, 9E9, 9E9, 9E9] ], v1000, fine, pen\WObj:=platform;
    MoveL [ [-1.070, -4.095, -0.020], [0.187, 0.877, 0.442, 0.000], [0, 0, 0, 0], [ 9E9, 9E9, 9E9, 9E9, 9E9, 9E9] ], v30, fine, pen\WObj:=platform;
    MoveL [ [-9.346, 12.329, 46.475], [0.187, 0.877, 0.442, 0.000], [0, 0, 0, 0], [ 9E9, 9E9, 9E9, 9E9, 9E9, 9E9] ], v1000, fine, pen\WObj:=platform;
    
    !!-0.5629165124598845, -4.972500000000001;
    MoveL [ [-3.795, -0.611, 49.684], [0.054, 0.802, 0.594, 0.000], [0, 0, 0, 0], [ 9E9, 9E9, 9E9, 9E9, 9E9, 9E9] ], v1000, fine, pen\WObj:=platform;
    MoveL [ [-0.563, -4.973, -0.020], [0.054, 0.802, 0.594, 0.000], [0, 0, 0, 0], [ 9E9, 9E9, 9E9, 9E9, 9E9, 9E9] ], v30, fine, pen\WObj:=platform;
    MoveL [ [-3.795, -0.611, 49.684], [0.054, 0.802, 0.594, 0.000], [0, 0, 0, 0], [ 9E9, 9E9, 9E9, 9E9, 9E9, 9E9] ], v1000, fine, pen\WObj:=platform;
    
    !!-0.5066248612138968, -5.070000000000001;
    MoveL [ [-0.790, -16.026, 48.764], [0.110, -0.994, 0.026, 0.000], [0, 0, 0, 0], [ 9E9, 9E9, 9E9, 9E9, 9E9, 9E9] ], v1000, fine, pen\WObj:=platform;
    MoveL [ [-0.507, -5.070, -0.020], [0.110, -0.994, 0.026, 0.000], [0, 0, 0, 0], [ 9E9, 9E9, 9E9, 9E9, 9E9, 9E9] ], v30, fine, pen\WObj:=platform;
    MoveL [ [-0.790, -16.026, 48.764], [0.110, -0.994, 0.026, 0.000], [0, 0, 0, 0], [ 9E9, 9E9, 9E9, 9E9, 9E9, 9E9] ], v1000, fine, pen\WObj:=platform;
    
    !!-0.45033320996790804, -5.1675;
    MoveL [ [-3.211, -8.190, 49.812], [0.041, -0.738, 0.674, 0.000], [0, 0, 0, 0], [ 9E9, 9E9, 9E9, 9E9, 9E9, 9E9] ], v1000, fine, pen\WObj:=platform;
    MoveL [ [-0.450, -5.168, -0.020], [0.041, -0.738, 0.674, 0.000], [0, 0, 0, 0], [ 9E9, 9E9, 9E9, 9E9, 9E9, 9E9] ], v30, fine, pen\WObj:=platform;
    MoveL [ [-3.211, -8.190, 49.812], [0.041, -0.738, 0.674, 0.000], [0, 0, 0, 0], [ 9E9, 9E9, 9E9, 9E9, 9E9, 9E9] ], v1000, fine, pen\WObj:=platform;
    
    !!-0.39404155872191926, -5.265;
    MoveL [ [-4.608, -14.741, 48.893], [0.104, -0.909, 0.404, 0.000], [0, 0, 0, 0], [ 9E9, 9E9, 9E9, 9E9, 9E9, 9E9] ], v1000, fine, pen\WObj:=platform;
    MoveL [ [-0.394, -5.265, -0.020], [0.104, -0.909, 0.404, 0.000], [0, 0, 0, 0], [ 9E9, 9E9, 9E9, 9E9, 9E9, 9E9] ], v30, fine, pen\WObj:=platform;
    MoveL [ [-4.608, -14.741, 48.893], [0.104, -0.909, 0.404, 0.000], [0, 0, 0, 0], [ 9E9, 9E9, 9E9, 9E9, 9E9, 9E9] ], v1000, fine, pen\WObj:=platform;
    
    !!-0.3377499074759316, -5.362500000000001;
    MoveL [ [2.908, -21.001, 47.360], [0.162, -0.966, -0.201, 0.000], [0, 0, 0, 0], [ 9E9, 9E9, 9E9, 9E9, 9E9, 9E9] ], v1000, fine, pen\WObj:=platform;
    MoveL [ [-0.338, -5.363, -0.020], [0.162, -0.966, -0.201, 0.000], [0, 0, 0, 0], [ 9E9, 9E9, 9E9, 9E9, 9E9, 9E9] ], v30, fine, pen\WObj:=platform;
    MoveL [ [2.908, -21.001, 47.360], [0.162, -0.966, -0.201, 0.000], [0, 0, 0, 0], [ 9E9, 9E9, 9E9, 9E9, 9E9, 9E9] ], v1000, fine, pen\WObj:=platform;
    
    !!-0.2814582562299428, -5.460000000000001;
    MoveL [ [-7.502, -0.099, 49.165], [0.090, 0.594, 0.800, 0.000], [0, 0, 0, 0], [ 9E9, 9E9, 9E9, 9E9, 9E9, 9E9] ], v1000, fine, pen\WObj:=platform;
    MoveL [ [-0.281, -5.460, -0.020], [0.090, 0.594, 0.800, 0.000], [0, 0, 0, 0], [ 9E9, 9E9, 9E9, 9E9, 9E9, 9E9] ], v30, fine, pen\WObj:=platform;
    MoveL [ [-7.502, -0.099, 49.165], [0.090, 0.594, 0.800, 0.000], [0, 0, 0, 0], [ 9E9, 9E9, 9E9, 9E9, 9E9, 9E9] ], v1000, fine, pen\WObj:=platform;
    
    !!-0.22516660498395402, -5.557500000000001;
    MoveL [ [-7.518, 0.028, 49.129], [0.092, 0.605, 0.791, 0.000], [0, 0, 0, 0], [ 9E9, 9E9, 9E9, 9E9, 9E9, 9E9] ], v1000, fine, pen\WObj:=platform;
    MoveL [ [-0.225, -5.558, -0.020], [0.092, 0.605, 0.791, 0.000], [0, 0, 0, 0], [ 9E9, 9E9, 9E9, 9E9, 9E9, 9E9] ], v30, fine, pen\WObj:=platform;
    MoveL [ [-7.518, 0.028, 49.129], [0.092, 0.605, 0.791, 0.000], [0, 0, 0, 0], [ 9E9, 9E9, 9E9, 9E9, 9E9, 9E9] ], v1000, fine, pen\WObj:=platform;
    
    !!-0.16887495373796524, -5.655000000000001;
    MoveL [ [-7.534, 0.154, 49.092], [0.094, 0.616, 0.782, 0.000], [0, 0, 0, 0], [ 9E9, 9E9, 9E9, 9E9, 9E9, 9E9] ], v1000, fine, pen\WObj:=platform;
    MoveL [ [-0.169, -5.655, -0.020], [0.094, 0.616, 0.782, 0.000], [0, 0, 0, 0], [ 9E9, 9E9, 9E9, 9E9, 9E9, 9E9] ], v30, fine, pen\WObj:=platform;
    MoveL [ [-7.534, 0.154, 49.092], [0.094, 0.616, 0.782, 0.000], [0, 0, 0, 0], [ 9E9, 9E9, 9E9, 9E9, 9E9, 9E9] ], v1000, fine, pen\WObj:=platform;
    
    !!-0.11258330249197757, -5.752500000000001;
    MoveL [ [-7.550, 0.279, 49.054], [0.096, 0.627, 0.773, 0.000], [0, 0, 0, 0], [ 9E9, 9E9, 9E9, 9E9, 9E9, 9E9] ], v1000, fine, pen\WObj:=platform;
    MoveL [ [-0.113, -5.753, -0.020], [0.096, 0.627, 0.773, 0.000], [0, 0, 0, 0], [ 9E9, 9E9, 9E9, 9E9, 9E9, 9E9] ], v30, fine, pen\WObj:=platform;
    MoveL [ [-7.550, 0.279, 49.054], [0.096, 0.627, 0.773, 0.000], [0, 0, 0, 0], [ 9E9, 9E9, 9E9, 9E9, 9E9, 9E9] ], v1000, fine, pen\WObj:=platform;
    
    !!-0.05629165124598767, -5.8500000000000005;
    MoveL [ [-3.761, -11.742, 49.493], [0.070, -0.844, 0.531, 0.000], [0, 0, 0, 0], [ 9E9, 9E9, 9E9, 9E9, 9E9, 9E9] ], v1000, fine, pen\WObj:=platform;
    MoveL [ [-0.056, -5.850, -0.020], [0.070, -0.844, 0.531, 0.000], [0, 0, 0, 0], [ 9E9, 9E9, 9E9, 9E9, 9E9, 9E9] ], v30, fine, pen\WObj:=platform;
    MoveL [ [-3.761, -11.742, 49.493], [0.070, -0.844, 0.531, 0.000], [0, 0, 0, 0], [ 9E9, 9E9, 9E9, 9E9, 9E9, 9E9] ], v1000, fine, pen\WObj:=platform;
    
    !!-1.0132497224277937, -4.192500000000001;
    MoveL [ [-9.381, 12.426, 46.389], [0.189, 0.877, 0.442, 0.000], [0, 0, 0, 0], [ 9E9, 9E9, 9E9, 9E9, 9E9, 9E9] ], v1000, fine, pen\WObj:=platform;
    MoveL [ [-1.013, -4.193, -0.020], [0.189, 0.877, 0.442, 0.000], [0, 0, 0, 0], [ 9E9, 9E9, 9E9, 9E9, 9E9, 9E9] ], v30, fine, pen\WObj:=platform;
    MoveL [ [-9.381, 12.426, 46.389], [0.189, 0.877, 0.442, 0.000], [0, 0, 0, 0], [ 9E9, 9E9, 9E9, 9E9, 9E9, 9E9] ], v1000, fine, pen\WObj:=platform;
    
    !!0, -5.9475;
    MoveL [ [-3.752, -11.586, 49.519], [0.068, -0.831, 0.553, 0.000], [0, 0, 0, 0], [ 9E9, 9E9, 9E9, 9E9, 9E9, 9E9] ], v1000, fine, pen\WObj:=platform;
    MoveL [ [0.000, -5.947, -0.020], [0.068, -0.831, 0.553, 0.000], [0, 0, 0, 0], [ 9E9, 9E9, 9E9, 9E9, 9E9, 9E9] ], v30, fine, pen\WObj:=platform;
    MoveL [ [-3.752, -11.586, 49.519], [0.068, -0.831, 0.553, 0.000], [0, 0, 0, 0], [ 9E9, 9E9, 9E9, 9E9, 9E9, 9E9] ], v1000, fine, pen\WObj:=platform;
    
    !!0.05629165124598989, -6.045000000000002;
    MoveL [ [-3.744, -11.428, 49.544], [0.066, -0.815, 0.575, 0.000], [0, 0, 0, 0], [ 9E9, 9E9, 9E9, 9E9, 9E9, 9E9] ], v1000, fine, pen\WObj:=platform;
    MoveL [ [0.056, -6.045, -0.020], [0.066, -0.815, 0.575, 0.000], [0, 0, 0, 0], [ 9E9, 9E9, 9E9, 9E9, 9E9, 9E9] ], v30, fine, pen\WObj:=platform;
    MoveL [ [-3.744, -11.428, 49.544], [0.066, -0.815, 0.575, 0.000], [0, 0, 0, 0], [ 9E9, 9E9, 9E9, 9E9, 9E9, 9E9] ], v1000, fine, pen\WObj:=platform;
    
    !!0.11258330249197757, -6.142500000000001;
    MoveL [ [-10.404, -6.574, 48.860], [0.106, -0.041, 0.994, 0.000], [0, 0, 0, 0], [ 9E9, 9E9, 9E9, 9E9, 9E9, 9E9] ], v1000, fine, pen\WObj:=platform;
    MoveL [ [0.113, -6.143, -0.020], [0.106, -0.041, 0.994, 0.000], [0, 0, 0, 0], [ 9E9, 9E9, 9E9, 9E9, 9E9, 9E9] ], v30, fine, pen\WObj:=platform;
    MoveL [ [-10.404, -6.574, 48.860], [0.106, -0.041, 0.994, 0.000], [0, 0, 0, 0], [ 9E9, 9E9, 9E9, 9E9, 9E9, 9E9] ], v1000, fine, pen\WObj:=platform;
    
    !!0.16887495373796635, -6.240000000000001;
    MoveL [ [0.216, -6.507, 49.979], [0.003, -0.985, -0.172, 0.000], [0, 0, 0, 0], [ 9E9, 9E9, 9E9, 9E9, 9E9, 9E9] ], v1000, fine, pen\WObj:=platform;
    MoveL [ [0.169, -6.240, -0.020], [0.003, -0.985, -0.172, 0.000], [0, 0, 0, 0], [ 9E9, 9E9, 9E9, 9E9, 9E9, 9E9] ], v30, fine, pen\WObj:=platform;
    MoveL [ [0.216, -6.507, 49.979], [0.003, -0.985, -0.172, 0.000], [0, 0, 0, 0], [ 9E9, 9E9, 9E9, 9E9, 9E9, 9E9] ], v1000, fine, pen\WObj:=platform;
    
    !!0.22516660498395402, -6.3375;
    MoveL [ [7.022, 11.455, 46.210], [0.194, 0.916, -0.350, 0.000], [0, 0, 0, 0], [ 9E9, 9E9, 9E9, 9E9, 9E9, 9E9] ], v1000, fine, pen\WObj:=platform;
    MoveL [ [0.225, -6.338, -0.020], [0.194, 0.916, -0.350, 0.000], [0, 0, 0, 0], [ 9E9, 9E9, 9E9, 9E9, 9E9, 9E9] ], v30, fine, pen\WObj:=platform;
    MoveL [ [7.022, 11.455, 46.210], [0.194, 0.916, -0.350, 0.000], [0, 0, 0, 0], [ 9E9, 9E9, 9E9, 9E9, 9E9, 9E9] ], v1000, fine, pen\WObj:=platform;
    
    !!0.2814582562299428, -6.4350000000000005;
    MoveL [ [-10.248, 10.355, 45.885], [0.202, 0.830, 0.520, 0.000], [0, 0, 0, 0], [ 9E9, 9E9, 9E9, 9E9, 9E9, 9E9] ], v1000, fine, pen\WObj:=platform;
    MoveL [ [0.281, -6.435, -0.020], [0.202, 0.830, 0.520, 0.000], [0, 0, 0, 0], [ 9E9, 9E9, 9E9, 9E9, 9E9, 9E9] ], v30, fine, pen\WObj:=platform;
    MoveL [ [-10.248, 10.355, 45.885], [0.202, 0.830, 0.520, 0.000], [0, 0, 0, 0], [ 9E9, 9E9, 9E9, 9E9, 9E9, 9E9] ], v1000, fine, pen\WObj:=platform;
    
    !!0.3377499074759305, -6.532500000000001;
    MoveL [ [-8.891, -11.940, 48.822], [0.108, -0.503, 0.858, 0.000], [0, 0, 0, 0], [ 9E9, 9E9, 9E9, 9E9, 9E9, 9E9] ], v1000, fine, pen\WObj:=platform;
    MoveL [ [0.338, -6.533, -0.020], [0.108, -0.503, 0.858, 0.000], [0, 0, 0, 0], [ 9E9, 9E9, 9E9, 9E9, 9E9, 9E9] ], v30, fine, pen\WObj:=platform;
    MoveL [ [-8.891, -11.940, 48.822], [0.108, -0.503, 0.858, 0.000], [0, 0, 0, 0], [ 9E9, 9E9, 9E9, 9E9, 9E9, 9E9] ], v1000, fine, pen\WObj:=platform;
    
    !!0.39404155872191926, -6.630000000000001;
    MoveL [ [-8.886, -11.839, 48.834], [0.107, -0.487, 0.867, 0.000], [0, 0, 0, 0], [ 9E9, 9E9, 9E9, 9E9, 9E9, 9E9] ], v1000, fine, pen\WObj:=platform;
    MoveL [ [0.394, -6.630, -0.020], [0.107, -0.487, 0.867, 0.000], [0, 0, 0, 0], [ 9E9, 9E9, 9E9, 9E9, 9E9, 9E9] ], v30, fine, pen\WObj:=platform;
    MoveL [ [-8.886, -11.839, 48.834], [0.107, -0.487, 0.867, 0.000], [0, 0, 0, 0], [ 9E9, 9E9, 9E9, 9E9, 9E9, 9E9] ], v1000, fine, pen\WObj:=platform;
    
    !!0.45033320996790804, -6.727500000000001;
    MoveL [ [-8.880, -11.738, 48.845], [0.107, -0.470, 0.876, 0.000], [0, 0, 0, 0], [ 9E9, 9E9, 9E9, 9E9, 9E9, 9E9] ], v1000, fine, pen\WObj:=platform;
    MoveL [ [0.450, -6.728, -0.020], [0.107, -0.470, 0.876, 0.000], [0, 0, 0, 0], [ 9E9, 9E9, 9E9, 9E9, 9E9, 9E9] ], v30, fine, pen\WObj:=platform;
    MoveL [ [-8.880, -11.738, 48.845], [0.107, -0.470, 0.876, 0.000], [0, 0, 0, 0], [ 9E9, 9E9, 9E9, 9E9, 9E9, 9E9] ], v1000, fine, pen\WObj:=platform;
    
    !!0.5066248612138968, -6.825000000000001;
    MoveL [ [-0.376, -2.112, 49.750], [0.048, 0.982, 0.184, 0.000], [0, 0, 0, 0], [ 9E9, 9E9, 9E9, 9E9, 9E9, 9E9] ], v1000, fine, pen\WObj:=platform;
    MoveL [ [0.507, -6.825, -0.020], [0.048, 0.982, 0.184, 0.000], [0, 0, 0, 0], [ 9E9, 9E9, 9E9, 9E9, 9E9, 9E9] ], v30, fine, pen\WObj:=platform;
    MoveL [ [-0.376, -2.112, 49.750], [0.048, 0.982, 0.184, 0.000], [0, 0, 0, 0], [ 9E9, 9E9, 9E9, 9E9, 9E9, 9E9] ], v1000, fine, pen\WObj:=platform;
    
    !!-0.9569580711818043, -4.290000000000001;
    MoveL [ [-8.196, -14.141, 48.463], [0.123, -0.800, 0.588, 0.000], [0, 0, 0, 0], [ 9E9, 9E9, 9E9, 9E9, 9E9, 9E9] ], v1000, fine, pen\WObj:=platform;
    MoveL [ [-0.957, -4.290, -0.020], [0.123, -0.800, 0.588, 0.000], [0, 0, 0, 0], [ 9E9, 9E9, 9E9, 9E9, 9E9, 9E9] ], v30, fine, pen\WObj:=platform;
    MoveL [ [-8.196, -14.141, 48.463], [0.123, -0.800, 0.588, 0.000], [0, 0, 0, 0], [ 9E9, 9E9, 9E9, 9E9, 9E9, 9E9] ], v1000, fine, pen\WObj:=platform;
    
    !!0.5629165124598845, -6.922500000000001;
    MoveL [ [-0.590, 7.869, 47.728], [0.150, 0.986, 0.077, 0.000], [0, 0, 0, 0], [ 9E9, 9E9, 9E9, 9E9, 9E9, 9E9] ], v1000, fine, pen\WObj:=platform;
    MoveL [ [0.563, -6.923, -0.020], [0.150, 0.986, 0.077, 0.000], [0, 0, 0, 0], [ 9E9, 9E9, 9E9, 9E9, 9E9, 9E9] ], v30, fine, pen\WObj:=platform;
    MoveL [ [-0.590, 7.869, 47.728], [0.150, 0.986, 0.077, 0.000], [0, 0, 0, 0], [ 9E9, 9E9, 9E9, 9E9, 9E9, 9E9] ], v1000, fine, pen\WObj:=platform;
    
    !!0.6192081637058744, -7.0200000000000005;
    MoveL [ [-4.373, 7.433, 47.585], [0.155, 0.934, 0.323, 0.000], [0, 0, 0, 0], [ 9E9, 9E9, 9E9, 9E9, 9E9, 9E9] ], v1000, fine, pen\WObj:=platform;
    MoveL [ [0.619, -7.020, -0.020], [0.155, 0.934, 0.323, 0.000], [0, 0, 0, 0], [ 9E9, 9E9, 9E9, 9E9, 9E9, 9E9] ], v30, fine, pen\WObj:=platform;
    MoveL [ [-4.373, 7.433, 47.585], [0.155, 0.934, 0.323, 0.000], [0, 0, 0, 0], [ 9E9, 9E9, 9E9, 9E9, 9E9, 9E9] ], v1000, fine, pen\WObj:=platform;
    
    !!0.6754998149518621, -7.1175000000000015;
    MoveL [ [-0.698, 8.271, 47.533], [0.156, 0.984, 0.088, 0.000], [0, 0, 0, 0], [ 9E9, 9E9, 9E9, 9E9, 9E9, 9E9] ], v1000, fine, pen\WObj:=platform;
    MoveL [ [0.675, -7.118, -0.020], [0.156, 0.984, 0.088, 0.000], [0, 0, 0, 0], [ 9E9, 9E9, 9E9, 9E9, 9E9, 9E9] ], v30, fine, pen\WObj:=platform;
    MoveL [ [-0.698, 8.271, 47.533], [0.156, 0.984, 0.088, 0.000], [0, 0, 0, 0], [ 9E9, 9E9, 9E9, 9E9, 9E9, 9E9] ], v1000, fine, pen\WObj:=platform;
    
    !!0.7317914661978508, -7.215000000000002;
    MoveL [ [-0.752, 8.470, 47.433], [0.160, 0.983, 0.093, 0.000], [0, 0, 0, 0], [ 9E9, 9E9, 9E9, 9E9, 9E9, 9E9] ], v1000, fine, pen\WObj:=platform;
    MoveL [ [0.732, -7.215, -0.020], [0.160, 0.983, 0.093, 0.000], [0, 0, 0, 0], [ 9E9, 9E9, 9E9, 9E9, 9E9, 9E9] ], v30, fine, pen\WObj:=platform;
    MoveL [ [-0.752, 8.470, 47.433], [0.160, 0.983, 0.093, 0.000], [0, 0, 0, 0], [ 9E9, 9E9, 9E9, 9E9, 9E9, 9E9] ], v1000, fine, pen\WObj:=platform;
    
    !!0.7880831174438396, -7.312500000000001;
    MoveL [ [-0.807, 8.666, 47.331], [0.163, 0.982, 0.098, 0.000], [0, 0, 0, 0], [ 9E9, 9E9, 9E9, 9E9, 9E9, 9E9] ], v1000, fine, pen\WObj:=platform;
    MoveL [ [0.788, -7.313, -0.020], [0.163, 0.982, 0.098, 0.000], [0, 0, 0, 0], [ 9E9, 9E9, 9E9, 9E9, 9E9, 9E9] ], v30, fine, pen\WObj:=platform;
    MoveL [ [-0.807, 8.666, 47.331], [0.163, 0.982, 0.098, 0.000], [0, 0, 0, 0], [ 9E9, 9E9, 9E9, 9E9, 9E9, 9E9] ], v1000, fine, pen\WObj:=platform;
    
    !!0.8443747686898284, -7.410000000000001;
    MoveL [ [-5.460, 21.951, 39.957], [0.317, 0.927, 0.199, 0.000], [0, 0, 0, 0], [ 9E9, 9E9, 9E9, 9E9, 9E9, 9E9] ], v1000, fine, pen\WObj:=platform;
    MoveL [ [0.844, -7.410, -0.020], [0.317, 0.927, 0.199, 0.000], [0, 0, 0, 0], [ 9E9, 9E9, 9E9, 9E9, 9E9, 9E9] ], v30, fine, pen\WObj:=platform;
    MoveL [ [-5.460, 21.951, 39.957], [0.317, 0.927, 0.199, 0.000], [0, 0, 0, 0], [ 9E9, 9E9, 9E9, 9E9, 9E9, 9E9] ], v1000, fine, pen\WObj:=platform;
    
    !!0.9006664199358161, -7.507500000000001;
    MoveL [ [-5.531, 22.028, 39.808], [0.319, 0.926, 0.202, 0.000], [0, 0, 0, 0], [ 9E9, 9E9, 9E9, 9E9, 9E9, 9E9] ], v1000, fine, pen\WObj:=platform;
    MoveL [ [0.901, -7.508, -0.020], [0.319, 0.926, 0.202, 0.000], [0, 0, 0, 0], [ 9E9, 9E9, 9E9, 9E9, 9E9, 9E9] ], v30, fine, pen\WObj:=platform;
    MoveL [ [-5.531, 22.028, 39.808], [0.319, 0.926, 0.202, 0.000], [0, 0, 0, 0], [ 9E9, 9E9, 9E9, 9E9, 9E9, 9E9] ], v1000, fine, pen\WObj:=platform;
    
    !!0.9569580711818049, -7.605;
    MoveL [ [-7.106, 8.833, 46.507], [0.186, 0.882, 0.433, 0.000], [0, 0, 0, 0], [ 9E9, 9E9, 9E9, 9E9, 9E9, 9E9] ], v1000, fine, pen\WObj:=platform;
    MoveL [ [0.957, -7.605, -0.020], [0.186, 0.882, 0.433, 0.000], [0, 0, 0, 0], [ 9E9, 9E9, 9E9, 9E9, 9E9, 9E9] ], v30, fine, pen\WObj:=platform;
    MoveL [ [-7.106, 8.833, 46.507], [0.186, 0.882, 0.433, 0.000], [0, 0, 0, 0], [ 9E9, 9E9, 9E9, 9E9, 9E9, 9E9] ], v1000, fine, pen\WObj:=platform;
    
    !!1.0132497224277925, -7.702500000000001;
    MoveL [ [-0.215, 17.655, 43.055], [0.263, 0.964, 0.047, 0.000], [0, 0, 0, 0], [ 9E9, 9E9, 9E9, 9E9, 9E9, 9E9] ], v1000, fine, pen\WObj:=platform;
    MoveL [ [1.013, -7.703, -0.020], [0.263, 0.964, 0.047, 0.000], [0, 0, 0, 0], [ 9E9, 9E9, 9E9, 9E9, 9E9, 9E9] ], v30, fine, pen\WObj:=platform;
    MoveL [ [-0.215, 17.655, 43.055], [0.263, 0.964, 0.047, 0.000], [0, 0, 0, 0], [ 9E9, 9E9, 9E9, 9E9, 9E9, 9E9] ], v1000, fine, pen\WObj:=platform;
    
    !!1.0695413736737824, -7.800000000000001;
    MoveL [ [-0.309, 17.820, 42.895], [0.266, 0.963, 0.052, 0.000], [0, 0, 0, 0], [ 9E9, 9E9, 9E9, 9E9, 9E9, 9E9] ], v1000, fine, pen\WObj:=platform;
    MoveL [ [1.070, -7.800, -0.020], [0.266, 0.963, 0.052, 0.000], [0, 0, 0, 0], [ 9E9, 9E9, 9E9, 9E9, 9E9, 9E9] ], v30, fine, pen\WObj:=platform;
    MoveL [ [-0.309, 17.820, 42.895], [0.266, 0.963, 0.052, 0.000], [0, 0, 0, 0], [ 9E9, 9E9, 9E9, 9E9, 9E9, 9E9] ], v1000, fine, pen\WObj:=platform;
    
    !!-0.9006664199358161, -4.387500000000001;
    MoveL [ [-8.192, -14.038, 48.495], [0.122, -0.792, 0.598, 0.000], [0, 0, 0, 0], [ 9E9, 9E9, 9E9, 9E9, 9E9, 9E9] ], v1000, fine, pen\WObj:=platform;
    MoveL [ [-0.901, -4.388, -0.020], [0.122, -0.792, 0.598, 0.000], [0, 0, 0, 0], [ 9E9, 9E9, 9E9, 9E9, 9E9, 9E9] ], v30, fine, pen\WObj:=platform;
    MoveL [ [-8.192, -14.038, 48.495], [0.122, -0.792, 0.598, 0.000], [0, 0, 0, 0], [ 9E9, 9E9, 9E9, 9E9, 9E9, 9E9] ], v1000, fine, pen\WObj:=platform;
    
    !!1.125833024919769, -7.897500000000002;
    MoveL [ [-9.509, -15.704, 48.208], [0.133, -0.586, 0.799, 0.000], [0, 0, 0, 0], [ 9E9, 9E9, 9E9, 9E9, 9E9, 9E9] ], v1000, fine, pen\WObj:=platform;
    MoveL [ [1.126, -7.898, -0.020], [0.133, -0.586, 0.799, 0.000], [0, 0, 0, 0], [ 9E9, 9E9, 9E9, 9E9, 9E9, 9E9] ], v30, fine, pen\WObj:=platform;
    MoveL [ [-9.509, -15.704, 48.208], [0.133, -0.586, 0.799, 0.000], [0, 0, 0, 0], [ 9E9, 9E9, 9E9, 9E9, 9E9, 9E9] ], v1000, fine, pen\WObj:=platform;
    
    !!-0.8443747686898273, -4.485;
    MoveL [ [-1.774, -3.011, 49.950], [0.017, 0.846, 0.533, 0.000], [0, 0, 0, 0], [ 9E9, 9E9, 9E9, 9E9, 9E9, 9E9] ], v1000, fine, pen\WObj:=platform;
    MoveL [ [-0.844, -4.485, -0.020], [0.017, 0.846, 0.533, 0.000], [0, 0, 0, 0], [ 9E9, 9E9, 9E9, 9E9, 9E9, 9E9] ], v30, fine, pen\WObj:=platform;
    MoveL [ [-1.774, -3.011, 49.950], [0.017, 0.846, 0.533, 0.000], [0, 0, 0, 0], [ 9E9, 9E9, 9E9, 9E9, 9E9, 9E9] ], v1000, fine, pen\WObj:=platform;
    
    !!-0.7880831174438385, -4.582500000000001;
    MoveL [ [-1.792, -2.813, 49.939], [0.020, 0.870, 0.493, 0.000], [0, 0, 0, 0], [ 9E9, 9E9, 9E9, 9E9, 9E9, 9E9] ], v1000, fine, pen\WObj:=platform;
    MoveL [ [-0.788, -4.583, -0.020], [0.020, 0.870, 0.493, 0.000], [0, 0, 0, 0], [ 9E9, 9E9, 9E9, 9E9, 9E9, 9E9] ], v30, fine, pen\WObj:=platform;
    MoveL [ [-1.792, -2.813, 49.939], [0.020, 0.870, 0.493, 0.000], [0, 0, 0, 0], [ 9E9, 9E9, 9E9, 9E9, 9E9, 9E9] ], v1000, fine, pen\WObj:=platform;
    
    !!-0.7317914661978508, -4.680000000000001;
    MoveL [ [-6.932, -2.083, 49.526], [0.067, 0.385, 0.920, 0.000], [0, 0, 0, 0], [ 9E9, 9E9, 9E9, 9E9, 9E9, 9E9] ], v1000, fine, pen\WObj:=platform;
    MoveL [ [-0.732, -4.680, -0.020], [0.067, 0.385, 0.920, 0.000], [0, 0, 0, 0], [ 9E9, 9E9, 9E9, 9E9, 9E9, 9E9] ], v30, fine, pen\WObj:=platform;
    MoveL [ [-6.932, -2.083, 49.526], [0.067, 0.385, 0.920, 0.000], [0, 0, 0, 0], [ 9E9, 9E9, 9E9, 9E9, 9E9, 9E9] ], v1000, fine, pen\WObj:=platform;
    
    !!-0.6754998149518621, -4.7775;
    MoveL [ [-6.948, -1.949, 49.504], [0.069, 0.410, 0.909, 0.000], [0, 0, 0, 0], [ 9E9, 9E9, 9E9, 9E9, 9E9, 9E9] ], v1000, fine, pen\WObj:=platform;
    MoveL [ [-0.675, -4.777, -0.020], [0.069, 0.410, 0.909, 0.000], [0, 0, 0, 0], [ 9E9, 9E9, 9E9, 9E9, 9E9, 9E9] ], v30, fine, pen\WObj:=platform;
    MoveL [ [-6.948, -1.949, 49.504], [0.069, 0.410, 0.909, 0.000], [0, 0, 0, 0], [ 9E9, 9E9, 9E9, 9E9, 9E9, 9E9] ], v1000, fine, pen\WObj:=platform;
    
    !!-0.6192081637058733, -4.875;
    MoveL [ [-3.772, -0.784, 49.713], [0.052, 0.791, 0.610, 0.000], [0, 0, 0, 0], [ 9E9, 9E9, 9E9, 9E9, 9E9, 9E9] ], v1000, fine, pen\WObj:=platform;
    MoveL [ [-0.619, -4.875, -0.020], [0.052, 0.791, 0.610, 0.000], [0, 0, 0, 0], [ 9E9, 9E9, 9E9, 9E9, 9E9, 9E9] ], v30, fine, pen\WObj:=platform;
    MoveL [ [-3.772, -0.784, 49.713], [0.052, 0.791, 0.610, 0.000], [0, 0, 0, 0], [ 9E9, 9E9, 9E9, 9E9, 9E9, 9E9] ], v1000, fine, pen\WObj:=platform;
    
    !!-1.2947079786577353, -3.9000000000000004;
    MoveL [ [-9.808, -9.515, 48.929], [0.103, -0.548, 0.830, 0.000], [0, 0, 0, 0], [ 9E9, 9E9, 9E9, 9E9, 9E9, 9E9] ], v1000, fine, pen\WObj:=platform;
    MoveL [ [-1.295, -3.900, -0.020], [0.103, -0.548, 0.830, 0.000], [0, 0, 0, 0], [ 9E9, 9E9, 9E9, 9E9, 9E9, 9E9] ], v30, fine, pen\WObj:=platform;
    MoveL [ [-9.808, -9.515, 48.929], [0.103, -0.548, 0.830, 0.000], [0, 0, 0, 0], [ 9E9, 9E9, 9E9, 9E9, 9E9, 9E9] ], v1000, fine, pen\WObj:=platform;
    
    !!-1.8013328398716326, -3.0225;
    MoveL [ [-4.530, -1.065, 49.867], [0.034, 0.583, 0.812, 0.000], [0, 0, 0, 0], [ 9E9, 9E9, 9E9, 9E9, 9E9, 9E9] ], v1000, fine, pen\WObj:=platform;
    MoveL [ [-1.801, -3.022, -0.020], [0.034, 0.583, 0.812, 0.000], [0, 0, 0, 0], [ 9E9, 9E9, 9E9, 9E9, 9E9, 9E9] ], v30, fine, pen\WObj:=platform;
    MoveL [ [-4.530, -1.065, 49.867], [0.034, 0.583, 0.812, 0.000], [0, 0, 0, 0], [ 9E9, 9E9, 9E9, 9E9, 9E9, 9E9] ], v1000, fine, pen\WObj:=platform;
    
    !!-1.8576244911176216, -2.9250000000000007;
    MoveL [ [-5.562, 11.119, 47.824], [0.147, 0.956, 0.252, 0.000], [0, 0, 0, 0], [ 9E9, 9E9, 9E9, 9E9, 9E9, 9E9] ], v1000, fine, pen\WObj:=platform;
    MoveL [ [-1.858, -2.925, -0.020], [0.147, 0.956, 0.252, 0.000], [0, 0, 0, 0], [ 9E9, 9E9, 9E9, 9E9, 9E9, 9E9] ], v30, fine, pen\WObj:=platform;
    MoveL [ [-5.562, 11.119, 47.824], [0.147, 0.956, 0.252, 0.000], [0, 0, 0, 0], [ 9E9, 9E9, 9E9, 9E9, 9E9, 9E9] ], v1000, fine, pen\WObj:=platform;
    
    !!-1.9139161423636097, -2.8275000000000006;
    MoveL [ [-3.307, -4.463, 49.934], [0.021, -0.761, 0.648, 0.000], [0, 0, 0, 0], [ 9E9, 9E9, 9E9, 9E9, 9E9, 9E9] ], v1000, fine, pen\WObj:=platform;
    MoveL [ [-1.914, -2.828, -0.020], [0.021, -0.761, 0.648, 0.000], [0, 0, 0, 0], [ 9E9, 9E9, 9E9, 9E9, 9E9, 9E9] ], v30, fine, pen\WObj:=platform;
    MoveL [ [-3.307, -4.463, 49.934], [0.021, -0.761, 0.648, 0.000], [0, 0, 0, 0], [ 9E9, 9E9, 9E9, 9E9, 9E9, 9E9] ], v1000, fine, pen\WObj:=platform;
    
    !!-1.9702077936095979, -2.7300000000000004;
    MoveL [ [-9.755, -10.667, 48.728], [0.112, -0.709, 0.696, 0.000], [0, 0, 0, 0], [ 9E9, 9E9, 9E9, 9E9, 9E9, 9E9] ], v1000, fine, pen\WObj:=platform;
    MoveL [ [-1.970, -2.730, -0.020], [0.112, -0.709, 0.696, 0.000], [0, 0, 0, 0], [ 9E9, 9E9, 9E9, 9E9, 9E9, 9E9] ], v30, fine, pen\WObj:=platform;
    MoveL [ [-9.755, -10.667, 48.728], [0.112, -0.709, 0.696, 0.000], [0, 0, 0, 0], [ 9E9, 9E9, 9E9, 9E9, 9E9, 9E9] ], v1000, fine, pen\WObj:=platform;
    
    !!-2.026499444855587, -2.632500000000001;
    MoveL [ [-8.212, -15.801, 47.816], [0.147, -0.895, 0.421, 0.000], [0, 0, 0, 0], [ 9E9, 9E9, 9E9, 9E9, 9E9, 9E9] ], v1000, fine, pen\WObj:=platform;
    MoveL [ [-2.026, -2.633, -0.020], [0.147, -0.895, 0.421, 0.000], [0, 0, 0, 0], [ 9E9, 9E9, 9E9, 9E9, 9E9, 9E9] ], v30, fine, pen\WObj:=platform;
    MoveL [ [-8.212, -15.801, 47.816], [0.147, -0.895, 0.421, 0.000], [0, 0, 0, 0], [ 9E9, 9E9, 9E9, 9E9, 9E9, 9E9] ], v1000, fine, pen\WObj:=platform;
    
    !!-2.082791096101575, -2.5350000000000006;
    MoveL [ [-10.715, -19.180, 46.331], [0.191, -0.871, 0.452, 0.000], [0, 0, 0, 0], [ 9E9, 9E9, 9E9, 9E9, 9E9, 9E9] ], v1000, fine, pen\WObj:=platform;
    MoveL [ [-2.083, -2.535, -0.020], [0.191, -0.871, 0.452, 0.000], [0, 0, 0, 0], [ 9E9, 9E9, 9E9, 9E9, 9E9, 9E9] ], v30, fine, pen\WObj:=platform;
    MoveL [ [-10.715, -19.180, 46.331], [0.191, -0.871, 0.452, 0.000], [0, 0, 0, 0], [ 9E9, 9E9, 9E9, 9E9, 9E9, 9E9] ], v1000, fine, pen\WObj:=platform;
    
    !!-2.1390827473475635, -2.4375;
    MoveL [ [-3.235, -5.160, 49.894], [0.029, -0.927, 0.373, 0.000], [0, 0, 0, 0], [ 9E9, 9E9, 9E9, 9E9, 9E9, 9E9] ], v1000, fine, pen\WObj:=platform;
    MoveL [ [-2.139, -2.438, -0.020], [0.029, -0.927, 0.373, 0.000], [0, 0, 0, 0], [ 9E9, 9E9, 9E9, 9E9, 9E9, 9E9] ], v30, fine, pen\WObj:=platform;
    MoveL [ [-3.235, -5.160, 49.894], [0.029, -0.927, 0.373, 0.000], [0, 0, 0, 0], [ 9E9, 9E9, 9E9, 9E9, 9E9, 9E9] ], v1000, fine, pen\WObj:=platform;
    
    !!-2.195374398593552, -2.3400000000000007;
    MoveL [ [-3.218, -5.334, 49.880], [0.032, -0.946, 0.323, 0.000], [0, 0, 0, 0], [ 9E9, 9E9, 9E9, 9E9, 9E9, 9E9] ], v1000, fine, pen\WObj:=platform;
    MoveL [ [-2.195, -2.340, -0.020], [0.032, -0.946, 0.323, 0.000], [0, 0, 0, 0], [ 9E9, 9E9, 9E9, 9E9, 9E9, 9E9] ], v30, fine, pen\WObj:=platform;
    MoveL [ [-3.218, -5.334, 49.880], [0.032, -0.946, 0.323, 0.000], [0, 0, 0, 0], [ 9E9, 9E9, 9E9, 9E9, 9E9, 9E9] ], v1000, fine, pen\WObj:=platform;
    
    !!-2.25166604983954, -2.2424999999999997;
    MoveL [ [-7.842, -12.051, 48.689], [0.114, -0.863, 0.492, 0.000], [0, 0, 0, 0], [ 9E9, 9E9, 9E9, 9E9, 9E9, 9E9] ], v1000, fine, pen\WObj:=platform;
    MoveL [ [-2.252, -2.242, -0.020], [0.114, -0.863, 0.492, 0.000], [0, 0, 0, 0], [ 9E9, 9E9, 9E9, 9E9, 9E9, 9E9] ], v30, fine, pen\WObj:=platform;
    MoveL [ [-7.842, -12.051, 48.689], [0.114, -0.863, 0.492, 0.000], [0, 0, 0, 0], [ 9E9, 9E9, 9E9, 9E9, 9E9, 9E9] ], v1000, fine, pen\WObj:=platform;
    
    !!-2.3079577010855292, -2.1450000000000005;
    MoveL [ [-10.720, -19.431, 46.137], [0.196, -0.882, 0.429, 0.000], [0, 0, 0, 0], [ 9E9, 9E9, 9E9, 9E9, 9E9, 9E9] ], v1000, fine, pen\WObj:=platform;
    MoveL [ [-2.308, -2.145, -0.020], [0.196, -0.882, 0.429, 0.000], [0, 0, 0, 0], [ 9E9, 9E9, 9E9, 9E9, 9E9, 9E9] ], v30, fine, pen\WObj:=platform;
    MoveL [ [-10.720, -19.431, 46.137], [0.196, -0.882, 0.429, 0.000], [0, 0, 0, 0], [ 9E9, 9E9, 9E9, 9E9, 9E9, 9E9] ], v1000, fine, pen\WObj:=platform;
    
    !!-1.3509996299037241, -3.802500000000001;
    MoveL [ [-6.316, -2.319, 49.711], [0.052, 0.286, 0.957, 0.000], [0, 0, 0, 0], [ 9E9, 9E9, 9E9, 9E9, 9E9, 9E9] ], v1000, fine, pen\WObj:=platform;
    MoveL [ [-1.351, -3.803, -0.020], [0.052, 0.286, 0.957, 0.000], [0, 0, 0, 0], [ 9E9, 9E9, 9E9, 9E9, 9E9, 9E9] ], v30, fine, pen\WObj:=platform;
    MoveL [ [-6.316, -2.319, 49.711], [0.052, 0.286, 0.957, 0.000], [0, 0, 0, 0], [ 9E9, 9E9, 9E9, 9E9, 9E9, 9E9] ], v1000, fine, pen\WObj:=platform;
    
    !!-2.364249352331518, -2.0475;
    MoveL [ [-7.059, -20.647, 46.154], [0.196, -0.951, 0.240, 0.000], [0, 0, 0, 0], [ 9E9, 9E9, 9E9, 9E9, 9E9, 9E9] ], v1000, fine, pen\WObj:=platform;
    MoveL [ [-2.364, -2.047, -0.020], [0.196, -0.951, 0.240, 0.000], [0, 0, 0, 0], [ 9E9, 9E9, 9E9, 9E9, 9E9, 9E9] ], v30, fine, pen\WObj:=platform;
    MoveL [ [-7.059, -20.647, 46.154], [0.196, -0.951, 0.240, 0.000], [0, 0, 0, 0], [ 9E9, 9E9, 9E9, 9E9, 9E9, 9E9] ], v1000, fine, pen\WObj:=platform;
    
    !!-2.420541003577506, -1.9500000000000006;
    MoveL [ [-9.199, 1.968, 49.363], [0.079, 0.499, 0.863, 0.000], [0, 0, 0, 0], [ 9E9, 9E9, 9E9, 9E9, 9E9, 9E9] ], v1000, fine, pen\WObj:=platform;
    MoveL [ [-2.421, -1.950, -0.020], [0.079, 0.499, 0.863, 0.000], [0, 0, 0, 0], [ 9E9, 9E9, 9E9, 9E9, 9E9, 9E9] ], v30, fine, pen\WObj:=platform;
    MoveL [ [-9.199, 1.968, 49.363], [0.079, 0.499, 0.863, 0.000], [0, 0, 0, 0], [ 9E9, 9E9, 9E9, 9E9, 9E9, 9E9] ], v1000, fine, pen\WObj:=platform;
    
    !!-2.476832654823495, -1.8525000000000003;
    MoveL [ [-8.481, -12.472, 48.469], [0.123, -0.864, 0.488, 0.000], [0, 0, 0, 0], [ 9E9, 9E9, 9E9, 9E9, 9E9, 9E9] ], v1000, fine, pen\WObj:=platform;
    MoveL [ [-2.477, -1.853, -0.020], [0.123, -0.864, 0.488, 0.000], [0, 0, 0, 0], [ 9E9, 9E9, 9E9, 9E9, 9E9, 9E9] ], v30, fine, pen\WObj:=platform;
    MoveL [ [-8.481, -12.472, 48.469], [0.123, -0.864, 0.488, 0.000], [0, 0, 0, 0], [ 9E9, 9E9, 9E9, 9E9, 9E9, 9E9] ], v1000, fine, pen\WObj:=platform;
    
    !!-2.533124306069483, -1.755000000000001;
    MoveL [ [-8.476, -12.573, 48.433], [0.124, -0.870, 0.478, 0.000], [0, 0, 0, 0], [ 9E9, 9E9, 9E9, 9E9, 9E9, 9E9] ], v1000, fine, pen\WObj:=platform;
    MoveL [ [-2.533, -1.755, -0.020], [0.124, -0.870, 0.478, 0.000], [0, 0, 0, 0], [ 9E9, 9E9, 9E9, 9E9, 9E9, 9E9] ], v30, fine, pen\WObj:=platform;
    MoveL [ [-8.476, -12.573, 48.433], [0.124, -0.870, 0.478, 0.000], [0, 0, 0, 0], [ 9E9, 9E9, 9E9, 9E9, 9E9, 9E9] ], v1000, fine, pen\WObj:=platform;
    
    !!-2.589415957315471, -1.6574999999999995;
    MoveL [ [-3.107, -23.263, 45.068], [0.222, -0.975, 0.023, 0.000], [0, 0, 0, 0], [ 9E9, 9E9, 9E9, 9E9, 9E9, 9E9] ], v1000, fine, pen\WObj:=platform;
    MoveL [ [-2.589, -1.657, -0.020], [0.222, -0.975, 0.023, 0.000], [0, 0, 0, 0], [ 9E9, 9E9, 9E9, 9E9, 9E9, 9E9] ], v30, fine, pen\WObj:=platform;
    MoveL [ [-3.107, -23.263, 45.068], [0.222, -0.975, 0.023, 0.000], [0, 0, 0, 0], [ 9E9, 9E9, 9E9, 9E9, 9E9, 9E9] ], v1000, fine, pen\WObj:=platform;
    
    !!-2.64570760856146, -1.5600000000000003;
    MoveL [ [-8.464, -12.773, 48.358], [0.127, -0.880, 0.457, 0.000], [0, 0, 0, 0], [ 9E9, 9E9, 9E9, 9E9, 9E9, 9E9] ], v1000, fine, pen\WObj:=platform;
    MoveL [ [-2.646, -1.560, -0.020], [0.127, -0.880, 0.457, 0.000], [0, 0, 0, 0], [ 9E9, 9E9, 9E9, 9E9, 9E9, 9E9] ], v30, fine, pen\WObj:=platform;
    MoveL [ [-8.464, -12.773, 48.358], [0.127, -0.880, 0.457, 0.000], [0, 0, 0, 0], [ 9E9, 9E9, 9E9, 9E9, 9E9, 9E9] ], v1000, fine, pen\WObj:=platform;
    
    !!-2.701999259807449, -1.4625;
    MoveL [ [-9.536, -7.248, 49.172], [0.090, -0.644, 0.760, 0.000], [0, 0, 0, 0], [ 9E9, 9E9, 9E9, 9E9, 9E9, 9E9] ], v1000, fine, pen\WObj:=platform;
    MoveL [ [-2.702, -1.462, -0.020], [0.090, -0.644, 0.760, 0.000], [0, 0, 0, 0], [ 9E9, 9E9, 9E9, 9E9, 9E9, 9E9] ], v30, fine, pen\WObj:=platform;
    MoveL [ [-9.536, -7.248, 49.172], [0.090, -0.644, 0.760, 0.000], [0, 0, 0, 0], [ 9E9, 9E9, 9E9, 9E9, 9E9, 9E9] ], v1000, fine, pen\WObj:=platform;
    
    !!-2.7582909110534377, -1.3650000000000007;
    MoveL [ [-5.170, -5.953, 49.711], [0.052, -0.884, 0.465, 0.000], [0, 0, 0, 0], [ 9E9, 9E9, 9E9, 9E9, 9E9, 9E9] ], v1000, fine, pen\WObj:=platform;
    MoveL [ [-2.758, -1.365, -0.020], [0.052, -0.884, 0.465, 0.000], [0, 0, 0, 0], [ 9E9, 9E9, 9E9, 9E9, 9E9, 9E9] ], v30, fine, pen\WObj:=platform;
    MoveL [ [-5.170, -5.953, 49.711], [0.052, -0.884, 0.465, 0.000], [0, 0, 0, 0], [ 9E9, 9E9, 9E9, 9E9, 9E9, 9E9] ], v1000, fine, pen\WObj:=platform;
    
    !!-2.814582562299426, -1.2675000000000003;
    MoveL [ [-9.508, -7.453, 49.142], [0.092, -0.676, 0.731, 0.000], [0, 0, 0, 0], [ 9E9, 9E9, 9E9, 9E9, 9E9, 9E9] ], v1000, fine, pen\WObj:=platform;
    MoveL [ [-2.815, -1.268, -0.020], [0.092, -0.676, 0.731, 0.000], [0, 0, 0, 0], [ 9E9, 9E9, 9E9, 9E9, 9E9, 9E9] ], v30, fine, pen\WObj:=platform;
    MoveL [ [-9.508, -7.453, 49.142], [0.092, -0.676, 0.731, 0.000], [0, 0, 0, 0], [ 9E9, 9E9, 9E9, 9E9, 9E9, 9E9] ], v1000, fine, pen\WObj:=platform;
    
    !!-2.870874213545415, -1.170000000000001;
    MoveL [ [-3.857, -7.111, 49.616], [0.060, -0.985, 0.163, 0.000], [0, 0, 0, 0], [ 9E9, 9E9, 9E9, 9E9, 9E9, 9E9] ], v1000, fine, pen\WObj:=platform;
    MoveL [ [-2.871, -1.170, -0.020], [0.060, -0.985, 0.163, 0.000], [0, 0, 0, 0], [ 9E9, 9E9, 9E9, 9E9, 9E9, 9E9] ], v30, fine, pen\WObj:=platform;
    MoveL [ [-3.857, -7.111, 49.616], [0.060, -0.985, 0.163, 0.000], [0, 0, 0, 0], [ 9E9, 9E9, 9E9, 9E9, 9E9, 9E9] ], v1000, fine, pen\WObj:=platform;
    
    !!-1.4072912811497122, -3.7050000000000005;
    MoveL [ [-5.260, -1.055, 49.761], [0.047, 0.566, 0.823, 0.000], [0, 0, 0, 0], [ 9E9, 9E9, 9E9, 9E9, 9E9, 9E9] ], v1000, fine, pen\WObj:=platform;
    MoveL [ [-1.407, -3.705, -0.020], [0.047, 0.566, 0.823, 0.000], [0, 0, 0, 0], [ 9E9, 9E9, 9E9, 9E9, 9E9, 9E9] ], v30, fine, pen\WObj:=platform;
    MoveL [ [-5.260, -1.055, 49.761], [0.047, 0.566, 0.823, 0.000], [0, 0, 0, 0], [ 9E9, 9E9, 9E9, 9E9, 9E9, 9E9] ], v1000, fine, pen\WObj:=platform;
    
    !!-1.4635829323957006, -3.6075;
    MoveL [ [-6.122, 1.874, 49.460], [0.072, 0.760, 0.646, 0.000], [0, 0, 0, 0], [ 9E9, 9E9, 9E9, 9E9, 9E9, 9E9] ], v1000, fine, pen\WObj:=platform;
    MoveL [ [-1.464, -3.607, -0.020], [0.072, 0.760, 0.646, 0.000], [0, 0, 0, 0], [ 9E9, 9E9, 9E9, 9E9, 9E9, 9E9] ], v30, fine, pen\WObj:=platform;
    MoveL [ [-6.122, 1.874, 49.460], [0.072, 0.760, 0.646, 0.000], [0, 0, 0, 0], [ 9E9, 9E9, 9E9, 9E9, 9E9, 9E9] ], v1000, fine, pen\WObj:=platform;
    
    !!-1.5198745836416898, -3.51;
    MoveL [ [-3.935, 0.666, 49.747], [0.048, 0.865, 0.500, 0.000], [0, 0, 0, 0], [ 9E9, 9E9, 9E9, 9E9, 9E9, 9E9] ], v1000, fine, pen\WObj:=platform;
    MoveL [ [-1.520, -3.510, -0.020], [0.048, 0.865, 0.500, 0.000], [0, 0, 0, 0], [ 9E9, 9E9, 9E9, 9E9, 9E9, 9E9] ], v30, fine, pen\WObj:=platform;
    MoveL [ [-3.935, 0.666, 49.747], [0.048, 0.865, 0.500, 0.000], [0, 0, 0, 0], [ 9E9, 9E9, 9E9, 9E9, 9E9, 9E9] ], v1000, fine, pen\WObj:=platform;
    
    !!-1.5761662348876782, -3.4125000000000005;
    MoveL [ [-11.214, 4.470, 48.405], [0.125, 0.628, 0.768, 0.000], [0, 0, 0, 0], [ 9E9, 9E9, 9E9, 9E9, 9E9, 9E9] ], v1000, fine, pen\WObj:=platform;
    MoveL [ [-1.576, -3.413, -0.020], [0.125, 0.628, 0.768, 0.000], [0, 0, 0, 0], [ 9E9, 9E9, 9E9, 9E9, 9E9, 9E9] ], v30, fine, pen\WObj:=platform;
    MoveL [ [-11.214, 4.470, 48.405], [0.125, 0.628, 0.768, 0.000], [0, 0, 0, 0], [ 9E9, 9E9, 9E9, 9E9, 9E9, 9E9] ], v1000, fine, pen\WObj:=platform;
    
    !!-1.6324578861336665, -3.3150000000000004;
    MoveL [ [-9.760, -5.282, 49.276], [0.084, -0.234, 0.969, 0.000], [0, 0, 0, 0], [ 9E9, 9E9, 9E9, 9E9, 9E9, 9E9] ], v1000, fine, pen\WObj:=platform;
    MoveL [ [-1.632, -3.315, -0.020], [0.084, -0.234, 0.969, 0.000], [0, 0, 0, 0], [ 9E9, 9E9, 9E9, 9E9, 9E9, 9E9] ], v30, fine, pen\WObj:=platform;
    MoveL [ [-9.760, -5.282, 49.276], [0.084, -0.234, 0.969, 0.000], [0, 0, 0, 0], [ 9E9, 9E9, 9E9, 9E9, 9E9, 9E9] ], v1000, fine, pen\WObj:=platform;
    
    !!-1.6887495373796557, -3.217500000000001;
    MoveL [ [-4.584, -0.735, 49.834], [0.038, 0.650, 0.759, 0.000], [0, 0, 0, 0], [ 9E9, 9E9, 9E9, 9E9, 9E9, 9E9] ], v1000, fine, pen\WObj:=platform;
    MoveL [ [-1.689, -3.218, -0.020], [0.038, 0.650, 0.759, 0.000], [0, 0, 0, 0], [ 9E9, 9E9, 9E9, 9E9, 9E9, 9E9] ], v30, fine, pen\WObj:=platform;
    MoveL [ [-4.584, -0.735, 49.834], [0.038, 0.650, 0.759, 0.000], [0, 0, 0, 0], [ 9E9, 9E9, 9E9, 9E9, 9E9, 9E9] ], v1000, fine, pen\WObj:=platform;
    
    !!-1.745041188625644, -3.119999999999999;
    MoveL [ [-9.730, -14.915, 47.908], [0.144, -0.819, 0.555, 0.000], [0, 0, 0, 0], [ 9E9, 9E9, 9E9, 9E9, 9E9, 9E9] ], v1000, fine, pen\WObj:=platform;
    MoveL [ [-1.745, -3.120, -0.020], [0.144, -0.819, 0.555, 0.000], [0, 0, 0, 0], [ 9E9, 9E9, 9E9, 9E9, 9E9, 9E9] ], v30, fine, pen\WObj:=platform;
    MoveL [ [-9.730, -14.915, 47.908], [0.144, -0.819, 0.555, 0.000], [0, 0, 0, 0], [ 9E9, 9E9, 9E9, 9E9, 9E9, 9E9] ], v1000, fine, pen\WObj:=platform;
    
    !!-1.238416327411747, -3.9975000000000005;
    MoveL [ [-11.312, 5.005, 48.120], [0.136, 0.660, 0.739, 0.000], [0, 0, 0, 0], [ 9E9, 9E9, 9E9, 9E9, 9E9, 9E9] ], v1000, fine, pen\WObj:=platform;
    MoveL [ [-1.238, -3.998, -0.020], [0.136, 0.660, 0.739, 0.000], [0, 0, 0, 0], [ 9E9, 9E9, 9E9, 9E9, 9E9, 9E9] ], v30, fine, pen\WObj:=platform;
    MoveL [ [-11.312, 5.005, 48.120], [0.136, 0.660, 0.739, 0.000], [0, 0, 0, 0], [ 9E9, 9E9, 9E9, 9E9, 9E9, 9E9] ], v1000, fine, pen\WObj:=platform;
    
    !!-1.182124676165759, -4.095;
    MoveL [ [-9.318, 12.304, 46.508], [0.186, 0.880, 0.437, 0.000], [0, 0, 0, 0], [ 9E9, 9E9, 9E9, 9E9, 9E9, 9E9] ], v1000, fine, pen\WObj:=platform;
    MoveL [ [-1.182, -4.095, -0.020], [0.186, 0.880, 0.437, 0.000], [0, 0, 0, 0], [ 9E9, 9E9, 9E9, 9E9, 9E9, 9E9] ], v30, fine, pen\WObj:=platform;
    MoveL [ [-9.318, 12.304, 46.508], [0.186, 0.880, 0.437, 0.000], [0, 0, 0, 0], [ 9E9, 9E9, 9E9, 9E9, 9E9, 9E9] ], v1000, fine, pen\WObj:=platform;
    
    !!-0.6754998149518621, -4.972500000000001;
    MoveL [ [-11.940, -2.350, 48.624], [0.116, 0.225, 0.967, 0.000], [0, 0, 0, 0], [ 9E9, 9E9, 9E9, 9E9, 9E9, 9E9] ], v1000, fine, pen\WObj:=platform;
    MoveL [ [-0.675, -4.973, -0.020], [0.116, 0.225, 0.967, 0.000], [0, 0, 0, 0], [ 9E9, 9E9, 9E9, 9E9, 9E9, 9E9] ], v30, fine, pen\WObj:=platform;
    MoveL [ [-11.940, -2.350, 48.624], [0.116, 0.225, 0.967, 0.000], [0, 0, 0, 0], [ 9E9, 9E9, 9E9, 9E9, 9E9, 9E9] ], v1000, fine, pen\WObj:=platform;
    
    !!-0.6192081637058744, -5.070000000000001;
    MoveL [ [-10.652, -0.960, 48.790], [0.109, 0.377, 0.920, 0.000], [0, 0, 0, 0], [ 9E9, 9E9, 9E9, 9E9, 9E9, 9E9] ], v1000, fine, pen\WObj:=platform;
    MoveL [ [-0.619, -5.070, -0.020], [0.109, 0.377, 0.920, 0.000], [0, 0, 0, 0], [ 9E9, 9E9, 9E9, 9E9, 9E9, 9E9] ], v30, fine, pen\WObj:=platform;
    MoveL [ [-10.652, -0.960, 48.790], [0.109, 0.377, 0.920, 0.000], [0, 0, 0, 0], [ 9E9, 9E9, 9E9, 9E9, 9E9, 9E9] ], v1000, fine, pen\WObj:=platform;
    
    !!-0.5629165124598845, -5.1675;
    MoveL [ [-6.801, -23.588, 46.043], [0.198, -0.928, 0.314, 0.000], [0, 0, 0, 0], [ 9E9, 9E9, 9E9, 9E9, 9E9, 9E9] ], v1000, fine, pen\WObj:=platform;
    MoveL [ [-0.563, -5.168, -0.020], [0.198, -0.928, 0.314, 0.000], [0, 0, 0, 0], [ 9E9, 9E9, 9E9, 9E9, 9E9, 9E9] ], v30, fine, pen\WObj:=platform;
    MoveL [ [-6.801, -23.588, 46.043], [0.198, -0.928, 0.314, 0.000], [0, 0, 0, 0], [ 9E9, 9E9, 9E9, 9E9, 9E9, 9E9] ], v1000, fine, pen\WObj:=platform;
    
    !!-0.5066248612138968, -5.265;
    MoveL [ [-3.303, -10.326, 49.645], [0.058, -0.874, 0.483, 0.000], [0, 0, 0, 0], [ 9E9, 9E9, 9E9, 9E9, 9E9, 9E9] ], v1000, fine, pen\WObj:=platform;
    MoveL [ [-0.507, -5.265, -0.020], [0.058, -0.874, 0.483, 0.000], [0, 0, 0, 0], [ 9E9, 9E9, 9E9, 9E9, 9E9, 9E9] ], v30, fine, pen\WObj:=platform;
    MoveL [ [-3.303, -10.326, 49.645], [0.058, -0.874, 0.483, 0.000], [0, 0, 0, 0], [ 9E9, 9E9, 9E9, 9E9, 9E9, 9E9] ], v1000, fine, pen\WObj:=platform;
    
    !!-0.45033320996790804, -5.362500000000001;
    MoveL [ [-4.557, -14.571, 48.953], [0.101, -0.909, 0.405, 0.000], [0, 0, 0, 0], [ 9E9, 9E9, 9E9, 9E9, 9E9, 9E9] ], v1000, fine, pen\WObj:=platform;
    MoveL [ [-0.450, -5.363, -0.020], [0.101, -0.909, 0.405, 0.000], [0, 0, 0, 0], [ 9E9, 9E9, 9E9, 9E9, 9E9, 9E9] ], v30, fine, pen\WObj:=platform;
    MoveL [ [-4.557, -14.571, 48.953], [0.101, -0.909, 0.405, 0.000], [0, 0, 0, 0], [ 9E9, 9E9, 9E9, 9E9, 9E9, 9E9] ], v1000, fine, pen\WObj:=platform;
    
    !!-0.39404155872191926, -5.460000000000001;
    MoveL [ [-7.475, -0.101, 49.185], [0.089, 0.601, 0.794, 0.000], [0, 0, 0, 0], [ 9E9, 9E9, 9E9, 9E9, 9E9, 9E9] ], v1000, fine, pen\WObj:=platform;
    MoveL [ [-0.394, -5.460, -0.020], [0.089, 0.601, 0.794, 0.000], [0, 0, 0, 0], [ 9E9, 9E9, 9E9, 9E9, 9E9, 9E9] ], v30, fine, pen\WObj:=platform;
    MoveL [ [-7.475, -0.101, 49.185], [0.089, 0.601, 0.794, 0.000], [0, 0, 0, 0], [ 9E9, 9E9, 9E9, 9E9, 9E9, 9E9] ], v1000, fine, pen\WObj:=platform;
    
    !!-0.3377499074759316, -5.557500000000001;
    MoveL [ [-7.078, -2.293, 49.416], [0.075, 0.435, 0.897, 0.000], [0, 0, 0, 0], [ 9E9, 9E9, 9E9, 9E9, 9E9, 9E9] ], v1000, fine, pen\WObj:=platform;
    MoveL [ [-0.338, -5.558, -0.020], [0.075, 0.435, 0.897, 0.000], [0, 0, 0, 0], [ 9E9, 9E9, 9E9, 9E9, 9E9, 9E9] ], v30, fine, pen\WObj:=platform;
    MoveL [ [-7.078, -2.293, 49.416], [0.075, 0.435, 0.897, 0.000], [0, 0, 0, 0], [ 9E9, 9E9, 9E9, 9E9, 9E9, 9E9] ], v1000, fine, pen\WObj:=platform;
    
    !!-0.2814582562299428, -5.655000000000001;
    MoveL [ [-7.507, 0.152, 49.113], [0.093, 0.624, 0.776, 0.000], [0, 0, 0, 0], [ 9E9, 9E9, 9E9, 9E9, 9E9, 9E9] ], v1000, fine, pen\WObj:=platform;
    MoveL [ [-0.281, -5.655, -0.020], [0.093, 0.624, 0.776, 0.000], [0, 0, 0, 0], [ 9E9, 9E9, 9E9, 9E9, 9E9, 9E9] ], v30, fine, pen\WObj:=platform;
    MoveL [ [-7.507, 0.152, 49.113], [0.093, 0.624, 0.776, 0.000], [0, 0, 0, 0], [ 9E9, 9E9, 9E9, 9E9, 9E9, 9E9] ], v1000, fine, pen\WObj:=platform;
    
    !!-0.22516660498395402, -5.752500000000001;
    MoveL [ [-7.523, 0.278, 49.076], [0.095, 0.634, 0.767, 0.000], [0, 0, 0, 0], [ 9E9, 9E9, 9E9, 9E9, 9E9, 9E9] ], v1000, fine, pen\WObj:=platform;
    MoveL [ [-0.225, -5.753, -0.020], [0.095, 0.634, 0.767, 0.000], [0, 0, 0, 0], [ 9E9, 9E9, 9E9, 9E9, 9E9, 9E9] ], v30, fine, pen\WObj:=platform;
    MoveL [ [-7.523, 0.278, 49.076], [0.095, 0.634, 0.767, 0.000], [0, 0, 0, 0], [ 9E9, 9E9, 9E9, 9E9, 9E9, 9E9] ], v1000, fine, pen\WObj:=platform;
    
    !!-0.16887495373796524, -5.8500000000000005;
    MoveL [ [-7.116, -1.901, 49.337], [0.080, 0.493, 0.867, 0.000], [0, 0, 0, 0], [ 9E9, 9E9, 9E9, 9E9, 9E9, 9E9] ], v1000, fine, pen\WObj:=platform;
    MoveL [ [-0.169, -5.850, -0.020], [0.080, 0.493, 0.867, 0.000], [0, 0, 0, 0], [ 9E9, 9E9, 9E9, 9E9, 9E9, 9E9] ], v30, fine, pen\WObj:=platform;
    MoveL [ [-7.116, -1.901, 49.337], [0.080, 0.493, 0.867, 0.000], [0, 0, 0, 0], [ 9E9, 9E9, 9E9, 9E9, 9E9, 9E9] ], v1000, fine, pen\WObj:=platform;
    
    !!-1.12583302491977, -4.192500000000001;
    MoveL [ [-9.354, 12.401, 46.423], [0.189, 0.880, 0.436, 0.000], [0, 0, 0, 0], [ 9E9, 9E9, 9E9, 9E9, 9E9, 9E9] ], v1000, fine, pen\WObj:=platform;
    MoveL [ [-1.126, -4.193, -0.020], [0.189, 0.880, 0.436, 0.000], [0, 0, 0, 0], [ 9E9, 9E9, 9E9, 9E9, 9E9, 9E9] ], v30, fine, pen\WObj:=platform;
    MoveL [ [-9.354, 12.401, 46.423], [0.189, 0.880, 0.436, 0.000], [0, 0, 0, 0], [ 9E9, 9E9, 9E9, 9E9, 9E9, 9E9] ], v1000, fine, pen\WObj:=platform;
    
    !!-0.11258330249197757, -5.9475;
    MoveL [ [-7.129, -1.771, 49.309], [0.082, 0.510, 0.856, 0.000], [0, 0, 0, 0], [ 9E9, 9E9, 9E9, 9E9, 9E9, 9E9] ], v1000, fine, pen\WObj:=platform;
    MoveL [ [-0.113, -5.947, -0.020], [0.082, 0.510, 0.856, 0.000], [0, 0, 0, 0], [ 9E9, 9E9, 9E9, 9E9, 9E9, 9E9] ], v30, fine, pen\WObj:=platform;
    MoveL [ [-7.129, -1.771, 49.309], [0.082, 0.510, 0.856, 0.000], [0, 0, 0, 0], [ 9E9, 9E9, 9E9, 9E9, 9E9, 9E9] ], v1000, fine, pen\WObj:=platform;
    
    !!-0.05629165124598767, -6.045000000000002;
    MoveL [ [-7.141, -1.641, 49.279], [0.084, 0.526, 0.846, 0.000], [0, 0, 0, 0], [ 9E9, 9E9, 9E9, 9E9, 9E9, 9E9] ], v1000, fine, pen\WObj:=platform;
    MoveL [ [-0.056, -6.045, -0.020], [0.084, 0.526, 0.846, 0.000], [0, 0, 0, 0], [ 9E9, 9E9, 9E9, 9E9, 9E9, 9E9] ], v30, fine, pen\WObj:=platform;
    MoveL [ [-7.141, -1.641, 49.279], [0.084, 0.526, 0.846, 0.000], [0, 0, 0, 0], [ 9E9, 9E9, 9E9, 9E9, 9E9, 9E9] ], v1000, fine, pen\WObj:=platform;
    
    !!0, -6.142500000000001;
    MoveL [ [-10.387, -6.564, 48.887], [0.105, -0.040, 0.994, 0.000], [0, 0, 0, 0], [ 9E9, 9E9, 9E9, 9E9, 9E9, 9E9] ], v1000, fine, pen\WObj:=platform;
    MoveL [ [0.000, -6.143, -0.020], [0.105, -0.040, 0.994, 0.000], [0, 0, 0, 0], [ 9E9, 9E9, 9E9, 9E9, 9E9, 9E9] ], v30, fine, pen\WObj:=platform;
    MoveL [ [-10.387, -6.564, 48.887], [0.105, -0.040, 0.994, 0.000], [0, 0, 0, 0], [ 9E9, 9E9, 9E9, 9E9, 9E9, 9E9] ], v1000, fine, pen\WObj:=platform;
    
    !!0.05629165124598767, -6.240000000000001;
    MoveL [ [5.618, -7.007, 49.664], [0.056, -0.136, -0.989, 0.000], [0, 0, 0, 0], [ 9E9, 9E9, 9E9, 9E9, 9E9, 9E9] ], v1000, fine, pen\WObj:=platform;
    MoveL [ [0.056, -6.240, -0.020], [0.056, -0.136, -0.989, 0.000], [0, 0, 0, 0], [ 9E9, 9E9, 9E9, 9E9, 9E9, 9E9] ], v30, fine, pen\WObj:=platform;
    MoveL [ [5.618, -7.007, 49.664], [0.056, -0.136, -0.989, 0.000], [0, 0, 0, 0], [ 9E9, 9E9, 9E9, 9E9, 9E9, 9E9] ], v1000, fine, pen\WObj:=platform;
    
    !!0.11258330249197757, -6.3375;
    MoveL [ [7.038, 11.382, 46.219], [0.194, 0.914, -0.357, 0.000], [0, 0, 0, 0], [ 9E9, 9E9, 9E9, 9E9, 9E9, 9E9] ], v1000, fine, pen\WObj:=platform;
    MoveL [ [0.113, -6.338, -0.020], [0.194, 0.914, -0.357, 0.000], [0, 0, 0, 0], [ 9E9, 9E9, 9E9, 9E9, 9E9, 9E9] ], v30, fine, pen\WObj:=platform;
    MoveL [ [7.038, 11.382, 46.219], [0.194, 0.914, -0.357, 0.000], [0, 0, 0, 0], [ 9E9, 9E9, 9E9, 9E9, 9E9, 9E9] ], v1000, fine, pen\WObj:=platform;
    
    !!0.16887495373796635, -6.4350000000000005;
    MoveL [ [-0.285, -2.966, 49.857], [0.035, 0.991, 0.130, 0.000], [0, 0, 0, 0], [ 9E9, 9E9, 9E9, 9E9, 9E9, 9E9] ], v1000, fine, pen\WObj:=platform;
    MoveL [ [0.169, -6.435, -0.020], [0.035, 0.991, 0.130, 0.000], [0, 0, 0, 0], [ 9E9, 9E9, 9E9, 9E9, 9E9, 9E9] ], v30, fine, pen\WObj:=platform;
    MoveL [ [-0.285, -2.966, 49.857], [0.035, 0.991, 0.130, 0.000], [0, 0, 0, 0], [ 9E9, 9E9, 9E9, 9E9, 9E9, 9E9] ], v1000, fine, pen\WObj:=platform;
    
    !!0.22516660498395402, -6.532500000000001;
    MoveL [ [-6.853, -2.139, 49.281], [0.084, 0.526, 0.847, 0.000], [0, 0, 0, 0], [ 9E9, 9E9, 9E9, 9E9, 9E9, 9E9] ], v1000, fine, pen\WObj:=platform;
    MoveL [ [0.225, -6.533, -0.020], [0.084, 0.526, 0.847, 0.000], [0, 0, 0, 0], [ 9E9, 9E9, 9E9, 9E9, 9E9, 9E9] ], v30, fine, pen\WObj:=platform;
    MoveL [ [-6.853, -2.139, 49.281], [0.084, 0.526, 0.847, 0.000], [0, 0, 0, 0], [ 9E9, 9E9, 9E9, 9E9, 9E9, 9E9] ], v1000, fine, pen\WObj:=platform;
    
    !!0.2814582562299428, -6.630000000000001;
    MoveL [ [-8.860, -11.819, 48.863], [0.106, -0.491, 0.865, 0.000], [0, 0, 0, 0], [ 9E9, 9E9, 9E9, 9E9, 9E9, 9E9] ], v1000, fine, pen\WObj:=platform;
    MoveL [ [0.281, -6.630, -0.020], [0.106, -0.491, 0.865, 0.000], [0, 0, 0, 0], [ 9E9, 9E9, 9E9, 9E9, 9E9, 9E9] ], v30, fine, pen\WObj:=platform;
    MoveL [ [-8.860, -11.819, 48.863], [0.106, -0.491, 0.865, 0.000], [0, 0, 0, 0], [ 9E9, 9E9, 9E9, 9E9, 9E9, 9E9] ], v1000, fine, pen\WObj:=platform;
    
    !!0.3377499074759305, -6.727500000000001;
    MoveL [ [-3.011, 14.804, 44.982], [0.224, 0.963, 0.150, 0.000], [0, 0, 0, 0], [ 9E9, 9E9, 9E9, 9E9, 9E9, 9E9] ], v1000, fine, pen\WObj:=platform;
    MoveL [ [0.338, -6.728, -0.020], [0.224, 0.963, 0.150, 0.000], [0, 0, 0, 0], [ 9E9, 9E9, 9E9, 9E9, 9E9, 9E9] ], v30, fine, pen\WObj:=platform;
    MoveL [ [-3.011, 14.804, 44.982], [0.224, 0.963, 0.150, 0.000], [0, 0, 0, 0], [ 9E9, 9E9, 9E9, 9E9, 9E9, 9E9] ], v1000, fine, pen\WObj:=platform;
    
    !!0.39404155872191926, -6.825000000000001;
    MoveL [ [-8.848, -11.617, 48.884], [0.105, -0.458, 0.883, 0.000], [0, 0, 0, 0], [ 9E9, 9E9, 9E9, 9E9, 9E9, 9E9] ], v1000, fine, pen\WObj:=platform;
    MoveL [ [0.394, -6.825, -0.020], [0.105, -0.458, 0.883, 0.000], [0, 0, 0, 0], [ 9E9, 9E9, 9E9, 9E9, 9E9, 9E9] ], v30, fine, pen\WObj:=platform;
    MoveL [ [-8.848, -11.617, 48.884], [0.105, -0.458, 0.883, 0.000], [0, 0, 0, 0], [ 9E9, 9E9, 9E9, 9E9, 9E9, 9E9] ], v1000, fine, pen\WObj:=platform;
    
    !!-1.0695413736737818, -4.290000000000001;
    MoveL [ [-10.653, -17.972, 47.107], [0.169, -0.807, 0.565, 0.000], [0, 0, 0, 0], [ 9E9, 9E9, 9E9, 9E9, 9E9, 9E9] ], v1000, fine, pen\WObj:=platform;
    MoveL [ [-1.070, -4.290, -0.020], [0.169, -0.807, 0.565, 0.000], [0, 0, 0, 0], [ 9E9, 9E9, 9E9, 9E9, 9E9, 9E9] ], v30, fine, pen\WObj:=platform;
    MoveL [ [-10.653, -17.972, 47.107], [0.169, -0.807, 0.565, 0.000], [0, 0, 0, 0], [ 9E9, 9E9, 9E9, 9E9, 9E9, 9E9] ], v1000, fine, pen\WObj:=platform;
    
    !!0.45033320996790693, -6.922500000000001;
    MoveL [ [-8.843, -11.516, 48.894], [0.104, -0.441, 0.892, 0.000], [0, 0, 0, 0], [ 9E9, 9E9, 9E9, 9E9, 9E9, 9E9] ], v1000, fine, pen\WObj:=platform;
    MoveL [ [0.450, -6.923, -0.020], [0.104, -0.441, 0.892, 0.000], [0, 0, 0, 0], [ 9E9, 9E9, 9E9, 9E9, 9E9, 9E9] ], v30, fine, pen\WObj:=platform;
    MoveL [ [-8.843, -11.516, 48.894], [0.104, -0.441, 0.892, 0.000], [0, 0, 0, 0], [ 9E9, 9E9, 9E9, 9E9, 9E9, 9E9] ], v1000, fine, pen\WObj:=platform;
    
    !!0.5066248612138968, -7.0200000000000005;
    MoveL [ [-4.335, 7.419, 47.604], [0.154, 0.937, 0.314, 0.000], [0, 0, 0, 0], [ 9E9, 9E9, 9E9, 9E9, 9E9, 9E9] ], v1000, fine, pen\WObj:=platform;
    MoveL [ [0.507, -7.020, -0.020], [0.154, 0.937, 0.314, 0.000], [0, 0, 0, 0], [ 9E9, 9E9, 9E9, 9E9, 9E9, 9E9] ], v30, fine, pen\WObj:=platform;
    MoveL [ [-4.335, 7.419, 47.604], [0.154, 0.937, 0.314, 0.000], [0, 0, 0, 0], [ 9E9, 9E9, 9E9, 9E9, 9E9, 9E9] ], v1000, fine, pen\WObj:=platform;
    
    !!0.5629165124598845, -7.1175000000000015;
    MoveL [ [-3.392, 8.265, 47.390], [0.161, 0.956, 0.246, 0.000], [0, 0, 0, 0], [ 9E9, 9E9, 9E9, 9E9, 9E9, 9E9] ], v1000, fine, pen\WObj:=platform;
    MoveL [ [0.563, -7.118, -0.020], [0.161, 0.956, 0.246, 0.000], [0, 0, 0, 0], [ 9E9, 9E9, 9E9, 9E9, 9E9, 9E9] ], v30, fine, pen\WObj:=platform;
    MoveL [ [-3.392, 8.265, 47.390], [0.161, 0.956, 0.246, 0.000], [0, 0, 0, 0], [ 9E9, 9E9, 9E9, 9E9, 9E9, 9E9] ], v1000, fine, pen\WObj:=platform;
    
    !!0.6192081637058733, -7.215000000000002;
    MoveL [ [-0.712, 8.445, 47.446], [0.159, 0.984, 0.084, 0.000], [0, 0, 0, 0], [ 9E9, 9E9, 9E9, 9E9, 9E9, 9E9] ], v1000, fine, pen\WObj:=platform;
    MoveL [ [0.619, -7.215, -0.020], [0.159, 0.984, 0.084, 0.000], [0, 0, 0, 0], [ 9E9, 9E9, 9E9, 9E9, 9E9, 9E9] ], v30, fine, pen\WObj:=platform;
