MODULE MainModule
  PERS wobjdata platform := [ FALSE, TRUE, "", [ [800, 0, 600], [1, 0, 0 ,0] ], [ [0, 0, 0], [1, 0, 0 ,0] ] ];
  PERS tooldata pen := [ TRUE, [[0, 0, 100], [1, 0, 0 ,0]], [0.8,[0, 0, 30], [1, 0, 0, 0], 0, 0, 0]];
  PROC main()
    ConfL\Off;
    ConfJ\Off;
    SingArea\Wrist;
    !!-4.55, 0.006500000000001505;
    MoveL [ [-2.532, -18.641, 46.339], [0.191, -0.976, -0.106, 0.000], [0, 0, 0, 0], [ 9E9, 9E9, 9E9, 9E9, 9E9, 9E9] ], v1000, fine, pen\WObj:=platform;
    MoveL [ [-4.550, 0.007, -0.010], [0.191, -0.976, -0.106, 0.000], [0, 0, 0, 0], [ 9E9, 9E9, 9E9, 9E9, 9E9, 9E9] ], v30, fine, pen\WObj:=platform;
    MoveL [ [-2.532, -18.641, 46.339], [0.191, -0.976, -0.106, 0.000], [0, 0, 0, 0], [ 9E9, 9E9, 9E9, 9E9, 9E9, 9E9] ], v1000, fine, pen\WObj:=platform;
    
    !!-4.414900037009628, 0.006500000000001505;
    MoveL [ [-4.504, -16.856, 47.061], [0.171, -0.985, 0.005, 0.000], [0, 0, 0, 0], [ 9E9, 9E9, 9E9, 9E9, 9E9, 9E9] ], v1000, fine, pen\WObj:=platform;
    MoveL [ [-4.415, 0.007, -0.010], [0.171, -0.985, 0.005, 0.000], [0, 0, 0, 0], [ 9E9, 9E9, 9E9, 9E9, 9E9, 9E9] ], v30, fine, pen\WObj:=platform;
    MoveL [ [-4.504, -16.856, 47.061], [0.171, -0.985, 0.005, 0.000], [0, 0, 0, 0], [ 9E9, 9E9, 9E9, 9E9, 9E9, 9E9] ], v1000, fine, pen\WObj:=platform;
    
    !!-4.2798000740192546, 0.006500000000001505;
    MoveL [ [-4.483, -16.867, 47.056], [0.171, -0.985, 0.012, 0.000], [0, 0, 0, 0], [ 9E9, 9E9, 9E9, 9E9, 9E9, 9E9] ], v1000, fine, pen\WObj:=platform;
    MoveL [ [-4.280, 0.007, -0.010], [0.171, -0.985, 0.012, 0.000], [0, 0, 0, 0], [ 9E9, 9E9, 9E9, 9E9, 9E9, 9E9] ], v30, fine, pen\WObj:=platform;
    MoveL [ [-4.483, -16.867, 47.056], [0.171, -0.985, 0.012, 0.000], [0, 0, 0, 0], [ 9E9, 9E9, 9E9, 9E9, 9E9, 9E9] ], v1000, fine, pen\WObj:=platform;
    
    !!-4.144700111028882, 0.006500000000001505;
    MoveL [ [6.332, -0.195, 48.880], [0.105, -0.019, -0.994, 0.000], [0, 0, 0, 0], [ 9E9, 9E9, 9E9, 9E9, 9E9, 9E9] ], v1000, fine, pen\WObj:=platform;
    MoveL [ [-4.145, 0.007, -0.010], [0.105, -0.019, -0.994, 0.000], [0, 0, 0, 0], [ 9E9, 9E9, 9E9, 9E9, 9E9, 9E9] ], v30, fine, pen\WObj:=platform;
    MoveL [ [6.332, -0.195, 48.880], [0.105, -0.019, -0.994, 0.000], [0, 0, 0, 0], [ 9E9, 9E9, 9E9, 9E9, 9E9, 9E9] ], v1000, fine, pen\WObj:=platform;
    
    !!-4.00960014803851, 0.006500000000001505;
    MoveL [ [6.363, -0.159, 48.902], [0.104, -0.016, -0.994, 0.000], [0, 0, 0, 0], [ 9E9, 9E9, 9E9, 9E9, 9E9, 9E9] ], v1000, fine, pen\WObj:=platform;
    MoveL [ [-4.010, 0.007, -0.010], [0.104, -0.016, -0.994, 0.000], [0, 0, 0, 0], [ 9E9, 9E9, 9E9, 9E9, 9E9, 9E9] ], v30, fine, pen\WObj:=platform;
    MoveL [ [6.363, -0.159, 48.902], [0.104, -0.016, -0.994, 0.000], [0, 0, 0, 0], [ 9E9, 9E9, 9E9, 9E9, 9E9, 9E9] ], v1000, fine, pen\WObj:=platform;
    
    !!-3.8745001850481375, 0.006500000000001505;
    MoveL [ [2.255, -23.744, 43.560], [0.254, -0.937, -0.242, 0.000], [0, 0, 0, 0], [ 9E9, 9E9, 9E9, 9E9, 9E9, 9E9] ], v1000, fine, pen\WObj:=platform;
    MoveL [ [-3.875, 0.007, -0.010], [0.254, -0.937, -0.242, 0.000], [0, 0, 0, 0], [ 9E9, 9E9, 9E9, 9E9, 9E9, 9E9] ], v30, fine, pen\WObj:=platform;
    MoveL [ [2.255, -23.744, 43.560], [0.254, -0.937, -0.242, 0.000], [0, 0, 0, 0], [ 9E9, 9E9, 9E9, 9E9, 9E9, 9E9] ], v1000, fine, pen\WObj:=platform;
    
    !!-3.7394002220577653, 0.006500000000001505;
    MoveL [ [-4.398, -16.912, 47.036], [0.172, -0.984, 0.038, 0.000], [0, 0, 0, 0], [ 9E9, 9E9, 9E9, 9E9, 9E9, 9E9] ], v1000, fine, pen\WObj:=platform;
    MoveL [ [-3.739, 0.007, -0.010], [0.172, -0.984, 0.038, 0.000], [0, 0, 0, 0], [ 9E9, 9E9, 9E9, 9E9, 9E9, 9E9] ], v30, fine, pen\WObj:=platform;
    MoveL [ [-4.398, -16.912, 47.036], [0.172, -0.984, 0.038, 0.000], [0, 0, 0, 0], [ 9E9, 9E9, 9E9, 9E9, 9E9, 9E9] ], v1000, fine, pen\WObj:=platform;
    
    !!-3.6043002590673927, 0.006500000000001505;
    MoveL [ [2.293, -23.827, 43.547], [0.254, -0.939, -0.232, 0.000], [0, 0, 0, 0], [ 9E9, 9E9, 9E9, 9E9, 9E9, 9E9] ], v1000, fine, pen\WObj:=platform;
    MoveL [ [-3.604, 0.007, -0.010], [0.254, -0.939, -0.232, 0.000], [0, 0, 0, 0], [ 9E9, 9E9, 9E9, 9E9, 9E9, 9E9] ], v30, fine, pen\WObj:=platform;
    MoveL [ [2.293, -23.827, 43.547], [0.254, -0.939, -0.232, 0.000], [0, 0, 0, 0], [ 9E9, 9E9, 9E9, 9E9, 9E9, 9E9] ], v1000, fine, pen\WObj:=platform;
    
    !!-3.46920029607702, 0.006500000000001505;
    MoveL [ [6.484, -0.016, 48.989], [0.100, -0.002, -0.995, 0.000], [0, 0, 0, 0], [ 9E9, 9E9, 9E9, 9E9, 9E9, 9E9] ], v1000, fine, pen\WObj:=platform;
    MoveL [ [-3.469, 0.007, -0.010], [0.100, -0.002, -0.995, 0.000], [0, 0, 0, 0], [ 9E9, 9E9, 9E9, 9E9, 9E9, 9E9] ], v30, fine, pen\WObj:=platform;
    MoveL [ [6.484, -0.016, 48.989], [0.100, -0.002, -0.995, 0.000], [0, 0, 0, 0], [ 9E9, 9E9, 9E9, 9E9, 9E9, 9E9] ], v1000, fine, pen\WObj:=platform;
    
    !!-3.3341003330866483, 0.006500000000001505;
    MoveL [ [-4.332, -16.945, 47.018], [0.172, -0.983, 0.058, 0.000], [0, 0, 0, 0], [ 9E9, 9E9, 9E9, 9E9, 9E9, 9E9] ], v1000, fine, pen\WObj:=platform;
    MoveL [ [-3.334, 0.007, -0.010], [0.172, -0.983, 0.058, 0.000], [0, 0, 0, 0], [ 9E9, 9E9, 9E9, 9E9, 9E9, 9E9] ], v30, fine, pen\WObj:=platform;
    MoveL [ [-4.332, -16.945, 47.018], [0.172, -0.983, 0.058, 0.000], [0, 0, 0, 0], [ 9E9, 9E9, 9E9, 9E9, 9E9, 9E9] ], v1000, fine, pen\WObj:=platform;
    
    !!-3.1990003700962752, 0.006500000000001505;
    MoveL [ [-0.088, -21.125, 45.198], [0.219, -0.965, -0.142, 0.000], [0, 0, 0, 0], [ 9E9, 9E9, 9E9, 9E9, 9E9, 9E9] ], v1000, fine, pen\WObj:=platform;
    MoveL [ [-3.199, 0.007, -0.010], [0.219, -0.965, -0.142, 0.000], [0, 0, 0, 0], [ 9E9, 9E9, 9E9, 9E9, 9E9, 9E9] ], v30, fine, pen\WObj:=platform;
    MoveL [ [-0.088, -21.125, 45.198], [0.219, -0.965, -0.142, 0.000], [0, 0, 0, 0], [ 9E9, 9E9, 9E9, 9E9, 9E9, 9E9] ], v1000, fine, pen\WObj:=platform;
    
    !!-3.0639004071059035, 0.006500000000001505;
    MoveL [ [6.574, 0.093, 49.052], [0.097, 0.009, -0.995, 0.000], [0, 0, 0, 0], [ 9E9, 9E9, 9E9, 9E9, 9E9, 9E9] ], v1000, fine, pen\WObj:=platform;
    MoveL [ [-3.064, 0.007, -0.010], [0.097, 0.009, -0.995, 0.000], [0, 0, 0, 0], [ 9E9, 9E9, 9E9, 9E9, 9E9, 9E9] ], v30, fine, pen\WObj:=platform;
    MoveL [ [6.574, 0.093, 49.052], [0.097, 0.009, -0.995, 0.000], [0, 0, 0, 0], [ 9E9, 9E9, 9E9, 9E9, 9E9, 9E9] ], v1000, fine, pen\WObj:=platform;
    
    !!-2.928800444115531, 0.006500000000001505;
    MoveL [ [-0.050, -21.180, 45.188], [0.219, -0.967, -0.131, 0.000], [0, 0, 0, 0], [ 9E9, 9E9, 9E9, 9E9, 9E9, 9E9] ], v1000, fine, pen\WObj:=platform;
    MoveL [ [-2.929, 0.007, -0.010], [0.219, -0.967, -0.131, 0.000], [0, 0, 0, 0], [ 9E9, 9E9, 9E9, 9E9, 9E9, 9E9] ], v30, fine, pen\WObj:=platform;
    MoveL [ [-0.050, -21.180, 45.188], [0.219, -0.967, -0.131, 0.000], [0, 0, 0, 0], [ 9E9, 9E9, 9E9, 9E9, 9E9, 9E9] ], v1000, fine, pen\WObj:=platform;
    
    !!-2.7937004811251587, 0.006500000000001505;
    MoveL [ [-2.274, -18.873, 46.286], [0.192, -0.981, -0.027, 0.000], [0, 0, 0, 0], [ 9E9, 9E9, 9E9, 9E9, 9E9, 9E9] ], v1000, fine, pen\WObj:=platform;
    MoveL [ [-2.794, 0.007, -0.010], [0.192, -0.981, -0.027, 0.000], [0, 0, 0, 0], [ 9E9, 9E9, 9E9, 9E9, 9E9, 9E9] ], v30, fine, pen\WObj:=platform;
    MoveL [ [-2.274, -18.873, 46.286], [0.192, -0.981, -0.027, 0.000], [0, 0, 0, 0], [ 9E9, 9E9, 9E9, 9E9, 9E9, 9E9] ], v1000, fine, pen\WObj:=platform;
    
    !!-2.658600518134786, 0.006500000000001505;
    MoveL [ [6.663, 0.203, 49.113], [0.094, 0.021, -0.995, 0.000], [0, 0, 0, 0], [ 9E9, 9E9, 9E9, 9E9, 9E9, 9E9] ], v1000, fine, pen\WObj:=platform;
    MoveL [ [-2.659, 0.007, -0.010], [0.094, 0.021, -0.995, 0.000], [0, 0, 0, 0], [ 9E9, 9E9, 9E9, 9E9, 9E9, 9E9] ], v30, fine, pen\WObj:=platform;
    MoveL [ [6.663, 0.203, 49.113], [0.094, 0.021, -0.995, 0.000], [0, 0, 0, 0], [ 9E9, 9E9, 9E9, 9E9, 9E9, 9E9] ], v1000, fine, pen\WObj:=platform;
    
    !!-2.523500555144414, 0.006500000000001505;
    MoveL [ [6.693, 0.241, 49.133], [0.093, 0.025, -0.995, 0.000], [0, 0, 0, 0], [ 9E9, 9E9, 9E9, 9E9, 9E9, 9E9] ], v1000, fine, pen\WObj:=platform;
    MoveL [ [-2.524, 0.007, -0.010], [0.093, 0.025, -0.995, 0.000], [0, 0, 0, 0], [ 9E9, 9E9, 9E9, 9E9, 9E9, 9E9] ], v30, fine, pen\WObj:=platform;
    MoveL [ [6.693, 0.241, 49.133], [0.093, 0.025, -0.995, 0.000], [0, 0, 0, 0], [ 9E9, 9E9, 9E9, 9E9, 9E9, 9E9] ], v1000, fine, pen\WObj:=platform;
    
    !!-2.3884005921540403, 0.006500000000001505;
    MoveL [ [0.027, -21.287, 45.165], [0.220, -0.969, -0.110, 0.000], [0, 0, 0, 0], [ 9E9, 9E9, 9E9, 9E9, 9E9, 9E9] ], v1000, fine, pen\WObj:=platform;
    MoveL [ [-2.388, 0.007, -0.010], [0.220, -0.969, -0.110, 0.000], [0, 0, 0, 0], [ 9E9, 9E9, 9E9, 9E9, 9E9, 9E9] ], v30, fine, pen\WObj:=platform;
    MoveL [ [0.027, -21.287, 45.165], [0.220, -0.969, -0.110, 0.000], [0, 0, 0, 0], [ 9E9, 9E9, 9E9, 9E9, 9E9, 9E9] ], v1000, fine, pen\WObj:=platform;
    
    !!-2.253300629163669, 0.006500000000001505;
    MoveL [ [0.046, -21.314, 45.158], [0.220, -0.970, -0.105, 0.000], [0, 0, 0, 0], [ 9E9, 9E9, 9E9, 9E9, 9E9, 9E9] ], v1000, fine, pen\WObj:=platform;
    MoveL [ [-2.253, 0.007, -0.010], [0.220, -0.970, -0.105, 0.000], [0, 0, 0, 0], [ 9E9, 9E9, 9E9, 9E9, 9E9, 9E9] ], v30, fine, pen\WObj:=platform;
    MoveL [ [0.046, -21.314, 45.158], [0.220, -0.970, -0.105, 0.000], [0, 0, 0, 0], [ 9E9, 9E9, 9E9, 9E9, 9E9, 9E9] ], v1000, fine, pen\WObj:=platform;
    
    !!-2.118200666173296, 0.006500000000001505;
    MoveL [ [6.782, 0.353, 49.190], [0.089, 0.039, -0.995, 0.000], [0, 0, 0, 0], [ 9E9, 9E9, 9E9, 9E9, 9E9, 9E9] ], v1000, fine, pen\WObj:=platform;
    MoveL [ [-2.118, 0.007, -0.010], [0.089, 0.039, -0.995, 0.000], [0, 0, 0, 0], [ 9E9, 9E9, 9E9, 9E9, 9E9, 9E9] ], v30, fine, pen\WObj:=platform;
    MoveL [ [6.782, 0.353, 49.190], [0.089, 0.039, -0.995, 0.000], [0, 0, 0, 0], [ 9E9, 9E9, 9E9, 9E9, 9E9, 9E9] ], v1000, fine, pen\WObj:=platform;
    
    !!-1.9831007031829242, 0.006500000000001505;
    MoveL [ [-4.106, -17.049, 46.943], [0.175, -0.977, 0.122, 0.000], [0, 0, 0, 0], [ 9E9, 9E9, 9E9, 9E9, 9E9, 9E9] ], v1000, fine, pen\WObj:=platform;
    MoveL [ [-1.983, 0.007, -0.010], [0.175, -0.977, 0.122, 0.000], [0, 0, 0, 0], [ 9E9, 9E9, 9E9, 9E9, 9E9, 9E9] ], v30, fine, pen\WObj:=platform;
    MoveL [ [-4.106, -17.049, 46.943], [0.175, -0.977, 0.122, 0.000], [0, 0, 0, 0], [ 9E9, 9E9, 9E9, 9E9, 9E9, 9E9] ], v1000, fine, pen\WObj:=platform;
    
    !!-1.8480007401925511, 0.006500000000001505;
    MoveL [ [-4.083, -17.059, 46.934], [0.175, -0.976, 0.128, 0.000], [0, 0, 0, 0], [ 9E9, 9E9, 9E9, 9E9, 9E9, 9E9] ], v1000, fine, pen\WObj:=platform;
    MoveL [ [-1.848, 0.007, -0.010], [0.175, -0.976, 0.128, 0.000], [0, 0, 0, 0], [ 9E9, 9E9, 9E9, 9E9, 9E9, 9E9] ], v30, fine, pen\WObj:=platform;
    MoveL [ [-4.083, -17.059, 46.934], [0.175, -0.976, 0.128, 0.000], [0, 0, 0, 0], [ 9E9, 9E9, 9E9, 9E9, 9E9, 9E9] ], v1000, fine, pen\WObj:=platform;
    
    !!-1.7129007772021787, 0.006500000000001505;
    MoveL [ [0.123, -21.420, 45.129], [0.220, -0.972, -0.083, 0.000], [0, 0, 0, 0], [ 9E9, 9E9, 9E9, 9E9, 9E9, 9E9] ], v1000, fine, pen\WObj:=platform;
    MoveL [ [-1.713, 0.007, -0.010], [0.220, -0.972, -0.083, 0.000], [0, 0, 0, 0], [ 9E9, 9E9, 9E9, 9E9, 9E9, 9E9] ], v30, fine, pen\WObj:=platform;
    MoveL [ [0.123, -21.420, 45.129], [0.220, -0.972, -0.083, 0.000], [0, 0, 0, 0], [ 9E9, 9E9, 9E9, 9E9, 9E9, 9E9] ], v1000, fine, pen\WObj:=platform;
    
    !!-1.5778008142118063, 0.006500000000001505;
    MoveL [ [-2.087, -19.024, 46.224], [0.194, -0.981, 0.026, 0.000], [0, 0, 0, 0], [ 9E9, 9E9, 9E9, 9E9, 9E9, 9E9] ], v1000, fine, pen\WObj:=platform;
    MoveL [ [-1.578, 0.007, -0.010], [0.194, -0.981, 0.026, 0.000], [0, 0, 0, 0], [ 9E9, 9E9, 9E9, 9E9, 9E9, 9E9] ], v30, fine, pen\WObj:=platform;
    MoveL [ [-2.087, -19.024, 46.224], [0.194, -0.981, 0.026, 0.000], [0, 0, 0, 0], [ 9E9, 9E9, 9E9, 9E9, 9E9, 9E9] ], v1000, fine, pen\WObj:=platform;
    
    !!-1.442700851221434, 0.006500000000001505;
    MoveL [ [-4.012, -17.088, 46.907], [0.176, -0.974, 0.146, 0.000], [0, 0, 0, 0], [ 9E9, 9E9, 9E9, 9E9, 9E9, 9E9] ], v1000, fine, pen\WObj:=platform;
    MoveL [ [-1.443, 0.007, -0.010], [0.176, -0.974, 0.146, 0.000], [0, 0, 0, 0], [ 9E9, 9E9, 9E9, 9E9, 9E9, 9E9] ], v30, fine, pen\WObj:=platform;
    MoveL [ [-4.012, -17.088, 46.907], [0.176, -0.974, 0.146, 0.000], [0, 0, 0, 0], [ 9E9, 9E9, 9E9, 9E9, 9E9, 9E9] ], v1000, fine, pen\WObj:=platform;
    
    !!-1.3076008882310617, 0.006500000000001505;
    MoveL [ [2.607, -24.521, 43.384], [0.257, -0.954, -0.152, 0.000], [0, 0, 0, 0], [ 9E9, 9E9, 9E9, 9E9, 9E9, 9E9] ], v1000, fine, pen\WObj:=platform;
    MoveL [ [-1.308, 0.007, -0.010], [0.257, -0.954, -0.152, 0.000], [0, 0, 0, 0], [ 9E9, 9E9, 9E9, 9E9, 9E9, 9E9] ], v30, fine, pen\WObj:=platform;
    MoveL [ [2.607, -24.521, 43.384], [0.257, -0.954, -0.152, 0.000], [0, 0, 0, 0], [ 9E9, 9E9, 9E9, 9E9, 9E9, 9E9] ], v1000, fine, pen\WObj:=platform;
    
    !!-1.1725009252406895, 0.006500000000001505;
    MoveL [ [-2.024, -19.072, 46.199], [0.195, -0.980, 0.044, 0.000], [0, 0, 0, 0], [ 9E9, 9E9, 9E9, 9E9, 9E9, 9E9] ], v1000, fine, pen\WObj:=platform;
    MoveL [ [-1.173, 0.007, -0.010], [0.195, -0.980, 0.044, 0.000], [0, 0, 0, 0], [ 9E9, 9E9, 9E9, 9E9, 9E9, 9E9] ], v30, fine, pen\WObj:=platform;
    MoveL [ [-2.024, -19.072, 46.199], [0.195, -0.980, 0.044, 0.000], [0, 0, 0, 0], [ 9E9, 9E9, 9E9, 9E9, 9E9, 9E9] ], v1000, fine, pen\WObj:=platform;
    
    !!-1.037400962250317, 0.006500000000001505;
    MoveL [ [7.014, 0.657, 49.333], [0.081, 0.080, -0.993, 0.000], [0, 0, 0, 0], [ 9E9, 9E9, 9E9, 9E9, 9E9, 9E9] ], v1000, fine, pen\WObj:=platform;
    MoveL [ [-1.037, 0.007, -0.010], [0.081, 0.080, -0.993, 0.000], [0, 0, 0, 0], [ 9E9, 9E9, 9E9, 9E9, 9E9, 9E9] ], v30, fine, pen\WObj:=platform;
    MoveL [ [7.014, 0.657, 49.333], [0.081, 0.080, -0.993, 0.000], [0, 0, 0, 0], [ 9E9, 9E9, 9E9, 9E9, 9E9, 9E9] ], v1000, fine, pen\WObj:=platform;
    
    !!-0.9023009992599447, 0.006500000000001505;
    MoveL [ [0.239, -21.575, 45.078], [0.222, -0.974, -0.051, 0.000], [0, 0, 0, 0], [ 9E9, 9E9, 9E9, 9E9, 9E9, 9E9] ], v1000, fine, pen\WObj:=platform;
    MoveL [ [-0.902, 0.007, -0.010], [0.222, -0.974, -0.051, 0.000], [0, 0, 0, 0], [ 9E9, 9E9, 9E9, 9E9, 9E9, 9E9] ], v30, fine, pen\WObj:=platform;
    MoveL [ [0.239, -21.575, 45.078], [0.222, -0.974, -0.051, 0.000], [0, 0, 0, 0], [ 9E9, 9E9, 9E9, 9E9, 9E9, 9E9] ], v1000, fine, pen\WObj:=platform;
    
    !!-0.7672010362695724, 0.006500000000001505;
    MoveL [ [-3.893, -17.135, 46.856], [0.177, -0.968, 0.177, 0.000], [0, 0, 0, 0], [ 9E9, 9E9, 9E9, 9E9, 9E9, 9E9] ], v1000, fine, pen\WObj:=platform;
    MoveL [ [-0.767, 0.007, -0.010], [0.177, -0.968, 0.177, 0.000], [0, 0, 0, 0], [ 9E9, 9E9, 9E9, 9E9, 9E9, 9E9] ], v30, fine, pen\WObj:=platform;
    MoveL [ [-3.893, -17.135, 46.856], [0.177, -0.968, 0.177, 0.000], [0, 0, 0, 0], [ 9E9, 9E9, 9E9, 9E9, 9E9, 9E9] ], v1000, fine, pen\WObj:=platform;
    
    !!-0.6321010732792, 0.006500000000001505;
    MoveL [ [-1.939, -19.135, 46.162], [0.196, -0.978, 0.067, 0.000], [0, 0, 0, 0], [ 9E9, 9E9, 9E9, 9E9, 9E9, 9E9] ], v1000, fine, pen\WObj:=platform;
    MoveL [ [-0.632, 0.007, -0.010], [0.196, -0.978, 0.067, 0.000], [0, 0, 0, 0], [ 9E9, 9E9, 9E9, 9E9, 9E9, 9E9] ], v30, fine, pen\WObj:=platform;
    MoveL [ [-1.939, -19.135, 46.162], [0.196, -0.978, 0.067, 0.000], [0, 0, 0, 0], [ 9E9, 9E9, 9E9, 9E9, 9E9, 9E9] ], v1000, fine, pen\WObj:=platform;
    
    !!-0.49700111028882754, 0.006500000000001505;
    MoveL [ [-1.917, -19.151, 46.153], [0.196, -0.978, 0.073, 0.000], [0, 0, 0, 0], [ 9E9, 9E9, 9E9, 9E9, 9E9, 9E9] ], v1000, fine, pen\WObj:=platform;
    MoveL [ [-0.497, 0.007, -0.010], [0.196, -0.978, 0.073, 0.000], [0, 0, 0, 0], [ 9E9, 9E9, 9E9, 9E9, 9E9, 9E9] ], v30, fine, pen\WObj:=platform;
    MoveL [ [-1.917, -19.151, 46.153], [0.196, -0.978, 0.073, 0.000], [0, 0, 0, 0], [ 9E9, 9E9, 9E9, 9E9, 9E9, 9E9] ], v1000, fine, pen\WObj:=platform;
    
    !!-0.3619011472984552, 0.006500000000001505;
    MoveL [ [-3.820, -17.162, 46.823], [0.178, -0.965, 0.194, 0.000], [0, 0, 0, 0], [ 9E9, 9E9, 9E9, 9E9, 9E9, 9E9] ], v1000, fine, pen\WObj:=platform;
    MoveL [ [-0.362, 0.007, -0.010], [0.178, -0.965, 0.194, 0.000], [0, 0, 0, 0], [ 9E9, 9E9, 9E9, 9E9, 9E9, 9E9] ], v30, fine, pen\WObj:=platform;
    MoveL [ [-3.820, -17.162, 46.823], [0.178, -0.965, 0.194, 0.000], [0, 0, 0, 0], [ 9E9, 9E9, 9E9, 9E9, 9E9, 9E9] ], v1000, fine, pen\WObj:=platform;
    
    !!-0.2268011843080821, 0.006500000000001505;
    MoveL [ [-3.795, -17.171, 46.811], [0.178, -0.963, 0.200, 0.000], [0, 0, 0, 0], [ 9E9, 9E9, 9E9, 9E9, 9E9, 9E9] ], v1000, fine, pen\WObj:=platform;
    MoveL [ [-0.227, 0.007, -0.010], [0.178, -0.963, 0.200, 0.000], [0, 0, 0, 0], [ 9E9, 9E9, 9E9, 9E9, 9E9, 9E9] ], v30, fine, pen\WObj:=platform;
    MoveL [ [-3.795, -17.171, 46.811], [0.178, -0.963, 0.200, 0.000], [0, 0, 0, 0], [ 9E9, 9E9, 9E9, 9E9, 9E9, 9E9] ], v1000, fine, pen\WObj:=platform;
    
    !!-0.09170122131770975, 0.006500000000001505;
    MoveL [ [0.355, -21.726, 45.018], [0.223, -0.975, -0.020, 0.000], [0, 0, 0, 0], [ 9E9, 9E9, 9E9, 9E9, 9E9, 9E9] ], v1000, fine, pen\WObj:=platform;
    MoveL [ [-0.092, 0.007, -0.010], [0.223, -0.975, -0.020, 0.000], [0, 0, 0, 0], [ 9E9, 9E9, 9E9, 9E9, 9E9, 9E9] ], v30, fine, pen\WObj:=platform;
    MoveL [ [0.355, -21.726, 45.018], [0.223, -0.975, -0.020, 0.000], [0, 0, 0, 0], [ 9E9, 9E9, 9E9, 9E9, 9E9, 9E9] ], v1000, fine, pen\WObj:=platform;
    
    !!0.04339874167266333, 0.006500000000001505;
    MoveL [ [7.240, 0.970, 49.460], [0.073, 0.132, -0.989, 0.000], [0, 0, 0, 0], [ 9E9, 9E9, 9E9, 9E9, 9E9, 9E9] ], v1000, fine, pen\WObj:=platform;
    MoveL [ [0.043, 0.007, -0.010], [0.073, 0.132, -0.989, 0.000], [0, 0, 0, 0], [ 9E9, 9E9, 9E9, 9E9, 9E9, 9E9] ], v30, fine, pen\WObj:=platform;
    MoveL [ [7.240, 0.970, 49.460], [0.073, 0.132, -0.989, 0.000], [0, 0, 0, 0], [ 9E9, 9E9, 9E9, 9E9, 9E9, 9E9] ], v1000, fine, pen\WObj:=platform;
    
    !!0.17849870466303353, 0.006500000000001505;
    MoveL [ [0.393, -21.776, 44.995], [0.223, -0.975, -0.010, 0.000], [0, 0, 0, 0], [ 9E9, 9E9, 9E9, 9E9, 9E9, 9E9] ], v1000, fine, pen\WObj:=platform;
    MoveL [ [0.178, 0.007, -0.010], [0.223, -0.975, -0.010, 0.000], [0, 0, 0, 0], [ 9E9, 9E9, 9E9, 9E9, 9E9, 9E9] ], v30, fine, pen\WObj:=platform;
    MoveL [ [0.393, -21.776, 44.995], [0.223, -0.975, -0.010, 0.000], [0, 0, 0, 0], [ 9E9, 9E9, 9E9, 9E9, 9E9, 9E9] ], v1000, fine, pen\WObj:=platform;
    
    !!0.3135986676534066, 0.006500000000001505;
    MoveL [ [2.820, -24.995, 43.218], [0.260, -0.961, -0.096, 0.000], [0, 0, 0, 0], [ 9E9, 9E9, 9E9, 9E9, 9E9, 9E9] ], v1000, fine, pen\WObj:=platform;
    MoveL [ [0.314, 0.007, -0.010], [0.260, -0.961, -0.096, 0.000], [0, 0, 0, 0], [ 9E9, 9E9, 9E9, 9E9, 9E9, 9E9] ], v30, fine, pen\WObj:=platform;
    MoveL [ [2.820, -24.995, 43.218], [0.260, -0.961, -0.096, 0.000], [0, 0, 0, 0], [ 9E9, 9E9, 9E9, 9E9, 9E9, 9E9] ], v1000, fine, pen\WObj:=platform;
    
    !!0.4486986306437797, 0.006500000000001505;
    MoveL [ [-3.671, -17.213, 46.750], [0.180, -0.957, 0.229, 0.000], [0, 0, 0, 0], [ 9E9, 9E9, 9E9, 9E9, 9E9, 9E9] ], v1000, fine, pen\WObj:=platform;
    MoveL [ [0.449, 0.007, -0.010], [0.180, -0.957, 0.229, 0.000], [0, 0, 0, 0], [ 9E9, 9E9, 9E9, 9E9, 9E9, 9E9] ], v30, fine, pen\WObj:=platform;
    MoveL [ [-3.671, -17.213, 46.750], [0.180, -0.957, 0.229, 0.000], [0, 0, 0, 0], [ 9E9, 9E9, 9E9, 9E9, 9E9, 9E9] ], v1000, fine, pen\WObj:=platform;
    
    !!0.5837985936341528, 0.006500000000001505;
    MoveL [ [2.855, -25.072, 43.186], [0.261, -0.961, -0.087, 0.000], [0, 0, 0, 0], [ 9E9, 9E9, 9E9, 9E9, 9E9, 9E9] ], v1000, fine, pen\WObj:=platform;
    MoveL [ [0.584, 0.007, -0.010], [0.261, -0.961, -0.087, 0.000], [0, 0, 0, 0], [ 9E9, 9E9, 9E9, 9E9, 9E9, 9E9] ], v30, fine, pen\WObj:=platform;
    MoveL [ [2.855, -25.072, 43.186], [0.261, -0.961, -0.087, 0.000], [0, 0, 0, 0], [ 9E9, 9E9, 9E9, 9E9, 9E9, 9E9] ], v1000, fine, pen\WObj:=platform;
    
    !!0.7188985566245244, 0.006500000000001505;
    MoveL [ [0.470, -21.873, 44.948], [0.225, -0.974, 0.011, 0.000], [0, 0, 0, 0], [ 9E9, 9E9, 9E9, 9E9, 9E9, 9E9] ], v1000, fine, pen\WObj:=platform;
    MoveL [ [0.719, 0.007, -0.010], [0.225, -0.974, 0.011, 0.000], [0, 0, 0, 0], [ 9E9, 9E9, 9E9, 9E9, 9E9, 9E9] ], v30, fine, pen\WObj:=platform;
    MoveL [ [0.470, -21.873, 44.948], [0.225, -0.974, 0.011, 0.000], [0, 0, 0, 0], [ 9E9, 9E9, 9E9, 9E9, 9E9, 9E9] ], v1000, fine, pen\WObj:=platform;
    
    !!0.853998519614896, 0.006500000000001505;
    MoveL [ [0.489, -21.897, 44.935], [0.225, -0.974, 0.016, 0.000], [0, 0, 0, 0], [ 9E9, 9E9, 9E9, 9E9, 9E9, 9E9] ], v1000, fine, pen\WObj:=platform;
    MoveL [ [0.854, 0.007, -0.010], [0.225, -0.974, 0.016, 0.000], [0, 0, 0, 0], [ 9E9, 9E9, 9E9, 9E9, 9E9, 9E9] ], v30, fine, pen\WObj:=platform;
    MoveL [ [0.489, -21.897, 44.935], [0.225, -0.974, 0.016, 0.000], [0, 0, 0, 0], [ 9E9, 9E9, 9E9, 9E9, 9E9, 9E9] ], v1000, fine, pen\WObj:=platform;
    
    !!0.9890984826052691, 0.006500000000001505;
    MoveL [ [-1.678, -19.314, 46.029], [0.199, -0.971, 0.134, 0.000], [0, 0, 0, 0], [ 9E9, 9E9, 9E9, 9E9, 9E9, 9E9] ], v1000, fine, pen\WObj:=platform;
    MoveL [ [0.989, 0.007, -0.010], [0.199, -0.971, 0.134, 0.000], [0, 0, 0, 0], [ 9E9, 9E9, 9E9, 9E9, 9E9, 9E9] ], v30, fine, pen\WObj:=platform;
    MoveL [ [-1.678, -19.314, 46.029], [0.199, -0.971, 0.134, 0.000], [0, 0, 0, 0], [ 9E9, 9E9, 9E9, 9E9, 9E9, 9E9] ], v1000, fine, pen\WObj:=platform;
    
    !!1.1241984455956422, 0.006500000000001505;
    MoveL [ [2.923, -25.225, 43.119], [0.262, -0.963, -0.069, 0.000], [0, 0, 0, 0], [ 9E9, 9E9, 9E9, 9E9, 9E9, 9E9] ], v1000, fine, pen\WObj:=platform;
    MoveL [ [1.124, 0.007, -0.010], [0.262, -0.963, -0.069, 0.000], [0, 0, 0, 0], [ 9E9, 9E9, 9E9, 9E9, 9E9, 9E9] ], v30, fine, pen\WObj:=platform;
    MoveL [ [2.923, -25.225, 43.119], [0.262, -0.963, -0.069, 0.000], [0, 0, 0, 0], [ 9E9, 9E9, 9E9, 9E9, 9E9, 9E9] ], v1000, fine, pen\WObj:=platform;
    
    !!1.2592984085860155, 0.006500000000001505;
    MoveL [ [7.483, 1.331, 49.583], [0.064, 0.208, -0.976, 0.000], [0, 0, 0, 0], [ 9E9, 9E9, 9E9, 9E9, 9E9, 9E9] ], v1000, fine, pen\WObj:=platform;
    MoveL [ [1.259, 0.007, -0.010], [0.064, 0.208, -0.976, 0.000], [0, 0, 0, 0], [ 9E9, 9E9, 9E9, 9E9, 9E9, 9E9] ], v30, fine, pen\WObj:=platform;
    MoveL [ [7.483, 1.331, 49.583], [0.064, 0.208, -0.976, 0.000], [0, 0, 0, 0], [ 9E9, 9E9, 9E9, 9E9, 9E9, 9E9] ], v1000, fine, pen\WObj:=platform;
    
    !!1.3943983715763855, 0.006500000000001505;
    MoveL [ [7.509, 1.372, 49.596], [0.063, 0.217, -0.974, 0.000], [0, 0, 0, 0], [ 9E9, 9E9, 9E9, 9E9, 9E9, 9E9] ], v1000, fine, pen\WObj:=platform;
    MoveL [ [1.394, 0.007, -0.010], [0.063, 0.217, -0.974, 0.000], [0, 0, 0, 0], [ 9E9, 9E9, 9E9, 9E9, 9E9, 9E9] ], v30, fine, pen\WObj:=platform;
    MoveL [ [7.509, 1.372, 49.596], [0.063, 0.217, -0.974, 0.000], [0, 0, 0, 0], [ 9E9, 9E9, 9E9, 9E9, 9E9, 9E9] ], v1000, fine, pen\WObj:=platform;
    
    !!1.5294983345667588, 0.006500000000001505;
    MoveL [ [-1.590, -19.370, 45.977], [0.200, -0.967, 0.156, 0.000], [0, 0, 0, 0], [ 9E9, 9E9, 9E9, 9E9, 9E9, 9E9] ], v1000, fine, pen\WObj:=platform;
    MoveL [ [1.529, 0.007, -0.010], [0.200, -0.967, 0.156, 0.000], [0, 0, 0, 0], [ 9E9, 9E9, 9E9, 9E9, 9E9, 9E9] ], v30, fine, pen\WObj:=platform;
    MoveL [ [-1.590, -19.370, 45.977], [0.200, -0.967, 0.156, 0.000], [0, 0, 0, 0], [ 9E9, 9E9, 9E9, 9E9, 9E9, 9E9] ], v1000, fine, pen\WObj:=platform;
    
    !!1.6645982975571316, 0.006500000000001505;
    MoveL [ [0.604, -22.039, 44.855], [0.227, -0.973, 0.047, 0.000], [0, 0, 0, 0], [ 9E9, 9E9, 9E9, 9E9, 9E9, 9E9] ], v1000, fine, pen\WObj:=platform;
    MoveL [ [1.665, 0.007, -0.010], [0.227, -0.973, 0.047, 0.000], [0, 0, 0, 0], [ 9E9, 9E9, 9E9, 9E9, 9E9, 9E9] ], v30, fine, pen\WObj:=platform;
    MoveL [ [0.604, -22.039, 44.855], [0.227, -0.973, 0.047, 0.000], [0, 0, 0, 0], [ 9E9, 9E9, 9E9, 9E9, 9E9, 9E9] ], v1000, fine, pen\WObj:=platform;
    
    !!1.7996982605475047, 0.006500000000001505;
    MoveL [ [0.623, -22.062, 44.841], [0.227, -0.973, 0.052, 0.000], [0, 0, 0, 0], [ 9E9, 9E9, 9E9, 9E9, 9E9, 9E9] ], v1000, fine, pen\WObj:=platform;
    MoveL [ [1.800, 0.007, -0.010], [0.227, -0.973, 0.052, 0.000], [0, 0, 0, 0], [ 9E9, 9E9, 9E9, 9E9, 9E9, 9E9] ], v30, fine, pen\WObj:=platform;
    MoveL [ [0.623, -22.062, 44.841], [0.227, -0.973, 0.052, 0.000], [0, 0, 0, 0], [ 9E9, 9E9, 9E9, 9E9, 9E9, 9E9] ], v1000, fine, pen\WObj:=platform;
    
    !!1.9347982235378764, 0.006500000000001505;
    MoveL [ [7.613, 1.535, 49.643], [0.059, 0.260, -0.964, 0.000], [0, 0, 0, 0], [ 9E9, 9E9, 9E9, 9E9, 9E9, 9E9] ], v1000, fine, pen\WObj:=platform;
    MoveL [ [1.935, 0.007, -0.010], [0.059, 0.260, -0.964, 0.000], [0, 0, 0, 0], [ 9E9, 9E9, 9E9, 9E9, 9E9, 9E9] ], v30, fine, pen\WObj:=platform;
    MoveL [ [7.613, 1.535, 49.643], [0.059, 0.260, -0.964, 0.000], [0, 0, 0, 0], [ 9E9, 9E9, 9E9, 9E9, 9E9, 9E9] ], v1000, fine, pen\WObj:=platform;
    
    !!2.069898186528248, 0.006500000000001505;
    MoveL [ [7.638, 1.576, 49.654], [0.058, 0.271, -0.961, 0.000], [0, 0, 0, 0], [ 9E9, 9E9, 9E9, 9E9, 9E9, 9E9] ], v1000, fine, pen\WObj:=platform;
    MoveL [ [2.070, 0.007, -0.010], [0.058, 0.271, -0.961, 0.000], [0, 0, 0, 0], [ 9E9, 9E9, 9E9, 9E9, 9E9, 9E9] ], v30, fine, pen\WObj:=platform;
    MoveL [ [7.638, 1.576, 49.654], [0.058, 0.271, -0.961, 0.000], [0, 0, 0, 0], [ 9E9, 9E9, 9E9, 9E9, 9E9, 9E9] ], v1000, fine, pen\WObj:=platform;
    
    !!2.2049981495186213, 0.006500000000001505;
    MoveL [ [-3.335, -17.312, 46.566], [0.185, -0.936, 0.299, 0.000], [0, 0, 0, 0], [ 9E9, 9E9, 9E9, 9E9, 9E9, 9E9] ], v1000, fine, pen\WObj:=platform;
    MoveL [ [2.205, 0.007, -0.010], [0.185, -0.936, 0.299, 0.000], [0, 0, 0, 0], [ 9E9, 9E9, 9E9, 9E9, 9E9, 9E9] ], v30, fine, pen\WObj:=platform;
    MoveL [ [-3.335, -17.312, 46.566], [0.185, -0.936, 0.299, 0.000], [0, 0, 0, 0], [ 9E9, 9E9, 9E9, 9E9, 9E9, 9E9] ], v1000, fine, pen\WObj:=platform;
    
    !!2.3400981125089944, 0.006500000000001505;
    MoveL [ [7.688, 1.659, 49.676], [0.056, 0.295, -0.954, 0.000], [0, 0, 0, 0], [ 9E9, 9E9, 9E9, 9E9, 9E9, 9E9] ], v1000, fine, pen\WObj:=platform;
    MoveL [ [2.340, 0.007, -0.010], [0.056, 0.295, -0.954, 0.000], [0, 0, 0, 0], [ 9E9, 9E9, 9E9, 9E9, 9E9, 9E9] ], v30, fine, pen\WObj:=platform;
    MoveL [ [7.688, 1.659, 49.676], [0.056, 0.295, -0.954, 0.000], [0, 0, 0, 0], [ 9E9, 9E9, 9E9, 9E9, 9E9, 9E9] ], v1000, fine, pen\WObj:=platform;
    
    !!2.4751980754993657, 0.006500000000001505;
    MoveL [ [3.086, -25.599, 42.932], [0.266, -0.964, -0.023, 0.000], [0, 0, 0, 0], [ 9E9, 9E9, 9E9, 9E9, 9E9, 9E9] ], v1000, fine, pen\WObj:=platform;
    MoveL [ [2.475, 0.007, -0.010], [0.266, -0.964, -0.023, 0.000], [0, 0, 0, 0], [ 9E9, 9E9, 9E9, 9E9, 9E9, 9E9] ], v30, fine, pen\WObj:=platform;
    MoveL [ [3.086, -25.599, 42.932], [0.266, -0.964, -0.023, 0.000], [0, 0, 0, 0], [ 9E9, 9E9, 9E9, 9E9, 9E9, 9E9] ], v1000, fine, pen\WObj:=platform;
    
    !!2.6102980384897374, 0.006500000000001505;
    MoveL [ [0.736, -22.198, 44.750], [0.229, -0.970, 0.082, 0.000], [0, 0, 0, 0], [ 9E9, 9E9, 9E9, 9E9, 9E9, 9E9] ], v1000, fine, pen\WObj:=platform;
    MoveL [ [2.610, 0.007, -0.010], [0.229, -0.970, 0.082, 0.000], [0, 0, 0, 0], [ 9E9, 9E9, 9E9, 9E9, 9E9, 9E9] ], v30, fine, pen\WObj:=platform;
    MoveL [ [0.736, -22.198, 44.750], [0.229, -0.970, 0.082, 0.000], [0, 0, 0, 0], [ 9E9, 9E9, 9E9, 9E9, 9E9, 9E9] ], v1000, fine, pen\WObj:=platform;
    
    !!2.7453980014801105, 0.006500000000001505;
    MoveL [ [3.117, -25.672, 42.891], [0.266, -0.964, -0.014, 0.000], [0, 0, 0, 0], [ 9E9, 9E9, 9E9, 9E9, 9E9, 9E9] ], v1000, fine, pen\WObj:=platform;
    MoveL [ [2.745, 0.007, -0.010], [0.266, -0.964, -0.014, 0.000], [0, 0, 0, 0], [ 9E9, 9E9, 9E9, 9E9, 9E9, 9E9] ], v30, fine, pen\WObj:=platform;
    MoveL [ [3.117, -25.672, 42.891], [0.266, -0.964, -0.014, 0.000], [0, 0, 0, 0], [ 9E9, 9E9, 9E9, 9E9, 9E9, 9E9] ], v1000, fine, pen\WObj:=platform;
    
    !!2.8804979644704836, 0.006500000000001505;
    MoveL [ [3.132, -25.708, 42.870], [0.267, -0.964, -0.009, 0.000], [0, 0, 0, 0], [ 9E9, 9E9, 9E9, 9E9, 9E9, 9E9] ], v1000, fine, pen\WObj:=platform;
    MoveL [ [2.880, 0.007, -0.010], [0.267, -0.964, -0.009, 0.000], [0, 0, 0, 0], [ 9E9, 9E9, 9E9, 9E9, 9E9, 9E9] ], v30, fine, pen\WObj:=platform;
    MoveL [ [3.132, -25.708, 42.870], [0.267, -0.964, -0.009, 0.000], [0, 0, 0, 0], [ 9E9, 9E9, 9E9, 9E9, 9E9, 9E9] ], v1000, fine, pen\WObj:=platform;
    
    !!3.0155979274608553, 0.006500000000001505;
    MoveL [ [3.148, -25.744, 42.849], [0.267, -0.964, -0.005, 0.000], [0, 0, 0, 0], [ 9E9, 9E9, 9E9, 9E9, 9E9, 9E9] ], v1000, fine, pen\WObj:=platform;
    MoveL [ [3.016, 0.007, -0.010], [0.267, -0.964, -0.005, 0.000], [0, 0, 0, 0], [ 9E9, 9E9, 9E9, 9E9, 9E9, 9E9] ], v30, fine, pen\WObj:=platform;
    MoveL [ [3.148, -25.744, 42.849], [0.267, -0.964, -0.005, 0.000], [0, 0, 0, 0], [ 9E9, 9E9, 9E9, 9E9, 9E9, 9E9] ], v1000, fine, pen\WObj:=platform;
    
    !!3.1506978904512284, 0.006500000000001505;
    MoveL [ [-3.149, -17.359, 46.453], [0.188, -0.923, 0.335, 0.000], [0, 0, 0, 0], [ 9E9, 9E9, 9E9, 9E9, 9E9, 9E9] ], v1000, fine, pen\WObj:=platform;
    MoveL [ [3.151, 0.007, -0.010], [0.188, -0.923, 0.335, 0.000], [0, 0, 0, 0], [ 9E9, 9E9, 9E9, 9E9, 9E9, 9E9] ], v30, fine, pen\WObj:=platform;
    MoveL [ [-3.149, -17.359, 46.453], [0.188, -0.923, 0.335, 0.000], [0, 0, 0, 0], [ 9E9, 9E9, 9E9, 9E9, 9E9, 9E9] ], v1000, fine, pen\WObj:=platform;
    
    !!3.2857978534415997, 0.006500000000001505;
    MoveL [ [-3.122, -17.365, 46.435], [0.189, -0.921, 0.340, 0.000], [0, 0, 0, 0], [ 9E9, 9E9, 9E9, 9E9, 9E9, 9E9] ], v1000, fine, pen\WObj:=platform;
    MoveL [ [3.286, 0.007, -0.010], [0.189, -0.921, 0.340, 0.000], [0, 0, 0, 0], [ 9E9, 9E9, 9E9, 9E9, 9E9, 9E9] ], v30, fine, pen\WObj:=platform;
    MoveL [ [-3.122, -17.365, 46.435], [0.189, -0.921, 0.340, 0.000], [0, 0, 0, 0], [ 9E9, 9E9, 9E9, 9E9, 9E9, 9E9] ], v1000, fine, pen\WObj:=platform;
    
    !!3.420897816431973, 0.006500000000001505;
    MoveL [ [3.193, -25.851, 42.784], [0.268, -0.963, 0.008, 0.000], [0, 0, 0, 0], [ 9E9, 9E9, 9E9, 9E9, 9E9, 9E9] ], v1000, fine, pen\WObj:=platform;
    MoveL [ [3.421, 0.007, -0.010], [0.268, -0.963, 0.008, 0.000], [0, 0, 0, 0], [ 9E9, 9E9, 9E9, 9E9, 9E9, 9E9] ], v30, fine, pen\WObj:=platform;
    MoveL [ [3.193, -25.851, 42.784], [0.268, -0.963, 0.008, 0.000], [0, 0, 0, 0], [ 9E9, 9E9, 9E9, 9E9, 9E9, 9E9] ], v1000, fine, pen\WObj:=platform;
    
    !!3.5559977794223445, 0.006500000000001505;
    MoveL [ [-3.067, -17.377, 46.401], [0.189, -0.918, 0.350, 0.000], [0, 0, 0, 0], [ 9E9, 9E9, 9E9, 9E9, 9E9, 9E9] ], v1000, fine, pen\WObj:=platform;
    MoveL [ [3.556, 0.007, -0.010], [0.189, -0.918, 0.350, 0.000], [0, 0, 0, 0], [ 9E9, 9E9, 9E9, 9E9, 9E9, 9E9] ], v30, fine, pen\WObj:=platform;
    MoveL [ [-3.067, -17.377, 46.401], [0.189, -0.918, 0.350, 0.000], [0, 0, 0, 0], [ 9E9, 9E9, 9E9, 9E9, 9E9, 9E9] ], v1000, fine, pen\WObj:=platform;
    
    !!3.691097742412718, 0.006500000000001505;
    MoveL [ [7.925, 2.078, 49.767], [0.047, 0.439, -0.897, 0.000], [0, 0, 0, 0], [ 9E9, 9E9, 9E9, 9E9, 9E9, 9E9] ], v1000, fine, pen\WObj:=platform;
    MoveL [ [3.691, 0.007, -0.010], [0.047, 0.439, -0.897, 0.000], [0, 0, 0, 0], [ 9E9, 9E9, 9E9, 9E9, 9E9, 9E9] ], v30, fine, pen\WObj:=platform;
    MoveL [ [7.925, 2.078, 49.767], [0.047, 0.439, -0.897, 0.000], [0, 0, 0, 0], [ 9E9, 9E9, 9E9, 9E9, 9E9, 9E9] ], v1000, fine, pen\WObj:=platform;
    
    !!3.8261977054030893, 0.006500000000001505;
    MoveL [ [3.237, -25.957, 42.716], [0.270, -0.963, 0.022, 0.000], [0, 0, 0, 0], [ 9E9, 9E9, 9E9, 9E9, 9E9, 9E9] ], v1000, fine, pen\WObj:=platform;
    MoveL [ [3.826, 0.007, -0.010], [0.270, -0.963, 0.022, 0.000], [0, 0, 0, 0], [ 9E9, 9E9, 9E9, 9E9, 9E9, 9E9] ], v30, fine, pen\WObj:=platform;
    MoveL [ [3.237, -25.957, 42.716], [0.270, -0.963, 0.022, 0.000], [0, 0, 0, 0], [ 9E9, 9E9, 9E9, 9E9, 9E9, 9E9] ], v1000, fine, pen\WObj:=platform;
    
    !!3.961297668393464, 0.006500000000001505;
    MoveL [ [-1.185, -19.598, 45.698], [0.207, -0.946, 0.248, 0.000], [0, 0, 0, 0], [ 9E9, 9E9, 9E9, 9E9, 9E9, 9E9] ], v1000, fine, pen\WObj:=platform;
    MoveL [ [3.961, 0.007, -0.010], [0.207, -0.946, 0.248, 0.000], [0, 0, 0, 0], [ 9E9, 9E9, 9E9, 9E9, 9E9, 9E9] ], v30, fine, pen\WObj:=platform;
    MoveL [ [-1.185, -19.598, 45.698], [0.207, -0.946, 0.248, 0.000], [0, 0, 0, 0], [ 9E9, 9E9, 9E9, 9E9, 9E9, 9E9] ], v1000, fine, pen\WObj:=platform;
    
    !!4.0963976313838355, 0.006500000000001505;
    MoveL [ [3.266, -26.027, 42.670], [0.271, -0.962, 0.031, 0.000], [0, 0, 0, 0], [ 9E9, 9E9, 9E9, 9E9, 9E9, 9E9] ], v1000, fine, pen\WObj:=platform;
    MoveL [ [4.096, 0.007, -0.010], [0.271, -0.962, 0.031, 0.000], [0, 0, 0, 0], [ 9E9, 9E9, 9E9, 9E9, 9E9, 9E9] ], v30, fine, pen\WObj:=platform;
    MoveL [ [3.266, -26.027, 42.670], [0.271, -0.962, 0.031, 0.000], [0, 0, 0, 0], [ 9E9, 9E9, 9E9, 9E9, 9E9, 9E9] ], v1000, fine, pen\WObj:=platform;
    
    !!4.231497594374208, 0.006500000000001505;
    MoveL [ [-2.930, -17.405, 46.310], [0.192, -0.908, 0.373, 0.000], [0, 0, 0, 0], [ 9E9, 9E9, 9E9, 9E9, 9E9, 9E9] ], v1000, fine, pen\WObj:=platform;
    MoveL [ [4.231, 0.007, -0.010], [0.192, -0.908, 0.373, 0.000], [0, 0, 0, 0], [ 9E9, 9E9, 9E9, 9E9, 9E9, 9E9] ], v30, fine, pen\WObj:=platform;
    MoveL [ [-2.930, -17.405, 46.310], [0.192, -0.908, 0.373, 0.000], [0, 0, 0, 0], [ 9E9, 9E9, 9E9, 9E9, 9E9, 9E9] ], v1000, fine, pen\WObj:=platform;
    
    !!4.366597557364581, 0.006500000000001505;
    MoveL [ [3.294, -26.096, 42.622], [0.271, -0.962, 0.040, 0.000], [0, 0, 0, 0], [ 9E9, 9E9, 9E9, 9E9, 9E9, 9E9] ], v1000, fine, pen\WObj:=platform;
    MoveL [ [4.367, 0.007, -0.010], [0.271, -0.962, 0.040, 0.000], [0, 0, 0, 0], [ 9E9, 9E9, 9E9, 9E9, 9E9, 9E9] ], v30, fine, pen\WObj:=platform;
    MoveL [ [3.294, -26.096, 42.622], [0.271, -0.962, 0.040, 0.000], [0, 0, 0, 0], [ 9E9, 9E9, 9E9, 9E9, 9E9, 9E9] ], v1000, fine, pen\WObj:=platform;
    
    !!4.501697520354952, 0.006500000000001505;
    MoveL [ [0.995, -22.495, 44.503], [0.234, -0.961, 0.150, 0.000], [0, 0, 0, 0], [ 9E9, 9E9, 9E9, 9E9, 9E9, 9E9] ], v1000, fine, pen\WObj:=platform;
    MoveL [ [4.502, 0.007, -0.010], [0.234, -0.961, 0.150, 0.000], [0, 0, 0, 0], [ 9E9, 9E9, 9E9, 9E9, 9E9, 9E9] ], v30, fine, pen\WObj:=platform;
    MoveL [ [0.995, -22.495, 44.503], [0.234, -0.961, 0.150, 0.000], [0, 0, 0, 0], [ 9E9, 9E9, 9E9, 9E9, 9E9, 9E9] ], v1000, fine, pen\WObj:=platform;
    
    !!-4.482450018504814, -0.11049999999999893;
    MoveL [ [-4.509, -16.820, 47.115], [0.170, -0.986, 0.002, 0.000], [0, 0, 0, 0], [ 9E9, 9E9, 9E9, 9E9, 9E9, 9E9] ], v1000, fine, pen\WObj:=platform;
    MoveL [ [-4.482, -0.110, -0.010], [0.170, -0.986, 0.002, 0.000], [0, 0, 0, 0], [ 9E9, 9E9, 9E9, 9E9, 9E9, 9E9] ], v30, fine, pen\WObj:=platform;
    MoveL [ [-4.509, -16.820, 47.115], [0.170, -0.986, 0.002, 0.000], [0, 0, 0, 0], [ 9E9, 9E9, 9E9, 9E9, 9E9, 9E9] ], v1000, fine, pen\WObj:=platform;
    
    !!-4.3473500555144415, -0.11049999999999893;
    MoveL [ [6.256, -0.121, 48.853], [0.107, -0.001, -0.994, 0.000], [0, 0, 0, 0], [ 9E9, 9E9, 9E9, 9E9, 9E9, 9E9] ], v1000, fine, pen\WObj:=platform;
    MoveL [ [-4.347, -0.110, -0.010], [0.107, -0.001, -0.994, 0.000], [0, 0, 0, 0], [ 9E9, 9E9, 9E9, 9E9, 9E9, 9E9] ], v30, fine, pen\WObj:=platform;
    MoveL [ [6.256, -0.121, 48.853], [0.107, -0.001, -0.994, 0.000], [0, 0, 0, 0], [ 9E9, 9E9, 9E9, 9E9, 9E9, 9E9] ], v1000, fine, pen\WObj:=platform;
    
    !!-4.2122500925240685, -0.11049999999999893;
    MoveL [ [-0.208, -20.874, 45.298], [0.217, -0.959, -0.185, 0.000], [0, 0, 0, 0], [ 9E9, 9E9, 9E9, 9E9, 9E9, 9E9] ], v1000, fine, pen\WObj:=platform;
    MoveL [ [-4.212, -0.110, -0.010], [0.217, -0.959, -0.185, 0.000], [0, 0, 0, 0], [ 9E9, 9E9, 9E9, 9E9, 9E9, 9E9] ], v30, fine, pen\WObj:=platform;
    MoveL [ [-0.208, -20.874, 45.298], [0.217, -0.959, -0.185, 0.000], [0, 0, 0, 0], [ 9E9, 9E9, 9E9, 9E9, 9E9, 9E9] ], v1000, fine, pen\WObj:=platform;
    
    !!-4.077150129533696, -0.11049999999999893;
    MoveL [ [2.262, -23.632, 43.654], [0.252, -0.934, -0.252, 0.000], [0, 0, 0, 0], [ 9E9, 9E9, 9E9, 9E9, 9E9, 9E9] ], v1000, fine, pen\WObj:=platform;
    MoveL [ [-4.077, -0.110, -0.010], [0.252, -0.934, -0.252, 0.000], [0, 0, 0, 0], [ 9E9, 9E9, 9E9, 9E9, 9E9, 9E9] ], v30, fine, pen\WObj:=platform;
    MoveL [ [2.262, -23.632, 43.654], [0.252, -0.934, -0.252, 0.000], [0, 0, 0, 0], [ 9E9, 9E9, 9E9, 9E9, 9E9, 9E9] ], v1000, fine, pen\WObj:=platform;
    
    !!-3.942050166543324, -0.11049999999999893;
    MoveL [ [6.347, -0.014, 48.920], [0.103, 0.009, -0.995, 0.000], [0, 0, 0, 0], [ 9E9, 9E9, 9E9, 9E9, 9E9, 9E9] ], v1000, fine, pen\WObj:=platform;
    MoveL [ [-3.942, -0.110, -0.010], [0.103, 0.009, -0.995, 0.000], [0, 0, 0, 0], [ 9E9, 9E9, 9E9, 9E9, 9E9, 9E9] ], v30, fine, pen\WObj:=platform;
    MoveL [ [6.347, -0.014, 48.920], [0.103, 0.009, -0.995, 0.000], [0, 0, 0, 0], [ 9E9, 9E9, 9E9, 9E9, 9E9, 9E9] ], v1000, fine, pen\WObj:=platform;
    
    !!-3.806950203552952, -0.11049999999999893;
    MoveL [ [2.300, -23.715, 43.642], [0.252, -0.937, -0.242, 0.000], [0, 0, 0, 0], [ 9E9, 9E9, 9E9, 9E9, 9E9, 9E9] ], v1000, fine, pen\WObj:=platform;
    MoveL [ [-3.807, -0.110, -0.010], [0.252, -0.937, -0.242, 0.000], [0, 0, 0, 0], [ 9E9, 9E9, 9E9, 9E9, 9E9, 9E9] ], v30, fine, pen\WObj:=platform;
    MoveL [ [2.300, -23.715, 43.642], [0.252, -0.937, -0.242, 0.000], [0, 0, 0, 0], [ 9E9, 9E9, 9E9, 9E9, 9E9, 9E9] ], v1000, fine, pen\WObj:=platform;
    
    !!-3.6718502405625792, -0.11049999999999893;
    MoveL [ [-4.381, -16.888, 47.086], [0.170, -0.984, 0.042, 0.000], [0, 0, 0, 0], [ 9E9, 9E9, 9E9, 9E9, 9E9, 9E9] ], v1000, fine, pen\WObj:=platform;
    MoveL [ [-3.672, -0.110, -0.010], [0.170, -0.984, 0.042, 0.000], [0, 0, 0, 0], [ 9E9, 9E9, 9E9, 9E9, 9E9, 9E9] ], v30, fine, pen\WObj:=platform;
    MoveL [ [-4.381, -16.888, 47.086], [0.170, -0.984, 0.042, 0.000], [0, 0, 0, 0], [ 9E9, 9E9, 9E9, 9E9, 9E9, 9E9] ], v1000, fine, pen\WObj:=platform;
    
    !!-3.536750277572207, -0.11049999999999893;
    MoveL [ [-0.114, -21.013, 45.282], [0.217, -0.963, -0.158, 0.000], [0, 0, 0, 0], [ 9E9, 9E9, 9E9, 9E9, 9E9, 9E9] ], v1000, fine, pen\WObj:=platform;
    MoveL [ [-3.537, -0.110, -0.010], [0.217, -0.963, -0.158, 0.000], [0, 0, 0, 0], [ 9E9, 9E9, 9E9, 9E9, 9E9, 9E9] ], v30, fine, pen\WObj:=platform;
    MoveL [ [-0.114, -21.013, 45.282], [0.217, -0.963, -0.158, 0.000], [0, 0, 0, 0], [ 9E9, 9E9, 9E9, 9E9, 9E9, 9E9] ], v1000, fine, pen\WObj:=platform;
    
    !!-3.4016503145818344, -0.11049999999999893;
    MoveL [ [-2.352, -18.758, 46.371], [0.190, -0.980, -0.055, 0.000], [0, 0, 0, 0], [ 9E9, 9E9, 9E9, 9E9, 9E9, 9E9] ], v1000, fine, pen\WObj:=platform;
    MoveL [ [-3.402, -0.110, -0.010], [0.190, -0.980, -0.055, 0.000], [0, 0, 0, 0], [ 9E9, 9E9, 9E9, 9E9, 9E9, 9E9] ], v30, fine, pen\WObj:=platform;
    MoveL [ [-2.352, -18.758, 46.371], [0.190, -0.980, -0.055, 0.000], [0, 0, 0, 0], [ 9E9, 9E9, 9E9, 9E9, 9E9, 9E9] ], v1000, fine, pen\WObj:=platform;
    
    !!-3.2665503515914622, -0.11049999999999893;
    MoveL [ [-4.316, -16.921, 47.068], [0.171, -0.983, 0.061, 0.000], [0, 0, 0, 0], [ 9E9, 9E9, 9E9, 9E9, 9E9, 9E9] ], v1000, fine, pen\WObj:=platform;
    MoveL [ [-3.267, -0.110, -0.010], [0.171, -0.983, 0.061, 0.000], [0, 0, 0, 0], [ 9E9, 9E9, 9E9, 9E9, 9E9, 9E9] ], v30, fine, pen\WObj:=platform;
    MoveL [ [-4.316, -16.921, 47.068], [0.171, -0.983, 0.061, 0.000], [0, 0, 0, 0], [ 9E9, 9E9, 9E9, 9E9, 9E9, 9E9] ], v1000, fine, pen\WObj:=platform;
    
    !!-3.1314503886010896, -0.11049999999999893;
    MoveL [ [2.394, -23.923, 43.607], [0.253, -0.943, -0.219, 0.000], [0, 0, 0, 0], [ 9E9, 9E9, 9E9, 9E9, 9E9, 9E9] ], v1000, fine, pen\WObj:=platform;
    MoveL [ [-3.131, -0.110, -0.010], [0.253, -0.943, -0.219, 0.000], [0, 0, 0, 0], [ 9E9, 9E9, 9E9, 9E9, 9E9, 9E9] ], v30, fine, pen\WObj:=platform;
    MoveL [ [2.394, -23.923, 43.607], [0.253, -0.943, -0.219, 0.000], [0, 0, 0, 0], [ 9E9, 9E9, 9E9, 9E9, 9E9, 9E9] ], v1000, fine, pen\WObj:=platform;
    
    !!-2.9963504256107165, -0.11049999999999893;
    MoveL [ [-4.271, -16.943, 47.054], [0.171, -0.982, 0.074, 0.000], [0, 0, 0, 0], [ 9E9, 9E9, 9E9, 9E9, 9E9, 9E9] ], v1000, fine, pen\WObj:=platform;
    MoveL [ [-2.996, -0.110, -0.010], [0.171, -0.982, 0.074, 0.000], [0, 0, 0, 0], [ 9E9, 9E9, 9E9, 9E9, 9E9, 9E9] ], v30, fine, pen\WObj:=platform;
    MoveL [ [-4.271, -16.943, 47.054], [0.171, -0.982, 0.074, 0.000], [0, 0, 0, 0], [ 9E9, 9E9, 9E9, 9E9, 9E9, 9E9] ], v1000, fine, pen\WObj:=platform;
    
    !!-2.8612504626203448, -0.11049999999999893;
    MoveL [ [-2.272, -18.828, 46.350], [0.191, -0.981, -0.031, 0.000], [0, 0, 0, 0], [ 9E9, 9E9, 9E9, 9E9, 9E9, 9E9] ], v1000, fine, pen\WObj:=platform;
    MoveL [ [-2.861, -0.110, -0.010], [0.191, -0.981, -0.031, 0.000], [0, 0, 0, 0], [ 9E9, 9E9, 9E9, 9E9, 9E9, 9E9] ], v30, fine, pen\WObj:=platform;
    MoveL [ [-2.272, -18.828, 46.350], [0.191, -0.981, -0.031, 0.000], [0, 0, 0, 0], [ 9E9, 9E9, 9E9, 9E9, 9E9, 9E9] ], v1000, fine, pen\WObj:=platform;
    
    !!-2.7261504996299717, -0.11049999999999893;
    MoveL [ [-4.226, -16.964, 47.040], [0.172, -0.981, 0.087, 0.000], [0, 0, 0, 0], [ 9E9, 9E9, 9E9, 9E9, 9E9, 9E9] ], v1000, fine, pen\WObj:=platform;
    MoveL [ [-2.726, -0.110, -0.010], [0.172, -0.981, 0.087, 0.000], [0, 0, 0, 0], [ 9E9, 9E9, 9E9, 9E9, 9E9, 9E9] ], v30, fine, pen\WObj:=platform;
    MoveL [ [-4.226, -16.964, 47.040], [0.172, -0.981, 0.087, 0.000], [0, 0, 0, 0], [ 9E9, 9E9, 9E9, 9E9, 9E9, 9E9] ], v1000, fine, pen\WObj:=platform;
    
    !!-2.5910505366396004, -0.11049999999999893;
    MoveL [ [6.646, 0.353, 49.127], [0.093, 0.050, -0.994, 0.000], [0, 0, 0, 0], [ 9E9, 9E9, 9E9, 9E9, 9E9, 9E9] ], v1000, fine, pen\WObj:=platform;
    MoveL [ [-2.591, -0.110, -0.010], [0.093, 0.050, -0.994, 0.000], [0, 0, 0, 0], [ 9E9, 9E9, 9E9, 9E9, 9E9, 9E9] ], v30, fine, pen\WObj:=platform;
    MoveL [ [6.646, 0.353, 49.127], [0.093, 0.050, -0.994, 0.000], [0, 0, 0, 0], [ 9E9, 9E9, 9E9, 9E9, 9E9, 9E9] ], v1000, fine, pen\WObj:=platform;
    
    !!-2.4559505736492273, -0.11049999999999893;
    MoveL [ [0.039, -21.231, 45.241], [0.218, -0.969, -0.115, 0.000], [0, 0, 0, 0], [ 9E9, 9E9, 9E9, 9E9, 9E9, 9E9] ], v1000, fine, pen\WObj:=platform;
    MoveL [ [-2.456, -0.110, -0.010], [0.218, -0.969, -0.115, 0.000], [0, 0, 0, 0], [ 9E9, 9E9, 9E9, 9E9, 9E9, 9E9] ], v30, fine, pen\WObj:=platform;
    MoveL [ [0.039, -21.231, 45.241], [0.218, -0.969, -0.115, 0.000], [0, 0, 0, 0], [ 9E9, 9E9, 9E9, 9E9, 9E9, 9E9] ], v1000, fine, pen\WObj:=platform;
    
    !!-2.3208506106588547, -0.11049999999999893;
    MoveL [ [-4.158, -16.995, 47.017], [0.172, -0.979, 0.107, 0.000], [0, 0, 0, 0], [ 9E9, 9E9, 9E9, 9E9, 9E9, 9E9] ], v1000, fine, pen\WObj:=platform;
    MoveL [ [-2.321, -0.110, -0.010], [0.172, -0.979, 0.107, 0.000], [0, 0, 0, 0], [ 9E9, 9E9, 9E9, 9E9, 9E9, 9E9] ], v30, fine, pen\WObj:=platform;
    MoveL [ [-4.158, -16.995, 47.017], [0.172, -0.979, 0.107, 0.000], [0, 0, 0, 0], [ 9E9, 9E9, 9E9, 9E9, 9E9, 9E9] ], v1000, fine, pen\WObj:=platform;
    
    !!-2.1857506476684825, -0.11049999999999893;
    MoveL [ [6.735, 0.465, 49.184], [0.090, 0.064, -0.994, 0.000], [0, 0, 0, 0], [ 9E9, 9E9, 9E9, 9E9, 9E9, 9E9] ], v1000, fine, pen\WObj:=platform;
    MoveL [ [-2.186, -0.110, -0.010], [0.090, 0.064, -0.994, 0.000], [0, 0, 0, 0], [ 9E9, 9E9, 9E9, 9E9, 9E9, 9E9] ], v30, fine, pen\WObj:=platform;
    MoveL [ [6.735, 0.465, 49.184], [0.090, 0.064, -0.994, 0.000], [0, 0, 0, 0], [ 9E9, 9E9, 9E9, 9E9, 9E9, 9E9] ], v1000, fine, pen\WObj:=platform;
    
    !!-2.05065068467811, -0.11049999999999893;
    MoveL [ [-4.112, -17.016, 47.000], [0.173, -0.978, 0.119, 0.000], [0, 0, 0, 0], [ 9E9, 9E9, 9E9, 9E9, 9E9, 9E9] ], v1000, fine, pen\WObj:=platform;
    MoveL [ [-2.051, -0.110, -0.010], [0.173, -0.978, 0.119, 0.000], [0, 0, 0, 0], [ 9E9, 9E9, 9E9, 9E9, 9E9, 9E9] ], v30, fine, pen\WObj:=platform;
    MoveL [ [-4.112, -17.016, 47.000], [0.173, -0.978, 0.119, 0.000], [0, 0, 0, 0], [ 9E9, 9E9, 9E9, 9E9, 9E9, 9E9] ], v1000, fine, pen\WObj:=platform;
    
    !!-1.9155507216877377, -0.11049999999999893;
    MoveL [ [6.793, 0.541, 49.221], [0.088, 0.074, -0.993, 0.000], [0, 0, 0, 0], [ 9E9, 9E9, 9E9, 9E9, 9E9, 9E9] ], v1000, fine, pen\WObj:=platform;
    MoveL [ [-1.916, -0.110, -0.010], [0.088, 0.074, -0.993, 0.000], [0, 0, 0, 0], [ 9E9, 9E9, 9E9, 9E9, 9E9, 9E9] ], v30, fine, pen\WObj:=platform;
    MoveL [ [6.793, 0.541, 49.221], [0.088, 0.074, -0.993, 0.000], [0, 0, 0, 0], [ 9E9, 9E9, 9E9, 9E9, 9E9, 9E9] ], v1000, fine, pen\WObj:=platform;
    
    !!-1.7804507586973652, -0.11049999999999893;
    MoveL [ [0.135, -21.365, 45.207], [0.219, -0.972, -0.088, 0.000], [0, 0, 0, 0], [ 9E9, 9E9, 9E9, 9E9, 9E9, 9E9] ], v1000, fine, pen\WObj:=platform;
    MoveL [ [-1.780, -0.110, -0.010], [0.219, -0.972, -0.088, 0.000], [0, 0, 0, 0], [ 9E9, 9E9, 9E9, 9E9, 9E9, 9E9] ], v30, fine, pen\WObj:=platform;
    MoveL [ [0.135, -21.365, 45.207], [0.219, -0.972, -0.088, 0.000], [0, 0, 0, 0], [ 9E9, 9E9, 9E9, 9E9, 9E9, 9E9] ], v1000, fine, pen\WObj:=platform;
    
    !!-1.6453507957069928, -0.11049999999999893;
    MoveL [ [0.155, -21.391, 45.200], [0.219, -0.972, -0.082, 0.000], [0, 0, 0, 0], [ 9E9, 9E9, 9E9, 9E9, 9E9, 9E9] ], v1000, fine, pen\WObj:=platform;
    MoveL [ [-1.645, -0.110, -0.010], [0.219, -0.972, -0.082, 0.000], [0, 0, 0, 0], [ 9E9, 9E9, 9E9, 9E9, 9E9, 9E9] ], v30, fine, pen\WObj:=platform;
    MoveL [ [0.155, -21.391, 45.200], [0.219, -0.972, -0.082, 0.000], [0, 0, 0, 0], [ 9E9, 9E9, 9E9, 9E9, 9E9, 9E9] ], v1000, fine, pen\WObj:=platform;
    
    !!-1.5102508327166206, -0.11049999999999893;
    MoveL [ [6.880, 0.656, 49.275], [0.085, 0.091, -0.992, 0.000], [0, 0, 0, 0], [ 9E9, 9E9, 9E9, 9E9, 9E9, 9E9] ], v1000, fine, pen\WObj:=platform;
    MoveL [ [-1.510, -0.110, -0.010], [0.085, 0.091, -0.992, 0.000], [0, 0, 0, 0], [ 9E9, 9E9, 9E9, 9E9, 9E9, 9E9] ], v30, fine, pen\WObj:=platform;
    MoveL [ [6.880, 0.656, 49.275], [0.085, 0.091, -0.992, 0.000], [0, 0, 0, 0], [ 9E9, 9E9, 9E9, 9E9, 9E9, 9E9] ], v1000, fine, pen\WObj:=platform;
    
    !!-1.3751508697262482, -0.11049999999999893;
    MoveL [ [0.193, -21.443, 45.183], [0.219, -0.973, -0.072, 0.000], [0, 0, 0, 0], [ 9E9, 9E9, 9E9, 9E9, 9E9, 9E9] ], v1000, fine, pen\WObj:=platform;
    MoveL [ [-1.375, -0.110, -0.010], [0.219, -0.973, -0.072, 0.000], [0, 0, 0, 0], [ 9E9, 9E9, 9E9, 9E9, 9E9, 9E9] ], v30, fine, pen\WObj:=platform;
    MoveL [ [0.193, -21.443, 45.183], [0.219, -0.973, -0.072, 0.000], [0, 0, 0, 0], [ 9E9, 9E9, 9E9, 9E9, 9E9, 9E9] ], v1000, fine, pen\WObj:=platform;
    
    !!-1.2400509067358758, -0.11049999999999893;
    MoveL [ [6.938, 0.733, 49.309], [0.082, 0.102, -0.991, 0.000], [0, 0, 0, 0], [ 9E9, 9E9, 9E9, 9E9, 9E9, 9E9] ], v1000, fine, pen\WObj:=platform;
    MoveL [ [-1.240, -0.110, -0.010], [0.082, 0.102, -0.991, 0.000], [0, 0, 0, 0], [ 9E9, 9E9, 9E9, 9E9, 9E9, 9E9] ], v30, fine, pen\WObj:=platform;
    MoveL [ [6.938, 0.733, 49.309], [0.082, 0.102, -0.991, 0.000], [0, 0, 0, 0], [ 9E9, 9E9, 9E9, 9E9, 9E9, 9E9] ], v1000, fine, pen\WObj:=platform;
    
    !!-1.1049509437455027, -0.11049999999999893;
    MoveL [ [-3.948, -17.084, 46.935], [0.175, -0.971, 0.163, 0.000], [0, 0, 0, 0], [ 9E9, 9E9, 9E9, 9E9, 9E9, 9E9] ], v1000, fine, pen\WObj:=platform;
    MoveL [ [-1.105, -0.110, -0.010], [0.175, -0.971, 0.163, 0.000], [0, 0, 0, 0], [ 9E9, 9E9, 9E9, 9E9, 9E9, 9E9] ], v30, fine, pen\WObj:=platform;
    MoveL [ [-3.948, -17.084, 46.935], [0.175, -0.971, 0.163, 0.000], [0, 0, 0, 0], [ 9E9, 9E9, 9E9, 9E9, 9E9, 9E9] ], v1000, fine, pen\WObj:=platform;
    
    !!-0.9698509807551312, -0.11049999999999893;
    MoveL [ [-3.924, -17.093, 46.925], [0.175, -0.970, 0.169, 0.000], [0, 0, 0, 0], [ 9E9, 9E9, 9E9, 9E9, 9E9, 9E9] ], v1000, fine, pen\WObj:=platform;
    MoveL [ [-0.970, -0.110, -0.010], [0.175, -0.970, 0.169, 0.000], [0, 0, 0, 0], [ 9E9, 9E9, 9E9, 9E9, 9E9, 9E9] ], v30, fine, pen\WObj:=platform;
    MoveL [ [-3.924, -17.093, 46.925], [0.175, -0.970, 0.169, 0.000], [0, 0, 0, 0], [ 9E9, 9E9, 9E9, 9E9, 9E9, 9E9] ], v1000, fine, pen\WObj:=platform;
    
    !!-0.8347510177647581, -0.11049999999999893;
    MoveL [ [-3.900, -17.103, 46.914], [0.175, -0.969, 0.175, 0.000], [0, 0, 0, 0], [ 9E9, 9E9, 9E9, 9E9, 9E9, 9E9] ], v1000, fine, pen\WObj:=platform;
    MoveL [ [-0.835, -0.110, -0.010], [0.175, -0.969, 0.175, 0.000], [0, 0, 0, 0], [ 9E9, 9E9, 9E9, 9E9, 9E9, 9E9] ], v30, fine, pen\WObj:=platform;
    MoveL [ [-3.900, -17.103, 46.914], [0.175, -0.969, 0.175, 0.000], [0, 0, 0, 0], [ 9E9, 9E9, 9E9, 9E9, 9E9, 9E9] ], v1000, fine, pen\WObj:=platform;
    
    !!-0.6996510547743857, -0.11049999999999893;
    MoveL [ [2.724, -24.655, 43.416], [0.256, -0.957, -0.134, 0.000], [0, 0, 0, 0], [ 9E9, 9E9, 9E9, 9E9, 9E9, 9E9] ], v1000, fine, pen\WObj:=platform;
    MoveL [ [-0.700, -0.110, -0.010], [0.256, -0.957, -0.134, 0.000], [0, 0, 0, 0], [ 9E9, 9E9, 9E9, 9E9, 9E9, 9E9] ], v30, fine, pen\WObj:=platform;
    MoveL [ [2.724, -24.655, 43.416], [0.256, -0.957, -0.134, 0.000], [0, 0, 0, 0], [ 9E9, 9E9, 9E9, 9E9, 9E9, 9E9] ], v1000, fine, pen\WObj:=platform;
    
    !!-0.5645510917840134, -0.11049999999999893;
    MoveL [ [-1.916, -19.109, 46.220], [0.194, -0.978, 0.070, 0.000], [0, 0, 0, 0], [ 9E9, 9E9, 9E9, 9E9, 9E9, 9E9] ], v1000, fine, pen\WObj:=platform;
    MoveL [ [-0.565, -0.110, -0.010], [0.194, -0.978, 0.070, 0.000], [0, 0, 0, 0], [ 9E9, 9E9, 9E9, 9E9, 9E9, 9E9] ], v30, fine, pen\WObj:=platform;
    MoveL [ [-1.916, -19.109, 46.220], [0.194, -0.978, 0.070, 0.000], [0, 0, 0, 0], [ 9E9, 9E9, 9E9, 9E9, 9E9, 9E9] ], v1000, fine, pen\WObj:=platform;
    
    !!-0.429451128793641, -0.11049999999999893;
    MoveL [ [2.760, -24.735, 43.389], [0.257, -0.958, -0.124, 0.000], [0, 0, 0, 0], [ 9E9, 9E9, 9E9, 9E9, 9E9, 9E9] ], v1000, fine, pen\WObj:=platform;
    MoveL [ [-0.429, -0.110, -0.010], [0.257, -0.958, -0.124, 0.000], [0, 0, 0, 0], [ 9E9, 9E9, 9E9, 9E9, 9E9, 9E9] ], v30, fine, pen\WObj:=platform;
    MoveL [ [2.760, -24.735, 43.389], [0.257, -0.958, -0.124, 0.000], [0, 0, 0, 0], [ 9E9, 9E9, 9E9, 9E9, 9E9, 9E9] ], v1000, fine, pen\WObj:=platform;
    
    !!-0.2943511658032679, -0.11049999999999893;
    MoveL [ [0.348, -21.648, 45.109], [0.221, -0.975, -0.029, 0.000], [0, 0, 0, 0], [ 9E9, 9E9, 9E9, 9E9, 9E9, 9E9] ], v1000, fine, pen\WObj:=platform;
    MoveL [ [-0.294, -0.110, -0.010], [0.221, -0.975, -0.029, 0.000], [0, 0, 0, 0], [ 9E9, 9E9, 9E9, 9E9, 9E9, 9E9] ], v30, fine, pen\WObj:=platform;
    MoveL [ [0.348, -21.648, 45.109], [0.221, -0.975, -0.029, 0.000], [0, 0, 0, 0], [ 9E9, 9E9, 9E9, 9E9, 9E9, 9E9] ], v1000, fine, pen\WObj:=platform;
    
    !!-0.1592512028128963, -0.11049999999999893;
    MoveL [ [2.795, -24.814, 43.361], [0.257, -0.959, -0.115, 0.000], [0, 0, 0, 0], [ 9E9, 9E9, 9E9, 9E9, 9E9, 9E9] ], v1000, fine, pen\WObj:=platform;
    MoveL [ [-0.159, -0.110, -0.010], [0.257, -0.959, -0.115, 0.000], [0, 0, 0, 0], [ 9E9, 9E9, 9E9, 9E9, 9E9, 9E9] ], v30, fine, pen\WObj:=platform;
    MoveL [ [2.795, -24.814, 43.361], [0.257, -0.959, -0.115, 0.000], [0, 0, 0, 0], [ 9E9, 9E9, 9E9, 9E9, 9E9, 9E9] ], v1000, fine, pen\WObj:=platform;
    
    !!-0.02415123982252393, -0.11049999999999893;
    MoveL [ [-1.830, -19.170, 46.179], [0.195, -0.976, 0.093, 0.000], [0, 0, 0, 0], [ 9E9, 9E9, 9E9, 9E9, 9E9, 9E9] ], v1000, fine, pen\WObj:=platform;
    MoveL [ [-0.024, -0.110, -0.010], [0.195, -0.976, 0.093, 0.000], [0, 0, 0, 0], [ 9E9, 9E9, 9E9, 9E9, 9E9, 9E9] ], v30, fine, pen\WObj:=platform;
    MoveL [ [-1.830, -19.170, 46.179], [0.195, -0.976, 0.093, 0.000], [0, 0, 0, 0], [ 9E9, 9E9, 9E9, 9E9, 9E9, 9E9] ], v1000, fine, pen\WObj:=platform;
    
    !!0.11094872316784843, -0.11049999999999893;
    MoveL [ [2.831, -24.892, 43.331], [0.258, -0.960, -0.105, 0.000], [0, 0, 0, 0], [ 9E9, 9E9, 9E9, 9E9, 9E9, 9E9] ], v1000, fine, pen\WObj:=platform;
    MoveL [ [0.111, -0.110, -0.010], [0.258, -0.960, -0.105, 0.000], [0, 0, 0, 0], [ 9E9, 9E9, 9E9, 9E9, 9E9, 9E9] ], v30, fine, pen\WObj:=platform;
    MoveL [ [2.831, -24.892, 43.331], [0.258, -0.960, -0.105, 0.000], [0, 0, 0, 0], [ 9E9, 9E9, 9E9, 9E9, 9E9, 9E9] ], v1000, fine, pen\WObj:=platform;
    
    !!0.2460486861582215, -0.11049999999999893;
    MoveL [ [2.848, -24.931, 43.316], [0.258, -0.961, -0.101, 0.000], [0, 0, 0, 0], [ 9E9, 9E9, 9E9, 9E9, 9E9, 9E9] ], v1000, fine, pen\WObj:=platform;
    MoveL [ [0.246, -0.110, -0.010], [0.258, -0.961, -0.101, 0.000], [0, 0, 0, 0], [ 9E9, 9E9, 9E9, 9E9, 9E9, 9E9] ], v30, fine, pen\WObj:=platform;
    MoveL [ [2.848, -24.931, 43.316], [0.258, -0.961, -0.101, 0.000], [0, 0, 0, 0], [ 9E9, 9E9, 9E9, 9E9, 9E9, 9E9] ], v1000, fine, pen\WObj:=platform;
    
    !!0.3811486491485932, -0.11049999999999893;
    MoveL [ [2.865, -24.970, 43.301], [0.259, -0.961, -0.096, 0.000], [0, 0, 0, 0], [ 9E9, 9E9, 9E9, 9E9, 9E9, 9E9] ], v1000, fine, pen\WObj:=platform;
    MoveL [ [0.381, -0.110, -0.010], [0.259, -0.961, -0.096, 0.000], [0, 0, 0, 0], [ 9E9, 9E9, 9E9, 9E9, 9E9, 9E9] ], v30, fine, pen\WObj:=platform;
    MoveL [ [2.865, -24.970, 43.301], [0.259, -0.961, -0.096, 0.000], [0, 0, 0, 0], [ 9E9, 9E9, 9E9, 9E9, 9E9, 9E9] ], v1000, fine, pen\WObj:=platform;
    
    !!0.5162486121389662, -0.11049999999999893;
    MoveL [ [2.883, -25.009, 43.285], [0.259, -0.962, -0.091, 0.000], [0, 0, 0, 0], [ 9E9, 9E9, 9E9, 9E9, 9E9, 9E9] ], v1000, fine, pen\WObj:=platform;
    MoveL [ [0.516, -0.110, -0.010], [0.259, -0.962, -0.091, 0.000], [0, 0, 0, 0], [ 9E9, 9E9, 9E9, 9E9, 9E9, 9E9] ], v30, fine, pen\WObj:=platform;
    MoveL [ [2.883, -25.009, 43.285], [0.259, -0.962, -0.091, 0.000], [0, 0, 0, 0], [ 9E9, 9E9, 9E9, 9E9, 9E9, 9E9] ], v1000, fine, pen\WObj:=platform;
    
    !!0.6513485751293379, -0.11049999999999893;
    MoveL [ [-1.721, -19.245, 46.123], [0.197, -0.973, 0.121, 0.000], [0, 0, 0, 0], [ 9E9, 9E9, 9E9, 9E9, 9E9, 9E9] ], v1000, fine, pen\WObj:=platform;
    MoveL [ [0.651, -0.110, -0.010], [0.197, -0.973, 0.121, 0.000], [0, 0, 0, 0], [ 9E9, 9E9, 9E9, 9E9, 9E9, 9E9] ], v30, fine, pen\WObj:=platform;
    MoveL [ [-1.721, -19.245, 46.123], [0.197, -0.973, 0.121, 0.000], [0, 0, 0, 0], [ 9E9, 9E9, 9E9, 9E9, 9E9, 9E9] ], v1000, fine, pen\WObj:=platform;
    
    !!0.786448538119711, -0.11049999999999893;
    MoveL [ [-1.700, -19.259, 46.111], [0.197, -0.972, 0.126, 0.000], [0, 0, 0, 0], [ 9E9, 9E9, 9E9, 9E9, 9E9, 9E9] ], v1000, fine, pen\WObj:=platform;
    MoveL [ [0.786, -0.110, -0.010], [0.197, -0.972, 0.126, 0.000], [0, 0, 0, 0], [ 9E9, 9E9, 9E9, 9E9, 9E9, 9E9] ], v30, fine, pen\WObj:=platform;
    MoveL [ [-1.700, -19.259, 46.111], [0.197, -0.972, 0.126, 0.000], [0, 0, 0, 0], [ 9E9, 9E9, 9E9, 9E9, 9E9, 9E9] ], v1000, fine, pen\WObj:=platform;
    
    !!0.9215485011100826, -0.11049999999999893;
    MoveL [ [0.520, -21.870, 45.005], [0.223, -0.975, 0.018, 0.000], [0, 0, 0, 0], [ 9E9, 9E9, 9E9, 9E9, 9E9, 9E9] ], v1000, fine, pen\WObj:=platform;
    MoveL [ [0.922, -0.110, -0.010], [0.223, -0.975, 0.018, 0.000], [0, 0, 0, 0], [ 9E9, 9E9, 9E9, 9E9, 9E9, 9E9] ], v30, fine, pen\WObj:=platform;
    MoveL [ [0.520, -21.870, 45.005], [0.223, -0.975, 0.018, 0.000], [0, 0, 0, 0], [ 9E9, 9E9, 9E9, 9E9, 9E9, 9E9] ], v1000, fine, pen\WObj:=platform;
    
    !!1.0566484641004557, -0.11049999999999893;
    MoveL [ [-1.656, -19.288, 46.086], [0.198, -0.971, 0.137, 0.000], [0, 0, 0, 0], [ 9E9, 9E9, 9E9, 9E9, 9E9, 9E9] ], v1000, fine, pen\WObj:=platform;
    MoveL [ [1.057, -0.110, -0.010], [0.198, -0.971, 0.137, 0.000], [0, 0, 0, 0], [ 9E9, 9E9, 9E9, 9E9, 9E9, 9E9] ], v30, fine, pen\WObj:=platform;
    MoveL [ [-1.656, -19.288, 46.086], [0.198, -0.971, 0.137, 0.000], [0, 0, 0, 0], [ 9E9, 9E9, 9E9, 9E9, 9E9, 9E9] ], v1000, fine, pen\WObj:=platform;
    
    !!1.1917484270908287, -0.11049999999999893;
    MoveL [ [0.559, -21.918, 44.979], [0.224, -0.974, 0.028, 0.000], [0, 0, 0, 0], [ 9E9, 9E9, 9E9, 9E9, 9E9, 9E9] ], v1000, fine, pen\WObj:=platform;
    MoveL [ [1.192, -0.110, -0.010], [0.224, -0.974, 0.028, 0.000], [0, 0, 0, 0], [ 9E9, 9E9, 9E9, 9E9, 9E9, 9E9] ], v30, fine, pen\WObj:=platform;
    MoveL [ [0.559, -21.918, 44.979], [0.224, -0.974, 0.028, 0.000], [0, 0, 0, 0], [ 9E9, 9E9, 9E9, 9E9, 9E9, 9E9] ], v1000, fine, pen\WObj:=platform;
    
    !!1.3268483900812003, -0.11049999999999893;
    MoveL [ [2.984, -25.240, 43.185], [0.261, -0.963, -0.064, 0.000], [0, 0, 0, 0], [ 9E9, 9E9, 9E9, 9E9, 9E9, 9E9] ], v1000, fine, pen\WObj:=platform;
    MoveL [ [1.327, -0.110, -0.010], [0.261, -0.963, -0.064, 0.000], [0, 0, 0, 0], [ 9E9, 9E9, 9E9, 9E9, 9E9, 9E9] ], v30, fine, pen\WObj:=platform;
    MoveL [ [2.984, -25.240, 43.185], [0.261, -0.963, -0.064, 0.000], [0, 0, 0, 0], [ 9E9, 9E9, 9E9, 9E9, 9E9, 9E9] ], v1000, fine, pen\WObj:=platform;
    
    !!1.461948353071572, -0.11049999999999893;
    MoveL [ [-3.475, -17.246, 46.702], [0.181, -0.945, 0.272, 0.000], [0, 0, 0, 0], [ 9E9, 9E9, 9E9, 9E9, 9E9, 9E9] ], v1000, fine, pen\WObj:=platform;
    MoveL [ [1.462, -0.110, -0.010], [0.181, -0.945, 0.272, 0.000], [0, 0, 0, 0], [ 9E9, 9E9, 9E9, 9E9, 9E9, 9E9] ], v30, fine, pen\WObj:=platform;
    MoveL [ [-3.475, -17.246, 46.702], [0.181, -0.945, 0.272, 0.000], [0, 0, 0, 0], [ 9E9, 9E9, 9E9, 9E9, 9E9, 9E9] ], v1000, fine, pen\WObj:=platform;
    
    !!1.597048316061945, -0.11049999999999893;
    MoveL [ [7.513, 1.572, 49.610], [0.062, 0.273, -0.960, 0.000], [0, 0, 0, 0], [ 9E9, 9E9, 9E9, 9E9, 9E9, 9E9] ], v1000, fine, pen\WObj:=platform;
    MoveL [ [1.597, -0.110, -0.010], [0.062, 0.273, -0.960, 0.000], [0, 0, 0, 0], [ 9E9, 9E9, 9E9, 9E9, 9E9, 9E9] ], v30, fine, pen\WObj:=platform;
    MoveL [ [7.513, 1.572, 49.610], [0.062, 0.273, -0.960, 0.000], [0, 0, 0, 0], [ 9E9, 9E9, 9E9, 9E9, 9E9, 9E9] ], v1000, fine, pen\WObj:=platform;
    
    !!1.7321482790523182, -0.11049999999999893;
    MoveL [ [0.635, -22.012, 44.924], [0.225, -0.973, 0.049, 0.000], [0, 0, 0, 0], [ 9E9, 9E9, 9E9, 9E9, 9E9, 9E9] ], v1000, fine, pen\WObj:=platform;
    MoveL [ [1.732, -0.110, -0.010], [0.225, -0.973, 0.049, 0.000], [0, 0, 0, 0], [ 9E9, 9E9, 9E9, 9E9, 9E9, 9E9] ], v30, fine, pen\WObj:=platform;
    MoveL [ [0.635, -22.012, 44.924], [0.225, -0.973, 0.049, 0.000], [0, 0, 0, 0], [ 9E9, 9E9, 9E9, 9E9, 9E9, 9E9] ], v1000, fine, pen\WObj:=platform;
    
    !!1.8672482420426897, -0.11049999999999893;
    MoveL [ [-3.397, -17.269, 46.658], [0.183, -0.940, 0.288, 0.000], [0, 0, 0, 0], [ 9E9, 9E9, 9E9, 9E9, 9E9, 9E9] ], v1000, fine, pen\WObj:=platform;
    MoveL [ [1.867, -0.110, -0.010], [0.183, -0.940, 0.288, 0.000], [0, 0, 0, 0], [ 9E9, 9E9, 9E9, 9E9, 9E9, 9E9] ], v30, fine, pen\WObj:=platform;
    MoveL [ [-3.397, -17.269, 46.658], [0.183, -0.940, 0.288, 0.000], [0, 0, 0, 0], [ 9E9, 9E9, 9E9, 9E9, 9E9, 9E9] ], v1000, fine, pen\WObj:=platform;
    
    !!2.002348205033063, -0.11049999999999893;
    MoveL [ [-3.371, -17.276, 46.643], [0.183, -0.938, 0.294, 0.000], [0, 0, 0, 0], [ 9E9, 9E9, 9E9, 9E9, 9E9, 9E9] ], v1000, fine, pen\WObj:=platform;
    MoveL [ [2.002, -0.110, -0.010], [0.183, -0.938, 0.294, 0.000], [0, 0, 0, 0], [ 9E9, 9E9, 9E9, 9E9, 9E9, 9E9] ], v30, fine, pen\WObj:=platform;
    MoveL [ [-3.371, -17.276, 46.643], [0.183, -0.938, 0.294, 0.000], [0, 0, 0, 0], [ 9E9, 9E9, 9E9, 9E9, 9E9, 9E9] ], v1000, fine, pen\WObj:=platform;
    
    !!2.1374481680234343, -0.11049999999999893;
    MoveL [ [3.083, -25.466, 43.074], [0.263, -0.964, -0.036, 0.000], [0, 0, 0, 0], [ 9E9, 9E9, 9E9, 9E9, 9E9, 9E9] ], v1000, fine, pen\WObj:=platform;
    MoveL [ [2.137, -0.110, -0.010], [0.263, -0.964, -0.036, 0.000], [0, 0, 0, 0], [ 9E9, 9E9, 9E9, 9E9, 9E9, 9E9] ], v30, fine, pen\WObj:=platform;
    MoveL [ [3.083, -25.466, 43.074], [0.263, -0.964, -0.036, 0.000], [0, 0, 0, 0], [ 9E9, 9E9, 9E9, 9E9, 9E9, 9E9] ], v1000, fine, pen\WObj:=platform;
    
    !!2.2725481310138065, -0.11049999999999893;
    MoveL [ [0.711, -22.105, 44.866], [0.226, -0.972, 0.069, 0.000], [0, 0, 0, 0], [ 9E9, 9E9, 9E9, 9E9, 9E9, 9E9] ], v1000, fine, pen\WObj:=platform;
    MoveL [ [2.273, -0.110, -0.010], [0.226, -0.972, 0.069, 0.000], [0, 0, 0, 0], [ 9E9, 9E9, 9E9, 9E9, 9E9, 9E9] ], v30, fine, pen\WObj:=platform;
    MoveL [ [0.711, -22.105, 44.866], [0.226, -0.972, 0.069, 0.000], [0, 0, 0, 0], [ 9E9, 9E9, 9E9, 9E9, 9E9, 9E9] ], v1000, fine, pen\WObj:=platform;
    
    !!2.407648094004179, -0.11049999999999893;
    MoveL [ [-3.291, -17.298, 46.596], [0.184, -0.933, 0.309, 0.000], [0, 0, 0, 0], [ 9E9, 9E9, 9E9, 9E9, 9E9, 9E9] ], v1000, fine, pen\WObj:=platform;
    MoveL [ [2.408, -0.110, -0.010], [0.184, -0.933, 0.309, 0.000], [0, 0, 0, 0], [ 9E9, 9E9, 9E9, 9E9, 9E9, 9E9] ], v30, fine, pen\WObj:=platform;
    MoveL [ [-3.291, -17.298, 46.596], [0.184, -0.933, 0.309, 0.000], [0, 0, 0, 0], [ 9E9, 9E9, 9E9, 9E9, 9E9, 9E9] ], v1000, fine, pen\WObj:=platform;
    
    !!2.5427480569945526, -0.11049999999999893;
    MoveL [ [-1.411, -19.438, 45.934], [0.201, -0.960, 0.196, 0.000], [0, 0, 0, 0], [ 9E9, 9E9, 9E9, 9E9, 9E9, 9E9] ], v1000, fine, pen\WObj:=platform;
    MoveL [ [2.543, -0.110, -0.010], [0.201, -0.960, 0.196, 0.000], [0, 0, 0, 0], [ 9E9, 9E9, 9E9, 9E9, 9E9, 9E9] ], v30, fine, pen\WObj:=platform;
    MoveL [ [-1.411, -19.438, 45.934], [0.201, -0.960, 0.196, 0.000], [0, 0, 0, 0], [ 9E9, 9E9, 9E9, 9E9, 9E9, 9E9] ], v1000, fine, pen\WObj:=platform;
    
    !!2.6778480199849253, -0.11049999999999893;
    MoveL [ [-3.238, -17.311, 46.564], [0.185, -0.929, 0.320, 0.000], [0, 0, 0, 0], [ 9E9, 9E9, 9E9, 9E9, 9E9, 9E9] ], v1000, fine, pen\WObj:=platform;
    MoveL [ [2.678, -0.110, -0.010], [0.185, -0.929, 0.320, 0.000], [0, 0, 0, 0], [ 9E9, 9E9, 9E9, 9E9, 9E9, 9E9] ], v30, fine, pen\WObj:=platform;
    MoveL [ [-3.238, -17.311, 46.564], [0.185, -0.929, 0.320, 0.000], [0, 0, 0, 0], [ 9E9, 9E9, 9E9, 9E9, 9E9, 9E9] ], v1000, fine, pen\WObj:=platform;
    
    !!2.8129479829752975, -0.11049999999999893;
    MoveL [ [7.737, 1.946, 49.704], [0.053, 0.385, -0.921, 0.000], [0, 0, 0, 0], [ 9E9, 9E9, 9E9, 9E9, 9E9, 9E9] ], v1000, fine, pen\WObj:=platform;
    MoveL [ [2.813, -0.110, -0.010], [0.053, 0.385, -0.921, 0.000], [0, 0, 0, 0], [ 9E9, 9E9, 9E9, 9E9, 9E9, 9E9] ], v30, fine, pen\WObj:=platform;
    MoveL [ [7.737, 1.946, 49.704], [0.053, 0.385, -0.921, 0.000], [0, 0, 0, 0], [ 9E9, 9E9, 9E9, 9E9, 9E9, 9E9] ], v1000, fine, pen\WObj:=platform;
    
    !!2.9480479459656688, -0.11049999999999893;
    MoveL [ [0.804, -22.217, 44.787], [0.228, -0.969, 0.094, 0.000], [0, 0, 0, 0], [ 9E9, 9E9, 9E9, 9E9, 9E9, 9E9] ], v1000, fine, pen\WObj:=platform;
    MoveL [ [2.948, -0.110, -0.010], [0.228, -0.969, 0.094, 0.000], [0, 0, 0, 0], [ 9E9, 9E9, 9E9, 9E9, 9E9, 9E9] ], v30, fine, pen\WObj:=platform;
    MoveL [ [0.804, -22.217, 44.787], [0.228, -0.969, 0.094, 0.000], [0, 0, 0, 0], [ 9E9, 9E9, 9E9, 9E9, 9E9, 9E9] ], v1000, fine, pen\WObj:=platform;
    
    !!3.0831479089560423, -0.11049999999999893;
    MoveL [ [0.823, -22.239, 44.770], [0.228, -0.969, 0.099, 0.000], [0, 0, 0, 0], [ 9E9, 9E9, 9E9, 9E9, 9E9, 9E9] ], v1000, fine, pen\WObj:=platform;
    MoveL [ [3.083, -0.110, -0.010], [0.228, -0.969, 0.099, 0.000], [0, 0, 0, 0], [ 9E9, 9E9, 9E9, 9E9, 9E9, 9E9] ], v30, fine, pen\WObj:=platform;
    MoveL [ [0.823, -22.239, 44.770], [0.228, -0.969, 0.099, 0.000], [0, 0, 0, 0], [ 9E9, 9E9, 9E9, 9E9, 9E9, 9E9] ], v1000, fine, pen\WObj:=platform;
    
    !!3.2182478719464145, -0.11049999999999893;
    MoveL [ [0.842, -22.260, 44.753], [0.229, -0.968, 0.104, 0.000], [0, 0, 0, 0], [ 9E9, 9E9, 9E9, 9E9, 9E9, 9E9] ], v1000, fine, pen\WObj:=platform;
    MoveL [ [3.218, -0.110, -0.010], [0.229, -0.968, 0.104, 0.000], [0, 0, 0, 0], [ 9E9, 9E9, 9E9, 9E9, 9E9, 9E9] ], v30, fine, pen\WObj:=platform;
    MoveL [ [0.842, -22.260, 44.753], [0.229, -0.968, 0.104, 0.000], [0, 0, 0, 0], [ 9E9, 9E9, 9E9, 9E9, 9E9, 9E9] ], v1000, fine, pen\WObj:=platform;
    
    !!3.3533478349367867, -0.11049999999999893;
    MoveL [ [7.831, 2.115, 49.739], [0.050, 0.445, -0.894, 0.000], [0, 0, 0, 0], [ 9E9, 9E9, 9E9, 9E9, 9E9, 9E9] ], v1000, fine, pen\WObj:=platform;
    MoveL [ [3.353, -0.110, -0.010], [0.050, 0.445, -0.894, 0.000], [0, 0, 0, 0], [ 9E9, 9E9, 9E9, 9E9, 9E9, 9E9] ], v30, fine, pen\WObj:=platform;
    MoveL [ [7.831, 2.115, 49.739], [0.050, 0.445, -0.894, 0.000], [0, 0, 0, 0], [ 9E9, 9E9, 9E9, 9E9, 9E9, 9E9] ], v1000, fine, pen\WObj:=platform;
    
    !!3.4884477979271584, -0.11049999999999893;
    MoveL [ [0.879, -22.304, 44.719], [0.230, -0.967, 0.114, 0.000], [0, 0, 0, 0], [ 9E9, 9E9, 9E9, 9E9, 9E9, 9E9] ], v1000, fine, pen\WObj:=platform;
    MoveL [ [3.488, -0.110, -0.010], [0.230, -0.967, 0.114, 0.000], [0, 0, 0, 0], [ 9E9, 9E9, 9E9, 9E9, 9E9, 9E9] ], v30, fine, pen\WObj:=platform;
    MoveL [ [0.879, -22.304, 44.719], [0.230, -0.967, 0.114, 0.000], [0, 0, 0, 0], [ 9E9, 9E9, 9E9, 9E9, 9E9, 9E9] ], v1000, fine, pen\WObj:=platform;
    
    !!3.6235477609175315, -0.11049999999999893;
    MoveL [ [-1.231, -19.538, 45.805], [0.205, -0.950, 0.237, 0.000], [0, 0, 0, 0], [ 9E9, 9E9, 9E9, 9E9, 9E9, 9E9] ], v1000, fine, pen\WObj:=platform;
    MoveL [ [3.624, -0.110, -0.010], [0.205, -0.950, 0.237, 0.000], [0, 0, 0, 0], [ 9E9, 9E9, 9E9, 9E9, 9E9, 9E9] ], v30, fine, pen\WObj:=platform;
    MoveL [ [-1.231, -19.538, 45.805], [0.205, -0.950, 0.237, 0.000], [0, 0, 0, 0], [ 9E9, 9E9, 9E9, 9E9, 9E9, 9E9] ], v1000, fine, pen\WObj:=platform;
    
    !!3.758647723907904, -0.11049999999999893;
    MoveL [ [7.899, 2.242, 49.763], [0.048, 0.493, -0.868, 0.000], [0, 0, 0, 0], [ 9E9, 9E9, 9E9, 9E9, 9E9, 9E9] ], v1000, fine, pen\WObj:=platform;
    MoveL [ [3.759, -0.110, -0.010], [0.048, 0.493, -0.868, 0.000], [0, 0, 0, 0], [ 9E9, 9E9, 9E9, 9E9, 9E9, 9E9] ], v30, fine, pen\WObj:=platform;
    MoveL [ [7.899, 2.242, 49.763], [0.048, 0.493, -0.868, 0.000], [0, 0, 0, 0], [ 9E9, 9E9, 9E9, 9E9, 9E9, 9E9] ], v1000, fine, pen\WObj:=platform;
    
    !!3.8937476868982763, -0.11049999999999893;
    MoveL [ [0.934, -22.367, 44.665], [0.231, -0.965, 0.128, 0.000], [0, 0, 0, 0], [ 9E9, 9E9, 9E9, 9E9, 9E9, 9E9] ], v1000, fine, pen\WObj:=platform;
    MoveL [ [3.894, -0.110, -0.010], [0.231, -0.965, 0.128, 0.000], [0, 0, 0, 0], [ 9E9, 9E9, 9E9, 9E9, 9E9, 9E9] ], v30, fine, pen\WObj:=platform;
    MoveL [ [0.934, -22.367, 44.665], [0.231, -0.965, 0.128, 0.000], [0, 0, 0, 0], [ 9E9, 9E9, 9E9, 9E9, 9E9, 9E9] ], v1000, fine, pen\WObj:=platform;
    
    !!4.0288476498886485, -0.11049999999999893;
    MoveL [ [3.296, -25.972, 42.776], [0.269, -0.963, 0.027, 0.000], [0, 0, 0, 0], [ 9E9, 9E9, 9E9, 9E9, 9E9, 9E9] ], v1000, fine, pen\WObj:=platform;
    MoveL [ [4.029, -0.110, -0.010], [0.269, -0.963, 0.027, 0.000], [0, 0, 0, 0], [ 9E9, 9E9, 9E9, 9E9, 9E9, 9E9] ], v30, fine, pen\WObj:=platform;
    MoveL [ [3.296, -25.972, 42.776], [0.269, -0.963, 0.027, 0.000], [0, 0, 0, 0], [ 9E9, 9E9, 9E9, 9E9, 9E9, 9E9] ], v1000, fine, pen\WObj:=platform;
    
    !!4.163947612879021, -0.11049999999999893;
    MoveL [ [7.965, 2.370, 49.784], [0.045, 0.546, -0.837, 0.000], [0, 0, 0, 0], [ 9E9, 9E9, 9E9, 9E9, 9E9, 9E9] ], v1000, fine, pen\WObj:=platform;
    MoveL [ [4.164, -0.110, -0.010], [0.045, 0.546, -0.837, 0.000], [0, 0, 0, 0], [ 9E9, 9E9, 9E9, 9E9, 9E9, 9E9] ], v30, fine, pen\WObj:=platform;
    MoveL [ [7.965, 2.370, 49.784], [0.045, 0.546, -0.837, 0.000], [0, 0, 0, 0], [ 9E9, 9E9, 9E9, 9E9, 9E9, 9E9] ], v1000, fine, pen\WObj:=platform;
    
    !!4.299047575869394, -0.11049999999999893;
    MoveL [ [-2.912, -17.385, 46.354], [0.191, -0.906, 0.378, 0.000], [0, 0, 0, 0], [ 9E9, 9E9, 9E9, 9E9, 9E9, 9E9] ], v1000, fine, pen\WObj:=platform;
    MoveL [ [4.299, -0.110, -0.010], [0.191, -0.906, 0.378, 0.000], [0, 0, 0, 0], [ 9E9, 9E9, 9E9, 9E9, 9E9, 9E9] ], v30, fine, pen\WObj:=platform;
    MoveL [ [-2.912, -17.385, 46.354], [0.191, -0.906, 0.378, 0.000], [0, 0, 0, 0], [ 9E9, 9E9, 9E9, 9E9, 9E9, 9E9] ], v1000, fine, pen\WObj:=platform;
    
    !!4.434147538859766, -0.11049999999999893;
    MoveL [ [8.008, 2.456, 49.796], [0.044, 0.583, -0.811, 0.000], [0, 0, 0, 0], [ 9E9, 9E9, 9E9, 9E9, 9E9, 9E9] ], v1000, fine, pen\WObj:=platform;
    MoveL [ [4.434, -0.110, -0.010], [0.044, 0.583, -0.811, 0.000], [0, 0, 0, 0], [ 9E9, 9E9, 9E9, 9E9, 9E9, 9E9] ], v30, fine, pen\WObj:=platform;
    MoveL [ [8.008, 2.456, 49.796], [0.044, 0.583, -0.811, 0.000], [0, 0, 0, 0], [ 9E9, 9E9, 9E9, 9E9, 9E9, 9E9] ], v1000, fine, pen\WObj:=platform;
    
    !!-4.55, -0.22749999999999826;
    MoveL [ [-2.507, -18.566, 46.461], [0.188, -0.976, -0.109, 0.000], [0, 0, 0, 0], [ 9E9, 9E9, 9E9, 9E9, 9E9, 9E9] ], v1000, fine, pen\WObj:=platform;
    MoveL [ [-4.550, -0.227, -0.010], [0.188, -0.976, -0.109, 0.000], [0, 0, 0, 0], [ 9E9, 9E9, 9E9, 9E9, 9E9, 9E9] ], v30, fine, pen\WObj:=platform;
    MoveL [ [-2.507, -18.566, 46.461], [0.188, -0.976, -0.109, 0.000], [0, 0, 0, 0], [ 9E9, 9E9, 9E9, 9E9, 9E9, 9E9] ], v1000, fine, pen\WObj:=platform;
    
    !!-4.414900037009628, -0.22749999999999826;
    MoveL [ [6.211, -0.012, 48.847], [0.107, 0.020, -0.994, 0.000], [0, 0, 0, 0], [ 9E9, 9E9, 9E9, 9E9, 9E9, 9E9] ], v1000, fine, pen\WObj:=platform;
    MoveL [ [-4.415, -0.227, -0.010], [0.107, 0.020, -0.994, 0.000], [0, 0, 0, 0], [ 9E9, 9E9, 9E9, 9E9, 9E9, 9E9] ], v30, fine, pen\WObj:=platform;
    MoveL [ [6.211, -0.012, 48.847], [0.107, 0.020, -0.994, 0.000], [0, 0, 0, 0], [ 9E9, 9E9, 9E9, 9E9, 9E9, 9E9] ], v1000, fine, pen\WObj:=platform;
    
    !!-4.2798000740192546, -0.22749999999999826;
    MoveL [ [-0.196, -20.815, 45.371], [0.215, -0.958, -0.190, 0.000], [0, 0, 0, 0], [ 9E9, 9E9, 9E9, 9E9, 9E9, 9E9] ], v1000, fine, pen\WObj:=platform;
    MoveL [ [-4.280, -0.227, -0.010], [0.215, -0.958, -0.190, 0.000], [0, 0, 0, 0], [ 9E9, 9E9, 9E9, 9E9, 9E9, 9E9] ], v30, fine, pen\WObj:=platform;
    MoveL [ [-0.196, -20.815, 45.371], [0.215, -0.958, -0.190, 0.000], [0, 0, 0, 0], [ 9E9, 9E9, 9E9, 9E9, 9E9, 9E9] ], v1000, fine, pen\WObj:=platform;
    
    !!-4.144700111028882, -0.22749999999999826;
    MoveL [ [6.271, 0.060, 48.892], [0.105, 0.027, -0.994, 0.000], [0, 0, 0, 0], [ 9E9, 9E9, 9E9, 9E9, 9E9, 9E9] ], v1000, fine, pen\WObj:=platform;
    MoveL [ [-4.145, -0.227, -0.010], [0.105, 0.027, -0.994, 0.000], [0, 0, 0, 0], [ 9E9, 9E9, 9E9, 9E9, 9E9, 9E9] ], v30, fine, pen\WObj:=platform;
    MoveL [ [6.271, 0.060, 48.892], [0.105, 0.027, -0.994, 0.000], [0, 0, 0, 0], [ 9E9, 9E9, 9E9, 9E9, 9E9, 9E9] ], v1000, fine, pen\WObj:=platform;
    
    !!-4.00960014803851, -0.22749999999999826;
    MoveL [ [-2.429, -18.640, 46.449], [0.188, -0.979, -0.084, 0.000], [0, 0, 0, 0], [ 9E9, 9E9, 9E9, 9E9, 9E9, 9E9] ], v1000, fine, pen\WObj:=platform;
    MoveL [ [-4.010, -0.227, -0.010], [0.188, -0.979, -0.084, 0.000], [0, 0, 0, 0], [ 9E9, 9E9, 9E9, 9E9, 9E9, 9E9] ], v30, fine, pen\WObj:=platform;
    MoveL [ [-2.429, -18.640, 46.449], [0.188, -0.979, -0.084, 0.000], [0, 0, 0, 0], [ 9E9, 9E9, 9E9, 9E9, 9E9, 9E9] ], v1000, fine, pen\WObj:=platform;
    
    !!-3.8745001850481375, -0.22749999999999826;
    MoveL [ [6.331, 0.132, 48.936], [0.103, 0.035, -0.994, 0.000], [0, 0, 0, 0], [ 9E9, 9E9, 9E9, 9E9, 9E9, 9E9] ], v1000, fine, pen\WObj:=platform;
    MoveL [ [-3.875, -0.227, -0.010], [0.103, 0.035, -0.994, 0.000], [0, 0, 0, 0], [ 9E9, 9E9, 9E9, 9E9, 9E9, 9E9] ], v30, fine, pen\WObj:=platform;
    MoveL [ [6.331, 0.132, 48.936], [0.103, 0.035, -0.994, 0.000], [0, 0, 0, 0], [ 9E9, 9E9, 9E9, 9E9, 9E9, 9E9] ], v1000, fine, pen\WObj:=platform;
    
    !!-3.7394002220577653, -0.22749999999999826;
    MoveL [ [6.361, 0.168, 48.958], [0.102, 0.039, -0.994, 0.000], [0, 0, 0, 0], [ 9E9, 9E9, 9E9, 9E9, 9E9, 9E9] ], v1000, fine, pen\WObj:=platform;
    MoveL [ [-3.739, -0.227, -0.010], [0.102, 0.039, -0.994, 0.000], [0, 0, 0, 0], [ 9E9, 9E9, 9E9, 9E9, 9E9, 9E9] ], v30, fine, pen\WObj:=platform;
    MoveL [ [6.361, 0.168, 48.958], [0.102, 0.039, -0.994, 0.000], [0, 0, 0, 0], [ 9E9, 9E9, 9E9, 9E9, 9E9, 9E9] ], v1000, fine, pen\WObj:=platform;
    
    !!-3.6043002590673927, -0.22749999999999826;
    MoveL [ [-4.364, -16.863, 47.135], [0.169, -0.985, 0.045, 0.000], [0, 0, 0, 0], [ 9E9, 9E9, 9E9, 9E9, 9E9, 9E9] ], v1000, fine, pen\WObj:=platform;
    MoveL [ [-3.604, -0.227, -0.010], [0.169, -0.985, 0.045, 0.000], [0, 0, 0, 0], [ 9E9, 9E9, 9E9, 9E9, 9E9, 9E9] ], v30, fine, pen\WObj:=platform;
    MoveL [ [-4.364, -16.863, 47.135], [0.169, -0.985, 0.045, 0.000], [0, 0, 0, 0], [ 9E9, 9E9, 9E9, 9E9, 9E9, 9E9] ], v1000, fine, pen\WObj:=platform;
    
    !!-3.46920029607702, -0.22749999999999826;
    MoveL [ [-4.343, -16.875, 47.129], [0.169, -0.984, 0.052, 0.000], [0, 0, 0, 0], [ 9E9, 9E9, 9E9, 9E9, 9E9, 9E9] ], v1000, fine, pen\WObj:=platform;
    MoveL [ [-3.469, -0.227, -0.010], [0.169, -0.984, 0.052, 0.000], [0, 0, 0, 0], [ 9E9, 9E9, 9E9, 9E9, 9E9, 9E9] ], v30, fine, pen\WObj:=platform;
    MoveL [ [-4.343, -16.875, 47.129], [0.169, -0.984, 0.052, 0.000], [0, 0, 0, 0], [ 9E9, 9E9, 9E9, 9E9, 9E9, 9E9] ], v1000, fine, pen\WObj:=platform;
    
    !!-3.3341003330866483, -0.22749999999999826;
    MoveL [ [6.451, 0.278, 49.021], [0.098, 0.051, -0.994, 0.000], [0, 0, 0, 0], [ 9E9, 9E9, 9E9, 9E9, 9E9, 9E9] ], v1000, fine, pen\WObj:=platform;
    MoveL [ [-3.334, -0.227, -0.010], [0.098, 0.051, -0.994, 0.000], [0, 0, 0, 0], [ 9E9, 9E9, 9E9, 9E9, 9E9, 9E9] ], v30, fine, pen\WObj:=platform;
    MoveL [ [6.451, 0.278, 49.021], [0.098, 0.051, -0.994, 0.000], [0, 0, 0, 0], [ 9E9, 9E9, 9E9, 9E9, 9E9, 9E9] ], v1000, fine, pen\WObj:=platform;
    
    !!-3.1990003700962752, -0.22749999999999826;
    MoveL [ [2.420, -23.853, 43.697], [0.251, -0.942, -0.224, 0.000], [0, 0, 0, 0], [ 9E9, 9E9, 9E9, 9E9, 9E9, 9E9] ], v1000, fine, pen\WObj:=platform;
    MoveL [ [-3.199, -0.227, -0.010], [0.251, -0.942, -0.224, 0.000], [0, 0, 0, 0], [ 9E9, 9E9, 9E9, 9E9, 9E9, 9E9] ], v30, fine, pen\WObj:=platform;
    MoveL [ [2.420, -23.853, 43.697], [0.251, -0.942, -0.224, 0.000], [0, 0, 0, 0], [ 9E9, 9E9, 9E9, 9E9, 9E9, 9E9] ], v1000, fine, pen\WObj:=platform;
    
    !!-3.0639004071059035, -0.22749999999999826;
    MoveL [ [6.510, 0.352, 49.061], [0.096, 0.060, -0.994, 0.000], [0, 0, 0, 0], [ 9E9, 9E9, 9E9, 9E9, 9E9, 9E9] ], v1000, fine, pen\WObj:=platform;
    MoveL [ [-3.064, -0.227, -0.010], [0.096, 0.060, -0.994, 0.000], [0, 0, 0, 0], [ 9E9, 9E9, 9E9, 9E9, 9E9, 9E9] ], v30, fine, pen\WObj:=platform;
    MoveL [ [6.510, 0.352, 49.061], [0.096, 0.060, -0.994, 0.000], [0, 0, 0, 0], [ 9E9, 9E9, 9E9, 9E9, 9E9, 9E9] ], v1000, fine, pen\WObj:=platform;
    
    !!-2.928800444115531, -0.22749999999999826;
    MoveL [ [6.540, 0.389, 49.081], [0.095, 0.065, -0.993, 0.000], [0, 0, 0, 0], [ 9E9, 9E9, 9E9, 9E9, 9E9, 9E9] ], v1000, fine, pen\WObj:=platform;
    MoveL [ [-2.929, -0.227, -0.010], [0.095, 0.065, -0.993, 0.000], [0, 0, 0, 0], [ 9E9, 9E9, 9E9, 9E9, 9E9, 9E9] ], v30, fine, pen\WObj:=platform;
    MoveL [ [6.540, 0.389, 49.081], [0.095, 0.065, -0.993, 0.000], [0, 0, 0, 0], [ 9E9, 9E9, 9E9, 9E9, 9E9, 9E9] ], v1000, fine, pen\WObj:=platform;
    
    !!-2.7937004811251587, -0.22749999999999826;
    MoveL [ [-2.249, -18.800, 46.409], [0.189, -0.982, -0.029, 0.000], [0, 0, 0, 0], [ 9E9, 9E9, 9E9, 9E9, 9E9, 9E9] ], v1000, fine, pen\WObj:=platform;
    MoveL [ [-2.794, -0.227, -0.010], [0.189, -0.982, -0.029, 0.000], [0, 0, 0, 0], [ 9E9, 9E9, 9E9, 9E9, 9E9, 9E9] ], v30, fine, pen\WObj:=platform;
    MoveL [ [-2.249, -18.800, 46.409], [0.189, -0.982, -0.029, 0.000], [0, 0, 0, 0], [ 9E9, 9E9, 9E9, 9E9, 9E9, 9E9] ], v1000, fine, pen\WObj:=platform;
    
    !!-2.658600518134786, -0.22749999999999826;
    MoveL [ [2.495, -24.019, 43.664], [0.252, -0.946, -0.205, 0.000], [0, 0, 0, 0], [ 9E9, 9E9, 9E9, 9E9, 9E9, 9E9] ], v1000, fine, pen\WObj:=platform;
    MoveL [ [-2.659, -0.227, -0.010], [0.252, -0.946, -0.205, 0.000], [0, 0, 0, 0], [ 9E9, 9E9, 9E9, 9E9, 9E9, 9E9] ], v30, fine, pen\WObj:=platform;
    MoveL [ [2.495, -24.019, 43.664], [0.252, -0.946, -0.205, 0.000], [0, 0, 0, 0], [ 9E9, 9E9, 9E9, 9E9, 9E9, 9E9] ], v1000, fine, pen\WObj:=platform;
    
    !!-2.523500555144414, -0.22749999999999826;
    MoveL [ [0.052, -21.175, 45.318], [0.216, -0.969, -0.119, 0.000], [0, 0, 0, 0], [ 9E9, 9E9, 9E9, 9E9, 9E9, 9E9] ], v1000, fine, pen\WObj:=platform;
    MoveL [ [-2.524, -0.227, -0.010], [0.216, -0.969, -0.119, 0.000], [0, 0, 0, 0], [ 9E9, 9E9, 9E9, 9E9, 9E9, 9E9] ], v30, fine, pen\WObj:=platform;
    MoveL [ [0.052, -21.175, 45.318], [0.216, -0.969, -0.119, 0.000], [0, 0, 0, 0], [ 9E9, 9E9, 9E9, 9E9, 9E9, 9E9] ], v1000, fine, pen\WObj:=platform;
    
    !!-2.3884005921540403, -0.22749999999999826;
    MoveL [ [2.532, -24.101, 43.646], [0.252, -0.948, -0.195, 0.000], [0, 0, 0, 0], [ 9E9, 9E9, 9E9, 9E9, 9E9, 9E9] ], v1000, fine, pen\WObj:=platform;
    MoveL [ [-2.388, -0.227, -0.010], [0.252, -0.948, -0.195, 0.000], [0, 0, 0, 0], [ 9E9, 9E9, 9E9, 9E9, 9E9, 9E9] ], v30, fine, pen\WObj:=platform;
    MoveL [ [2.532, -24.101, 43.646], [0.252, -0.948, -0.195, 0.000], [0, 0, 0, 0], [ 9E9, 9E9, 9E9, 9E9, 9E9, 9E9] ], v1000, fine, pen\WObj:=platform;
    
    !!-2.253300629163669, -0.22749999999999826;
    MoveL [ [2.551, -24.142, 43.636], [0.252, -0.949, -0.191, 0.000], [0, 0, 0, 0], [ 9E9, 9E9, 9E9, 9E9, 9E9, 9E9] ], v1000, fine, pen\WObj:=platform;
    MoveL [ [-2.253, -0.227, -0.010], [0.252, -0.949, -0.191, 0.000], [0, 0, 0, 0], [ 9E9, 9E9, 9E9, 9E9, 9E9, 9E9] ], v30, fine, pen\WObj:=platform;
    MoveL [ [2.551, -24.142, 43.636], [0.252, -0.949, -0.191, 0.000], [0, 0, 0, 0], [ 9E9, 9E9, 9E9, 9E9, 9E9, 9E9] ], v1000, fine, pen\WObj:=platform;
    
    !!-2.118200666173296, -0.22749999999999826;
    MoveL [ [-4.118, -16.981, 47.057], [0.171, -0.978, 0.117, 0.000], [0, 0, 0, 0], [ 9E9, 9E9, 9E9, 9E9, 9E9, 9E9] ], v1000, fine, pen\WObj:=platform;
    MoveL [ [-2.118, -0.227, -0.010], [0.171, -0.978, 0.117, 0.000], [0, 0, 0, 0], [ 9E9, 9E9, 9E9, 9E9, 9E9, 9E9] ], v30, fine, pen\WObj:=platform;
    MoveL [ [-4.118, -16.981, 47.057], [0.171, -0.978, 0.117, 0.000], [0, 0, 0, 0], [ 9E9, 9E9, 9E9, 9E9, 9E9, 9E9] ], v1000, fine, pen\WObj:=platform;
    
    !!-1.9831007031829242, -0.22749999999999826;
    MoveL [ [-2.126, -18.903, 46.371], [0.190, -0.982, 0.007, 0.000], [0, 0, 0, 0], [ 9E9, 9E9, 9E9, 9E9, 9E9, 9E9] ], v1000, fine, pen\WObj:=platform;
    MoveL [ [-1.983, -0.227, -0.010], [0.190, -0.982, 0.007, 0.000], [0, 0, 0, 0], [ 9E9, 9E9, 9E9, 9E9, 9E9, 9E9] ], v30, fine, pen\WObj:=platform;
    MoveL [ [-2.126, -18.903, 46.371], [0.190, -0.982, 0.007, 0.000], [0, 0, 0, 0], [ 9E9, 9E9, 9E9, 9E9, 9E9, 9E9] ], v1000, fine, pen\WObj:=platform;
    
    !!-1.8480007401925511, -0.22749999999999826;
    MoveL [ [-4.072, -17.002, 47.040], [0.172, -0.977, 0.129, 0.000], [0, 0, 0, 0], [ 9E9, 9E9, 9E9, 9E9, 9E9, 9E9] ], v1000, fine, pen\WObj:=platform;
    MoveL [ [-1.848, -0.227, -0.010], [0.172, -0.977, 0.129, 0.000], [0, 0, 0, 0], [ 9E9, 9E9, 9E9, 9E9, 9E9, 9E9] ], v30, fine, pen\WObj:=platform;
    MoveL [ [-4.072, -17.002, 47.040], [0.172, -0.977, 0.129, 0.000], [0, 0, 0, 0], [ 9E9, 9E9, 9E9, 9E9, 9E9, 9E9] ], v1000, fine, pen\WObj:=platform;
    
    !!-1.7129007772021787, -0.22749999999999826;
    MoveL [ [-4.049, -17.012, 47.031], [0.172, -0.976, 0.136, 0.000], [0, 0, 0, 0], [ 9E9, 9E9, 9E9, 9E9, 9E9, 9E9] ], v1000, fine, pen\WObj:=platform;
    MoveL [ [-1.713, -0.227, -0.010], [0.172, -0.976, 0.136, 0.000], [0, 0, 0, 0], [ 9E9, 9E9, 9E9, 9E9, 9E9, 9E9] ], v30, fine, pen\WObj:=platform;
    MoveL [ [-4.049, -17.012, 47.031], [0.172, -0.976, 0.136, 0.000], [0, 0, 0, 0], [ 9E9, 9E9, 9E9, 9E9, 9E9, 9E9] ], v1000, fine, pen\WObj:=platform;
    
    !!-1.5778008142118063, -0.22749999999999826;
    MoveL [ [6.833, 0.769, 49.267], [0.085, 0.117, -0.989, 0.000], [0, 0, 0, 0], [ 9E9, 9E9, 9E9, 9E9, 9E9, 9E9] ], v1000, fine, pen\WObj:=platform;
    MoveL [ [-1.578, -0.227, -0.010], [0.085, 0.117, -0.989, 0.000], [0, 0, 0, 0], [ 9E9, 9E9, 9E9, 9E9, 9E9, 9E9] ], v30, fine, pen\WObj:=platform;
    MoveL [ [6.833, 0.769, 49.267], [0.085, 0.117, -0.989, 0.000], [0, 0, 0, 0], [ 9E9, 9E9, 9E9, 9E9, 9E9, 9E9] ], v1000, fine, pen\WObj:=platform;
    
    !!-1.442700851221434, -0.22749999999999826;
    MoveL [ [-2.042, -18.969, 46.341], [0.191, -0.981, 0.031, 0.000], [0, 0, 0, 0], [ 9E9, 9E9, 9E9, 9E9, 9E9, 9E9] ], v1000, fine, pen\WObj:=platform;
    MoveL [ [-1.443, -0.227, -0.010], [0.191, -0.981, 0.031, 0.000], [0, 0, 0, 0], [ 9E9, 9E9, 9E9, 9E9, 9E9, 9E9] ], v30, fine, pen\WObj:=platform;
    MoveL [ [-2.042, -18.969, 46.341], [0.191, -0.981, 0.031, 0.000], [0, 0, 0, 0], [ 9E9, 9E9, 9E9, 9E9, 9E9, 9E9] ], v1000, fine, pen\WObj:=platform;
    
    !!-1.3076008882310617, -0.22749999999999826;
    MoveL [ [2.680, -24.428, 43.561], [0.254, -0.954, -0.157, 0.000], [0, 0, 0, 0], [ 9E9, 9E9, 9E9, 9E9, 9E9, 9E9] ], v1000, fine, pen\WObj:=platform;
    MoveL [ [-1.308, -0.227, -0.010], [0.254, -0.954, -0.157, 0.000], [0, 0, 0, 0], [ 9E9, 9E9, 9E9, 9E9, 9E9, 9E9] ], v30, fine, pen\WObj:=platform;
    MoveL [ [2.680, -24.428, 43.561], [0.254, -0.954, -0.157, 0.000], [0, 0, 0, 0], [ 9E9, 9E9, 9E9, 9E9, 9E9, 9E9] ], v1000, fine, pen\WObj:=platform;
    
    !!-1.1725009252406895, -0.22749999999999826;
    MoveL [ [-2.000, -19.002, 46.324], [0.191, -0.981, 0.043, 0.000], [0, 0, 0, 0], [ 9E9, 9E9, 9E9, 9E9, 9E9, 9E9] ], v1000, fine, pen\WObj:=platform;
    MoveL [ [-1.173, -0.227, -0.010], [0.191, -0.981, 0.043, 0.000], [0, 0, 0, 0], [ 9E9, 9E9, 9E9, 9E9, 9E9, 9E9] ], v30, fine, pen\WObj:=platform;
    MoveL [ [-2.000, -19.002, 46.324], [0.191, -0.981, 0.043, 0.000], [0, 0, 0, 0], [ 9E9, 9E9, 9E9, 9E9, 9E9, 9E9] ], v1000, fine, pen\WObj:=platform;
    
    !!-1.037400962250317, -0.22749999999999826;
    MoveL [ [-3.930, -17.060, 46.982], [0.173, -0.971, 0.167, 0.000], [0, 0, 0, 0], [ 9E9, 9E9, 9E9, 9E9, 9E9, 9E9] ], v1000, fine, pen\WObj:=platform;
    MoveL [ [-1.037, -0.227, -0.010], [0.173, -0.971, 0.167, 0.000], [0, 0, 0, 0], [ 9E9, 9E9, 9E9, 9E9, 9E9, 9E9] ], v30, fine, pen\WObj:=platform;
    MoveL [ [-3.930, -17.060, 46.982], [0.173, -0.971, 0.167, 0.000], [0, 0, 0, 0], [ 9E9, 9E9, 9E9, 9E9, 9E9, 9E9] ], v1000, fine, pen\WObj:=platform;
    
    !!-0.9023009992599447, -0.22749999999999826;
    MoveL [ [0.283, -21.492, 45.227], [0.218, -0.974, -0.054, 0.000], [0, 0, 0, 0], [ 9E9, 9E9, 9E9, 9E9, 9E9, 9E9] ], v1000, fine, pen\WObj:=platform;
    MoveL [ [-0.902, -0.227, -0.010], [0.218, -0.974, -0.054, 0.000], [0, 0, 0, 0], [ 9E9, 9E9, 9E9, 9E9, 9E9, 9E9] ], v30, fine, pen\WObj:=platform;
    MoveL [ [0.283, -21.492, 45.227], [0.218, -0.974, -0.054, 0.000], [0, 0, 0, 0], [ 9E9, 9E9, 9E9, 9E9, 9E9, 9E9] ], v1000, fine, pen\WObj:=platform;
    
    !!-0.7672010362695724, -0.22749999999999826;
    MoveL [ [0.302, -21.518, 45.218], [0.218, -0.975, -0.049, 0.000], [0, 0, 0, 0], [ 9E9, 9E9, 9E9, 9E9, 9E9, 9E9] ], v1000, fine, pen\WObj:=platform;
    MoveL [ [-0.767, -0.227, -0.010], [0.218, -0.975, -0.049, 0.000], [0, 0, 0, 0], [ 9E9, 9E9, 9E9, 9E9, 9E9, 9E9] ], v30, fine, pen\WObj:=platform;
    MoveL [ [0.302, -21.518, 45.218], [0.218, -0.975, -0.049, 0.000], [0, 0, 0, 0], [ 9E9, 9E9, 9E9, 9E9, 9E9, 9E9] ], v1000, fine, pen\WObj:=platform;
    
    !!-0.6321010732792, -0.22749999999999826;
    MoveL [ [0.321, -21.544, 45.209], [0.219, -0.975, -0.044, 0.000], [0, 0, 0, 0], [ 9E9, 9E9, 9E9, 9E9, 9E9, 9E9] ], v1000, fine, pen\WObj:=platform;
    MoveL [ [-0.632, -0.227, -0.010], [0.219, -0.975, -0.044, 0.000], [0, 0, 0, 0], [ 9E9, 9E9, 9E9, 9E9, 9E9, 9E9] ], v30, fine, pen\WObj:=platform;
    MoveL [ [0.321, -21.544, 45.209], [0.219, -0.975, -0.044, 0.000], [0, 0, 0, 0], [ 9E9, 9E9, 9E9, 9E9, 9E9, 9E9] ], v1000, fine, pen\WObj:=platform;
    
    !!-0.49700111028882754, -0.22749999999999826;
    MoveL [ [-3.834, -17.098, 46.940], [0.175, -0.966, 0.191, 0.000], [0, 0, 0, 0], [ 9E9, 9E9, 9E9, 9E9, 9E9, 9E9] ], v1000, fine, pen\WObj:=platform;
    MoveL [ [-0.497, -0.227, -0.010], [0.175, -0.966, 0.191, 0.000], [0, 0, 0, 0], [ 9E9, 9E9, 9E9, 9E9, 9E9, 9E9] ], v30, fine, pen\WObj:=platform;
    MoveL [ [-3.834, -17.098, 46.940], [0.175, -0.966, 0.191, 0.000], [0, 0, 0, 0], [ 9E9, 9E9, 9E9, 9E9, 9E9, 9E9] ], v1000, fine, pen\WObj:=platform;
    
    !!-0.3619011472984552, -0.22749999999999826;
    MoveL [ [-3.809, -17.107, 46.928], [0.175, -0.965, 0.197, 0.000], [0, 0, 0, 0], [ 9E9, 9E9, 9E9, 9E9, 9E9, 9E9] ], v1000, fine, pen\WObj:=platform;
    MoveL [ [-0.362, -0.227, -0.010], [0.175, -0.965, 0.197, 0.000], [0, 0, 0, 0], [ 9E9, 9E9, 9E9, 9E9, 9E9, 9E9] ], v30, fine, pen\WObj:=platform;
    MoveL [ [-3.809, -17.107, 46.928], [0.175, -0.965, 0.197, 0.000], [0, 0, 0, 0], [ 9E9, 9E9, 9E9, 9E9, 9E9, 9E9] ], v1000, fine, pen\WObj:=platform;
    
    !!-0.2268011843080821, -0.22749999999999826;
    MoveL [ [7.116, 1.162, 49.428], [0.075, 0.185, -0.980, 0.000], [0, 0, 0, 0], [ 9E9, 9E9, 9E9, 9E9, 9E9, 9E9] ], v1000, fine, pen\WObj:=platform;
    MoveL [ [-0.227, -0.227, -0.010], [0.075, 0.185, -0.980, 0.000], [0, 0, 0, 0], [ 9E9, 9E9, 9E9, 9E9, 9E9, 9E9] ], v30, fine, pen\WObj:=platform;
    MoveL [ [7.116, 1.162, 49.428], [0.075, 0.185, -0.980, 0.000], [0, 0, 0, 0], [ 9E9, 9E9, 9E9, 9E9, 9E9, 9E9] ], v1000, fine, pen\WObj:=platform;
    
    !!-0.09170122131770975, -0.22749999999999826;
    MoveL [ [-3.760, -17.125, 46.905], [0.176, -0.962, 0.209, 0.000], [0, 0, 0, 0], [ 9E9, 9E9, 9E9, 9E9, 9E9, 9E9] ], v1000, fine, pen\WObj:=platform;
    MoveL [ [-0.092, -0.227, -0.010], [0.176, -0.962, 0.209, 0.000], [0, 0, 0, 0], [ 9E9, 9E9, 9E9, 9E9, 9E9, 9E9] ], v30, fine, pen\WObj:=platform;
    MoveL [ [-3.760, -17.125, 46.905], [0.176, -0.962, 0.209, 0.000], [0, 0, 0, 0], [ 9E9, 9E9, 9E9, 9E9, 9E9, 9E9] ], v1000, fine, pen\WObj:=platform;
    
    !!0.04339874167266333, -0.22749999999999826;
    MoveL [ [0.418, -21.670, 45.157], [0.220, -0.975, -0.017, 0.000], [0, 0, 0, 0], [ 9E9, 9E9, 9E9, 9E9, 9E9, 9E9] ], v1000, fine, pen\WObj:=platform;
    MoveL [ [0.043, -0.227, -0.010], [0.220, -0.975, -0.017, 0.000], [0, 0, 0, 0], [ 9E9, 9E9, 9E9, 9E9, 9E9, 9E9] ], v30, fine, pen\WObj:=platform;
    MoveL [ [0.418, -21.670, 45.157], [0.220, -0.975, -0.017, 0.000], [0, 0, 0, 0], [ 9E9, 9E9, 9E9, 9E9, 9E9, 9E9] ], v1000, fine, pen\WObj:=platform;
    
    !!0.17849870466303353, -0.22749999999999826;
    MoveL [ [-1.786, -19.159, 46.226], [0.194, -0.976, 0.101, 0.000], [0, 0, 0, 0], [ 9E9, 9E9, 9E9, 9E9, 9E9, 9E9] ], v1000, fine, pen\WObj:=platform;
    MoveL [ [0.178, -0.227, -0.010], [0.194, -0.976, 0.101, 0.000], [0, 0, 0, 0], [ 9E9, 9E9, 9E9, 9E9, 9E9, 9E9] ], v30, fine, pen\WObj:=platform;
    MoveL [ [-1.786, -19.159, 46.226], [0.194, -0.976, 0.101, 0.000], [0, 0, 0, 0], [ 9E9, 9E9, 9E9, 9E9, 9E9, 9E9] ], v1000, fine, pen\WObj:=platform;
    
    !!0.3135986676534066, -0.22749999999999826;
    MoveL [ [-1.764, -19.174, 46.215], [0.194, -0.975, 0.107, 0.000], [0, 0, 0, 0], [ 9E9, 9E9, 9E9, 9E9, 9E9, 9E9] ], v1000, fine, pen\WObj:=platform;
    MoveL [ [0.314, -0.227, -0.010], [0.194, -0.975, 0.107, 0.000], [0, 0, 0, 0], [ 9E9, 9E9, 9E9, 9E9, 9E9, 9E9] ], v30, fine, pen\WObj:=platform;
    MoveL [ [-1.764, -19.174, 46.215], [0.194, -0.975, 0.107, 0.000], [0, 0, 0, 0], [ 9E9, 9E9, 9E9, 9E9, 9E9, 9E9] ], v1000, fine, pen\WObj:=platform;
    
    !!0.4486986306437797, -0.22749999999999826;
    MoveL [ [0.475, -21.745, 45.123], [0.221, -0.975, -0.001, 0.000], [0, 0, 0, 0], [ 9E9, 9E9, 9E9, 9E9, 9E9, 9E9] ], v1000, fine, pen\WObj:=platform;
    MoveL [ [0.449, -0.227, -0.010], [0.221, -0.975, -0.001, 0.000], [0, 0, 0, 0], [ 9E9, 9E9, 9E9, 9E9, 9E9, 9E9] ], v30, fine, pen\WObj:=platform;
    MoveL [ [0.475, -21.745, 45.123], [0.221, -0.975, -0.001, 0.000], [0, 0, 0, 0], [ 9E9, 9E9, 9E9, 9E9, 9E9, 9E9] ], v1000, fine, pen\WObj:=platform;
    
    !!0.5837985936341528, -0.22749999999999826;
    MoveL [ [-3.636, -17.168, 46.843], [0.177, -0.955, 0.238, 0.000], [0, 0, 0, 0], [ 9E9, 9E9, 9E9, 9E9, 9E9, 9E9] ], v1000, fine, pen\WObj:=platform;
    MoveL [ [0.584, -0.227, -0.010], [0.177, -0.955, 0.238, 0.000], [0, 0, 0, 0], [ 9E9, 9E9, 9E9, 9E9, 9E9, 9E9] ], v30, fine, pen\WObj:=platform;
    MoveL [ [-3.636, -17.168, 46.843], [0.177, -0.955, 0.238, 0.000], [0, 0, 0, 0], [ 9E9, 9E9, 9E9, 9E9, 9E9, 9E9] ], v1000, fine, pen\WObj:=platform;
    
    !!0.7188985566245244, -0.22749999999999826;
    MoveL [ [-3.610, -17.176, 46.830], [0.178, -0.953, 0.244, 0.000], [0, 0, 0, 0], [ 9E9, 9E9, 9E9, 9E9, 9E9, 9E9] ], v1000, fine, pen\WObj:=platform;
    MoveL [ [0.719, -0.227, -0.010], [0.178, -0.953, 0.244, 0.000], [0, 0, 0, 0], [ 9E9, 9E9, 9E9, 9E9, 9E9, 9E9] ], v30, fine, pen\WObj:=platform;
    MoveL [ [-3.610, -17.176, 46.830], [0.178, -0.953, 0.244, 0.000], [0, 0, 0, 0], [ 9E9, 9E9, 9E9, 9E9, 9E9, 9E9] ], v1000, fine, pen\WObj:=platform;
    
    !!0.853998519614896, -0.22749999999999826;
    MoveL [ [2.962, -25.062, 43.335], [0.258, -0.963, -0.082, 0.000], [0, 0, 0, 0], [ 9E9, 9E9, 9E9, 9E9, 9E9, 9E9] ], v1000, fine, pen\WObj:=platform;
    MoveL [ [0.854, -0.227, -0.010], [0.258, -0.963, -0.082, 0.000], [0, 0, 0, 0], [ 9E9, 9E9, 9E9, 9E9, 9E9, 9E9] ], v30, fine, pen\WObj:=platform;
    MoveL [ [2.962, -25.062, 43.335], [0.258, -0.963, -0.082, 0.000], [0, 0, 0, 0], [ 9E9, 9E9, 9E9, 9E9, 9E9, 9E9] ], v1000, fine, pen\WObj:=platform;
    
    !!0.9890984826052691, -0.22749999999999826;
    MoveL [ [2.979, -25.100, 43.319], [0.258, -0.963, -0.077, 0.000], [0, 0, 0, 0], [ 9E9, 9E9, 9E9, 9E9, 9E9, 9E9] ], v1000, fine, pen\WObj:=platform;
    MoveL [ [0.989, -0.227, -0.010], [0.258, -0.963, -0.077, 0.000], [0, 0, 0, 0], [ 9E9, 9E9, 9E9, 9E9, 9E9, 9E9] ], v30, fine, pen\WObj:=platform;
    MoveL [ [2.979, -25.100, 43.319], [0.258, -0.963, -0.077, 0.000], [0, 0, 0, 0], [ 9E9, 9E9, 9E9, 9E9, 9E9, 9E9] ], v1000, fine, pen\WObj:=platform;
    
    !!1.1241984455956422, -0.22749999999999826;
    MoveL [ [-1.633, -19.262, 46.143], [0.196, -0.970, 0.141, 0.000], [0, 0, 0, 0], [ 9E9, 9E9, 9E9, 9E9, 9E9, 9E9] ], v1000, fine, pen\WObj:=platform;
    MoveL [ [1.124, -0.227, -0.010], [0.196, -0.970, 0.141, 0.000], [0, 0, 0, 0], [ 9E9, 9E9, 9E9, 9E9, 9E9, 9E9] ], v30, fine, pen\WObj:=platform;
    MoveL [ [-1.633, -19.262, 46.143], [0.196, -0.970, 0.141, 0.000], [0, 0, 0, 0], [ 9E9, 9E9, 9E9, 9E9, 9E9, 9E9] ], v1000, fine, pen\WObj:=platform;
    
    !!1.2592984085860155, -0.22749999999999826;
    MoveL [ [-3.509, -17.208, 46.776], [0.179, -0.947, 0.266, 0.000], [0, 0, 0, 0], [ 9E9, 9E9, 9E9, 9E9, 9E9, 9E9] ], v1000, fine, pen\WObj:=platform;
    MoveL [ [1.259, -0.227, -0.010], [0.179, -0.947, 0.266, 0.000], [0, 0, 0, 0], [ 9E9, 9E9, 9E9, 9E9, 9E9, 9E9] ], v30, fine, pen\WObj:=platform;
    MoveL [ [-3.509, -17.208, 46.776], [0.179, -0.947, 0.266, 0.000], [0, 0, 0, 0], [ 9E9, 9E9, 9E9, 9E9, 9E9, 9E9] ], v1000, fine, pen\WObj:=platform;
    
    !!1.3943983715763855, -0.22749999999999826;
    MoveL [ [-3.483, -17.216, 46.762], [0.180, -0.946, 0.271, 0.000], [0, 0, 0, 0], [ 9E9, 9E9, 9E9, 9E9, 9E9, 9E9] ], v1000, fine, pen\WObj:=platform;
    MoveL [ [1.394, -0.227, -0.010], [0.180, -0.946, 0.271, 0.000], [0, 0, 0, 0], [ 9E9, 9E9, 9E9, 9E9, 9E9, 9E9] ], v30, fine, pen\WObj:=platform;
    MoveL [ [-3.483, -17.216, 46.762], [0.180, -0.946, 0.271, 0.000], [0, 0, 0, 0], [ 9E9, 9E9, 9E9, 9E9, 9E9, 9E9] ], v1000, fine, pen\WObj:=platform;
    
    !!1.5294983345667588, -0.22749999999999826;
    MoveL [ [-1.567, -19.304, 46.104], [0.197, -0.968, 0.157, 0.000], [0, 0, 0, 0], [ 9E9, 9E9, 9E9, 9E9, 9E9, 9E9] ], v1000, fine, pen\WObj:=platform;
    MoveL [ [1.529, -0.227, -0.010], [0.197, -0.968, 0.157, 0.000], [0, 0, 0, 0], [ 9E9, 9E9, 9E9, 9E9, 9E9, 9E9] ], v30, fine, pen\WObj:=platform;
    MoveL [ [-1.567, -19.304, 46.104], [0.197, -0.968, 0.157, 0.000], [0, 0, 0, 0], [ 9E9, 9E9, 9E9, 9E9, 9E9, 9E9] ], v1000, fine, pen\WObj:=platform;
    
    !!1.6645982975571316, -0.22749999999999826;
    MoveL [ [3.063, -25.292, 43.232], [0.260, -0.964, -0.054, 0.000], [0, 0, 0, 0], [ 9E9, 9E9, 9E9, 9E9, 9E9, 9E9] ], v1000, fine, pen\WObj:=platform;
    MoveL [ [1.665, -0.227, -0.010], [0.260, -0.964, -0.054, 0.000], [0, 0, 0, 0], [ 9E9, 9E9, 9E9, 9E9, 9E9, 9E9] ], v30, fine, pen\WObj:=platform;
    MoveL [ [3.063, -25.292, 43.232], [0.260, -0.964, -0.054, 0.000], [0, 0, 0, 0], [ 9E9, 9E9, 9E9, 9E9, 9E9, 9E9] ], v1000, fine, pen\WObj:=platform;
    
    !!1.7996982605475047, -0.22749999999999826;
    MoveL [ [3.079, -25.330, 43.213], [0.260, -0.964, -0.049, 0.000], [0, 0, 0, 0], [ 9E9, 9E9, 9E9, 9E9, 9E9, 9E9] ], v1000, fine, pen\WObj:=platform;
    MoveL [ [1.800, -0.227, -0.010], [0.260, -0.964, -0.049, 0.000], [0, 0, 0, 0], [ 9E9, 9E9, 9E9, 9E9, 9E9, 9E9] ], v30, fine, pen\WObj:=platform;
    MoveL [ [3.079, -25.330, 43.213], [0.260, -0.964, -0.049, 0.000], [0, 0, 0, 0], [ 9E9, 9E9, 9E9, 9E9, 9E9, 9E9] ], v1000, fine, pen\WObj:=platform;
    
    !!1.9347982235378764, -0.22749999999999826;
    MoveL [ [3.095, -25.367, 43.195], [0.261, -0.964, -0.045, 0.000], [0, 0, 0, 0], [ 9E9, 9E9, 9E9, 9E9, 9E9, 9E9] ], v1000, fine, pen\WObj:=platform;
    MoveL [ [1.935, -0.227, -0.010], [0.261, -0.964, -0.045, 0.000], [0, 0, 0, 0], [ 9E9, 9E9, 9E9, 9E9, 9E9, 9E9] ], v30, fine, pen\WObj:=platform;
    MoveL [ [3.095, -25.367, 43.195], [0.261, -0.964, -0.045, 0.000], [0, 0, 0, 0], [ 9E9, 9E9, 9E9, 9E9, 9E9, 9E9] ], v1000, fine, pen\WObj:=platform;
    
    !!2.069898186528248, -0.22749999999999826;
    MoveL [ [-1.478, -19.359, 46.048], [0.199, -0.964, 0.179, 0.000], [0, 0, 0, 0], [ 9E9, 9E9, 9E9, 9E9, 9E9, 9E9] ], v1000, fine, pen\WObj:=platform;
    MoveL [ [2.070, -0.227, -0.010], [0.199, -0.964, 0.179, 0.000], [0, 0, 0, 0], [ 9E9, 9E9, 9E9, 9E9, 9E9, 9E9] ], v30, fine, pen\WObj:=platform;
    MoveL [ [-1.478, -19.359, 46.048], [0.199, -0.964, 0.179, 0.000], [0, 0, 0, 0], [ 9E9, 9E9, 9E9, 9E9, 9E9, 9E9] ], v1000, fine, pen\WObj:=platform;
    
    !!2.2049981495186213, -0.22749999999999826;
    MoveL [ [-3.327, -17.261, 46.672], [0.182, -0.935, 0.304, 0.000], [0, 0, 0, 0], [ 9E9, 9E9, 9E9, 9E9, 9E9, 9E9] ], v1000, fine, pen\WObj:=platform;
    MoveL [ [2.205, -0.227, -0.010], [0.182, -0.935, 0.304, 0.000], [0, 0, 0, 0], [ 9E9, 9E9, 9E9, 9E9, 9E9, 9E9] ], v30, fine, pen\WObj:=platform;
    MoveL [ [-3.327, -17.261, 46.672], [0.182, -0.935, 0.304, 0.000], [0, 0, 0, 0], [ 9E9, 9E9, 9E9, 9E9, 9E9, 9E9] ], v1000, fine, pen\WObj:=platform;
    
    !!2.3400981125089944, -0.22749999999999826;
    MoveL [ [-3.300, -17.268, 46.657], [0.183, -0.933, 0.309, 0.000], [0, 0, 0, 0], [ 9E9, 9E9, 9E9, 9E9, 9E9, 9E9] ], v1000, fine, pen\WObj:=platform;
    MoveL [ [2.340, -0.227, -0.010], [0.183, -0.933, 0.309, 0.000], [0, 0, 0, 0], [ 9E9, 9E9, 9E9, 9E9, 9E9, 9E9] ], v30, fine, pen\WObj:=platform;
    MoveL [ [-3.300, -17.268, 46.657], [0.183, -0.933, 0.309, 0.000], [0, 0, 0, 0], [ 9E9, 9E9, 9E9, 9E9, 9E9, 9E9] ], v1000, fine, pen\WObj:=platform;
    
    !!2.4751980754993657, -0.22749999999999826;
    MoveL [ [-3.274, -17.275, 46.641], [0.183, -0.932, 0.314, 0.000], [0, 0, 0, 0], [ 9E9, 9E9, 9E9, 9E9, 9E9, 9E9] ], v1000, fine, pen\WObj:=platform;
    MoveL [ [2.475, -0.227, -0.010], [0.183, -0.932, 0.314, 0.000], [0, 0, 0, 0], [ 9E9, 9E9, 9E9, 9E9, 9E9, 9E9] ], v30, fine, pen\WObj:=platform;
    MoveL [ [-3.274, -17.275, 46.641], [0.183, -0.932, 0.314, 0.000], [0, 0, 0, 0], [ 9E9, 9E9, 9E9, 9E9, 9E9, 9E9] ], v1000, fine, pen\WObj:=platform;
    
    !!2.6102980384897374, -0.22749999999999826;
    MoveL [ [3.175, -25.554, 43.097], [0.263, -0.965, -0.022, 0.000], [0, 0, 0, 0], [ 9E9, 9E9, 9E9, 9E9, 9E9, 9E9] ], v1000, fine, pen\WObj:=platform;
    MoveL [ [2.610, -0.227, -0.010], [0.263, -0.965, -0.022, 0.000], [0, 0, 0, 0], [ 9E9, 9E9, 9E9, 9E9, 9E9, 9E9] ], v30, fine, pen\WObj:=platform;
    MoveL [ [3.175, -25.554, 43.097], [0.263, -0.965, -0.022, 0.000], [0, 0, 0, 0], [ 9E9, 9E9, 9E9, 9E9, 9E9, 9E9] ], v1000, fine, pen\WObj:=platform;
    
    !!2.7453980014801105, -0.22749999999999826;
    MoveL [ [-1.366, -19.425, 45.974], [0.200, -0.958, 0.205, 0.000], [0, 0, 0, 0], [ 9E9, 9E9, 9E9, 9E9, 9E9, 9E9] ], v1000, fine, pen\WObj:=platform;
    MoveL [ [2.745, -0.227, -0.010], [0.200, -0.958, 0.205, 0.000], [0, 0, 0, 0], [ 9E9, 9E9, 9E9, 9E9, 9E9, 9E9] ], v30, fine, pen\WObj:=platform;
    MoveL [ [-1.366, -19.425, 45.974], [0.200, -0.958, 0.205, 0.000], [0, 0, 0, 0], [ 9E9, 9E9, 9E9, 9E9, 9E9, 9E9] ], v1000, fine, pen\WObj:=platform;
    
    !!2.8804979644704836, -0.22749999999999826;
    MoveL [ [-1.344, -19.438, 45.958], [0.201, -0.957, 0.210, 0.000], [0, 0, 0, 0], [ 9E9, 9E9, 9E9, 9E9, 9E9, 9E9] ], v1000, fine, pen\WObj:=platform;
    MoveL [ [2.880, -0.227, -0.010], [0.201, -0.957, 0.210, 0.000], [0, 0, 0, 0], [ 9E9, 9E9, 9E9, 9E9, 9E9, 9E9] ], v30, fine, pen\WObj:=platform;
    MoveL [ [-1.344, -19.438, 45.958], [0.201, -0.957, 0.210, 0.000], [0, 0, 0, 0], [ 9E9, 9E9, 9E9, 9E9, 9E9, 9E9] ], v1000, fine, pen\WObj:=platform;
    
    !!3.0155979274608553, -0.22749999999999826;
    MoveL [ [-1.322, -19.451, 45.943], [0.201, -0.956, 0.216, 0.000], [0, 0, 0, 0], [ 9E9, 9E9, 9E9, 9E9, 9E9, 9E9] ], v1000, fine, pen\WObj:=platform;
    MoveL [ [3.016, -0.227, -0.010], [0.201, -0.956, 0.216, 0.000], [0, 0, 0, 0], [ 9E9, 9E9, 9E9, 9E9, 9E9, 9E9] ], v30, fine, pen\WObj:=platform;
    MoveL [ [-1.322, -19.451, 45.943], [0.201, -0.956, 0.216, 0.000], [0, 0, 0, 0], [ 9E9, 9E9, 9E9, 9E9, 9E9, 9E9] ], v1000, fine, pen\WObj:=platform;
    
    !!3.1506978904512284, -0.22749999999999826;
    MoveL [ [7.759, 2.193, 49.718], [0.052, 0.464, -0.884, 0.000], [0, 0, 0, 0], [ 9E9, 9E9, 9E9, 9E9, 9E9, 9E9] ], v1000, fine, pen\WObj:=platform;
    MoveL [ [3.151, -0.227, -0.010], [0.052, 0.464, -0.884, 0.000], [0, 0, 0, 0], [ 9E9, 9E9, 9E9, 9E9, 9E9, 9E9] ], v30, fine, pen\WObj:=platform;
    MoveL [ [7.759, 2.193, 49.718], [0.052, 0.464, -0.884, 0.000], [0, 0, 0, 0], [ 9E9, 9E9, 9E9, 9E9, 9E9, 9E9] ], v1000, fine, pen\WObj:=platform;
    
    !!3.2857978534415997, -0.22749999999999826;
    MoveL [ [0.873, -22.234, 44.822], [0.227, -0.968, 0.106, 0.000], [0, 0, 0, 0], [ 9E9, 9E9, 9E9, 9E9, 9E9, 9E9] ], v1000, fine, pen\WObj:=platform;
    MoveL [ [3.286, -0.227, -0.010], [0.227, -0.968, 0.106, 0.000], [0, 0, 0, 0], [ 9E9, 9E9, 9E9, 9E9, 9E9, 9E9] ], v30, fine, pen\WObj:=platform;
    MoveL [ [0.873, -22.234, 44.822], [0.227, -0.968, 0.106, 0.000], [0, 0, 0, 0], [ 9E9, 9E9, 9E9, 9E9, 9E9, 9E9] ], v1000, fine, pen\WObj:=platform;
    
    !!3.420897816431973, -0.22749999999999826;
    MoveL [ [3.267, -25.773, 42.972], [0.265, -0.964, 0.006, 0.000], [0, 0, 0, 0], [ 9E9, 9E9, 9E9, 9E9, 9E9, 9E9] ], v1000, fine, pen\WObj:=platform;
    MoveL [ [3.421, -0.227, -0.010], [0.265, -0.964, 0.006, 0.000], [0, 0, 0, 0], [ 9E9, 9E9, 9E9, 9E9, 9E9, 9E9] ], v30, fine, pen\WObj:=platform;
    MoveL [ [3.267, -25.773, 42.972], [0.265, -0.964, 0.006, 0.000], [0, 0, 0, 0], [ 9E9, 9E9, 9E9, 9E9, 9E9, 9E9] ], v1000, fine, pen\WObj:=platform;
    
    !!3.5559977794223445, -0.22749999999999826;
    MoveL [ [-1.231, -19.501, 45.877], [0.203, -0.950, 0.236, 0.000], [0, 0, 0, 0], [ 9E9, 9E9, 9E9, 9E9, 9E9, 9E9] ], v1000, fine, pen\WObj:=platform;
    MoveL [ [3.556, -0.227, -0.010], [0.203, -0.950, 0.236, 0.000], [0, 0, 0, 0], [ 9E9, 9E9, 9E9, 9E9, 9E9, 9E9] ], v30, fine, pen\WObj:=platform;
    MoveL [ [-1.231, -19.501, 45.877], [0.203, -0.950, 0.236, 0.000], [0, 0, 0, 0], [ 9E9, 9E9, 9E9, 9E9, 9E9, 9E9] ], v1000, fine, pen\WObj:=platform;
    
    !!3.691097742412718, -0.22749999999999826;
    MoveL [ [0.928, -22.299, 44.770], [0.228, -0.966, 0.121, 0.000], [0, 0, 0, 0], [ 9E9, 9E9, 9E9, 9E9, 9E9, 9E9] ], v1000, fine, pen\WObj:=platform;
    MoveL [ [3.691, -0.227, -0.010], [0.228, -0.966, 0.121, 0.000], [0, 0, 0, 0], [ 9E9, 9E9, 9E9, 9E9, 9E9, 9E9] ], v30, fine, pen\WObj:=platform;
    MoveL [ [0.928, -22.299, 44.770], [0.228, -0.966, 0.121, 0.000], [0, 0, 0, 0], [ 9E9, 9E9, 9E9, 9E9, 9E9, 9E9] ], v1000, fine, pen\WObj:=platform;
    
    !!3.8261977054030893, -0.22749999999999826;
    MoveL [ [0.946, -22.320, 44.752], [0.229, -0.965, 0.126, 0.000], [0, 0, 0, 0], [ 9E9, 9E9, 9E9, 9E9, 9E9, 9E9] ], v1000, fine, pen\WObj:=platform;
