MODULE MainModule
  PERS wobjdata platform := [ FALSE, TRUE, "", [ [800, 0, 600], [1, 0, 0 ,0] ], [ [0, 0, 0], [1, 0, 0 ,0] ] ];
  PERS tooldata pen := [ TRUE, [[0, 0, 100], [1, 0, 0 ,0]], [0.8,[0, 0, 30], [1, 0, 0, 0], 0, 0, 0]];
  PROC main()
    ConfL\Off;
    ConfJ\Off;
    SingArea\Wrist;
    !!-0.1688749537379655, -0.7800000000000001;
    MoveL [ [3.642, 0.242, 49.834], [0.039, 0.259, -0.965, 0.000], [0, 0, 0, 0], [ 9E9, 9E9, 9E9, 9E9, 9E9, 9E9] ], v1000, fine, pen\WObj:=platform;
    MoveL [ [-0.169, -0.780, -0.010], [0.039, 0.259, -0.965, 0.000], [0, 0, 0, 0], [ 9E9, 9E9, 9E9, 9E9, 9E9, 9E9] ], v30, fine, pen\WObj:=platform;
    MoveL [ [3.642, 0.242, 49.834], [0.039, 0.259, -0.965, 0.000], [0, 0, 0, 0], [ 9E9, 9E9, 9E9, 9E9, 9E9, 9E9] ], v1000, fine, pen\WObj:=platform;
    
    !!-0.225166604983954, -0.6825000000000001;
    MoveL [ [3.795, -3.381, 49.755], [0.048, -0.557, -0.829, 0.000], [0, 0, 0, 0], [ 9E9, 9E9, 9E9, 9E9, 9E9, 9E9] ], v1000, fine, pen\WObj:=platform;
    MoveL [ [-0.225, -0.683, -0.010], [0.048, -0.557, -0.829, 0.000], [0, 0, 0, 0], [ 9E9, 9E9, 9E9, 9E9, 9E9, 9E9] ], v30, fine, pen\WObj:=platform;
    MoveL [ [3.795, -3.381, 49.755], [0.048, -0.557, -0.829, 0.000], [0, 0, 0, 0], [ 9E9, 9E9, 9E9, 9E9, 9E9, 9E9] ], v1000, fine, pen\WObj:=platform;
    
    !!-0.28145825622994247, -0.5850000000000001;
    MoveL [ [2.796, -12.500, 48.452], [0.124, -0.961, -0.248, 0.000], [0, 0, 0, 0], [ 9E9, 9E9, 9E9, 9E9, 9E9, 9E9] ], v1000, fine, pen\WObj:=platform;
    MoveL [ [-0.281, -0.585, -0.010], [0.124, -0.961, -0.248, 0.000], [0, 0, 0, 0], [ 9E9, 9E9, 9E9, 9E9, 9E9, 9E9] ], v30, fine, pen\WObj:=platform;
    MoveL [ [2.796, -12.500, 48.452], [0.124, -0.961, -0.248, 0.000], [0, 0, 0, 0], [ 9E9, 9E9, 9E9, 9E9, 9E9, 9E9] ], v1000, fine, pen\WObj:=platform;
    
    !!-0.3377499074759311, -0.48750000000000004;
    MoveL [ [4.106, 1.958, 49.732], [0.051, 0.481, -0.875, 0.000], [0, 0, 0, 0], [ 9E9, 9E9, 9E9, 9E9, 9E9, 9E9] ], v1000, fine, pen\WObj:=platform;
    MoveL [ [-0.338, -0.488, -0.010], [0.051, 0.481, -0.875, 0.000], [0, 0, 0, 0], [ 9E9, 9E9, 9E9, 9E9, 9E9, 9E9] ], v30, fine, pen\WObj:=platform;
    MoveL [ [4.106, 1.958, 49.732], [0.051, 0.481, -0.875, 0.000], [0, 0, 0, 0], [ 9E9, 9E9, 9E9, 9E9, 9E9, 9E9] ], v1000, fine, pen\WObj:=platform;
    
    !!-0.3940415587219195, -0.39000000000000007;
    MoveL [ [3.075, 10.054, 48.764], [0.111, 0.943, -0.313, 0.000], [0, 0, 0, 0], [ 9E9, 9E9, 9E9, 9E9, 9E9, 9E9] ], v1000, fine, pen\WObj:=platform;
    MoveL [ [-0.394, -0.390, -0.010], [0.111, 0.943, -0.313, 0.000], [0, 0, 0, 0], [ 9E9, 9E9, 9E9, 9E9, 9E9, 9E9] ], v30, fine, pen\WObj:=platform;
    MoveL [ [3.075, 10.054, 48.764], [0.111, 0.943, -0.313, 0.000], [0, 0, 0, 0], [ 9E9, 9E9, 9E9, 9E9, 9E9, 9E9] ], v1000, fine, pen\WObj:=platform;
    
    !!-0.4503332099679081, -0.2925000000000001;
    MoveL [ [4.176, -8.174, 49.148], [0.092, -0.859, -0.504, 0.000], [0, 0, 0, 0], [ 9E9, 9E9, 9E9, 9E9, 9E9, 9E9] ], v1000, fine, pen\WObj:=platform;
    MoveL [ [-0.450, -0.293, -0.010], [0.092, -0.859, -0.504, 0.000], [0, 0, 0, 0], [ 9E9, 9E9, 9E9, 9E9, 9E9, 9E9] ], v30, fine, pen\WObj:=platform;
    MoveL [ [4.176, -8.174, 49.148], [0.092, -0.859, -0.504, 0.000], [0, 0, 0, 0], [ 9E9, 9E9, 9E9, 9E9, 9E9, 9E9] ], v1000, fine, pen\WObj:=platform;
    
    !!-0.5066248612138966, -0.19500000000000003;
    MoveL [ [3.867, -11.374, 48.528], [0.121, -0.924, -0.362, 0.000], [0, 0, 0, 0], [ 9E9, 9E9, 9E9, 9E9, 9E9, 9E9] ], v1000, fine, pen\WObj:=platform;
    MoveL [ [-0.507, -0.195, -0.010], [0.121, -0.924, -0.362, 0.000], [0, 0, 0, 0], [ 9E9, 9E9, 9E9, 9E9, 9E9, 9E9] ], v30, fine, pen\WObj:=platform;
    MoveL [ [3.867, -11.374, 48.528], [0.121, -0.924, -0.362, 0.000], [0, 0, 0, 0], [ 9E9, 9E9, 9E9, 9E9, 9E9, 9E9] ], v1000, fine, pen\WObj:=platform;
    
    !!-0.11258330249197714, -0.8775000000000001;
    MoveL [ [3.262, -5.597, 49.652], [0.058, -0.812, -0.581, 0.000], [0, 0, 0, 0], [ 9E9, 9E9, 9E9, 9E9, 9E9, 9E9] ], v1000, fine, pen\WObj:=platform;
    MoveL [ [-0.113, -0.878, -0.010], [0.058, -0.812, -0.581, 0.000], [0, 0, 0, 0], [ 9E9, 9E9, 9E9, 9E9, 9E9, 9E9] ], v30, fine, pen\WObj:=platform;
    MoveL [ [3.262, -5.597, 49.652], [0.058, -0.812, -0.581, 0.000], [0, 0, 0, 0], [ 9E9, 9E9, 9E9, 9E9, 9E9, 9E9] ], v1000, fine, pen\WObj:=platform;
    
    !!-0.0562916512459885, -0.9750000000000001;
    MoveL [ [3.105, -5.157, 49.714], [0.052, -0.797, -0.602, 0.000], [0, 0, 0, 0], [ 9E9, 9E9, 9E9, 9E9, 9E9, 9E9] ], v1000, fine, pen\WObj:=platform;
    MoveL [ [-0.056, -0.975, -0.010], [0.052, -0.797, -0.602, 0.000], [0, 0, 0, 0], [ 9E9, 9E9, 9E9, 9E9, 9E9, 9E9] ], v30, fine, pen\WObj:=platform;
    MoveL [ [3.105, -5.157, 49.714], [0.052, -0.797, -0.602, 0.000], [0, 0, 0, 0], [ 9E9, 9E9, 9E9, 9E9, 9E9, 9E9] ], v1000, fine, pen\WObj:=platform;
    
    !!0, -1.0725;
    MoveL [ [1.929, 10.501, 48.594], [0.118, 0.979, -0.163, 0.000], [0, 0, 0, 0], [ 9E9, 9E9, 9E9, 9E9, 9E9, 9E9] ], v1000, fine, pen\WObj:=platform;
    MoveL [ [0.000, -1.073, -0.010], [0.118, 0.979, -0.163, 0.000], [0, 0, 0, 0], [ 9E9, 9E9, 9E9, 9E9, 9E9, 9E9] ], v30, fine, pen\WObj:=platform;
    MoveL [ [1.929, 10.501, 48.594], [0.118, 0.979, -0.163, 0.000], [0, 0, 0, 0], [ 9E9, 9E9, 9E9, 9E9, 9E9, 9E9] ], v1000, fine, pen\WObj:=platform;
    
    !!0.0562916512459885, -1.1700000000000002;
    MoveL [ [1.450, -12.891, 48.577], [0.119, -0.986, -0.117, 0.000], [0, 0, 0, 0], [ 9E9, 9E9, 9E9, 9E9, 9E9, 9E9] ], v1000, fine, pen\WObj:=platform;
    MoveL [ [0.056, -1.170, -0.010], [0.119, -0.986, -0.117, 0.000], [0, 0, 0, 0], [ 9E9, 9E9, 9E9, 9E9, 9E9, 9E9] ], v30, fine, pen\WObj:=platform;
    MoveL [ [1.450, -12.891, 48.577], [0.119, -0.986, -0.117, 0.000], [0, 0, 0, 0], [ 9E9, 9E9, 9E9, 9E9, 9E9, 9E9] ], v1000, fine, pen\WObj:=platform;
    
    !!0.112583302491977, -1.2675000000000003;
    MoveL [ [1.985, 8.646, 48.962], [0.101, 0.978, -0.185, 0.000], [0, 0, 0, 0], [ 9E9, 9E9, 9E9, 9E9, 9E9, 9E9] ], v1000, fine, pen\WObj:=platform;
    MoveL [ [0.113, -1.268, -0.010], [0.101, 0.978, -0.185, 0.000], [0, 0, 0, 0], [ 9E9, 9E9, 9E9, 9E9, 9E9, 9E9] ], v30, fine, pen\WObj:=platform;
    MoveL [ [1.985, 8.646, 48.962], [0.101, 0.978, -0.185, 0.000], [0, 0, 0, 0], [ 9E9, 9E9, 9E9, 9E9, 9E9, 9E9] ], v1000, fine, pen\WObj:=platform;
    
    !!0.1688749537379655, -1.3650000000000002;
    MoveL [ [1.755, 9.089, 48.859], [0.106, 0.983, -0.149, 0.000], [0, 0, 0, 0], [ 9E9, 9E9, 9E9, 9E9, 9E9, 9E9] ], v1000, fine, pen\WObj:=platform;
    MoveL [ [0.169, -1.365, -0.010], [0.106, 0.983, -0.149, 0.000], [0, 0, 0, 0], [ 9E9, 9E9, 9E9, 9E9, 9E9, 9E9] ], v30, fine, pen\WObj:=platform;
    MoveL [ [1.755, 9.089, 48.859], [0.106, 0.983, -0.149, 0.000], [0, 0, 0, 0], [ 9E9, 9E9, 9E9, 9E9, 9E9, 9E9] ], v1000, fine, pen\WObj:=platform;
    
    !!0.225166604983954, -1.4625;
    MoveL [ [2.298, -2.926, 49.926], [0.025, -0.576, -0.817, 0.000], [0, 0, 0, 0], [ 9E9, 9E9, 9E9, 9E9, 9E9, 9E9] ], v1000, fine, pen\WObj:=platform;
    MoveL [ [0.225, -1.462, -0.010], [0.025, -0.576, -0.817, 0.000], [0, 0, 0, 0], [ 9E9, 9E9, 9E9, 9E9, 9E9, 9E9] ], v30, fine, pen\WObj:=platform;
    MoveL [ [2.298, -2.926, 49.926], [0.025, -0.576, -0.817, 0.000], [0, 0, 0, 0], [ 9E9, 9E9, 9E9, 9E9, 9E9, 9E9] ], v1000, fine, pen\WObj:=platform;
    
    !!0.28145825622994247, -1.56;
    MoveL [ [2.133, -2.474, 49.947], [0.021, -0.443, -0.896, 0.000], [0, 0, 0, 0], [ 9E9, 9E9, 9E9, 9E9, 9E9, 9E9] ], v1000, fine, pen\WObj:=platform;
    MoveL [ [0.281, -1.560, -0.010], [0.021, -0.443, -0.896, 0.000], [0, 0, 0, 0], [ 9E9, 9E9, 9E9, 9E9, 9E9, 9E9] ], v30, fine, pen\WObj:=platform;
    MoveL [ [2.133, -2.474, 49.947], [0.021, -0.443, -0.896, 0.000], [0, 0, 0, 0], [ 9E9, 9E9, 9E9, 9E9, 9E9, 9E9] ], v1000, fine, pen\WObj:=platform;
    
    !!0.337749907475931, -1.6575000000000002;
    MoveL [ [1.743, -5.217, 49.843], [0.038, -0.929, -0.367, 0.000], [0, 0, 0, 0], [ 9E9, 9E9, 9E9, 9E9, 9E9, 9E9] ], v1000, fine, pen\WObj:=platform;
    MoveL [ [0.338, -1.658, -0.010], [0.038, -0.929, -0.367, 0.000], [0, 0, 0, 0], [ 9E9, 9E9, 9E9, 9E9, 9E9, 9E9] ], v30, fine, pen\WObj:=platform;
    MoveL [ [1.743, -5.217, 49.843], [0.038, -0.929, -0.367, 0.000], [0, 0, 0, 0], [ 9E9, 9E9, 9E9, 9E9, 9E9, 9E9] ], v1000, fine, pen\WObj:=platform;
    
    !!-0.28145825622994247, -0.7800000000000001;
    MoveL [ [2.911, -11.699, 48.679], [0.115, -0.954, -0.279, 0.000], [0, 0, 0, 0], [ 9E9, 9E9, 9E9, 9E9, 9E9, 9E9] ], v1000, fine, pen\WObj:=platform;
    MoveL [ [-0.281, -0.780, -0.010], [0.115, -0.954, -0.279, 0.000], [0, 0, 0, 0], [ 9E9, 9E9, 9E9, 9E9, 9E9, 9E9] ], v30, fine, pen\WObj:=platform;
    MoveL [ [2.911, -11.699, 48.679], [0.115, -0.954, -0.279, 0.000], [0, 0, 0, 0], [ 9E9, 9E9, 9E9, 9E9, 9E9, 9E9] ], v1000, fine, pen\WObj:=platform;
    
    !!-0.3377499074759311, -0.6825000000000001;
    MoveL [ [3.037, -12.070, 48.559], [0.120, -0.952, -0.282, 0.000], [0, 0, 0, 0], [ 9E9, 9E9, 9E9, 9E9, 9E9, 9E9] ], v1000, fine, pen\WObj:=platform;
    MoveL [ [-0.338, -0.683, -0.010], [0.120, -0.952, -0.282, 0.000], [0, 0, 0, 0], [ 9E9, 9E9, 9E9, 9E9, 9E9, 9E9] ], v30, fine, pen\WObj:=platform;
    MoveL [ [3.037, -12.070, 48.559], [0.120, -0.952, -0.282, 0.000], [0, 0, 0, 0], [ 9E9, 9E9, 9E9, 9E9, 9E9, 9E9] ], v1000, fine, pen\WObj:=platform;
    
    !!-0.3940415587219195, -0.5850000000000001;
    MoveL [ [4.091, -6.866, 49.391], [0.077, -0.811, -0.579, 0.000], [0, 0, 0, 0], [ 9E9, 9E9, 9E9, 9E9, 9E9, 9E9] ], v1000, fine, pen\WObj:=platform;
    MoveL [ [-0.394, -0.585, -0.010], [0.077, -0.811, -0.579, 0.000], [0, 0, 0, 0], [ 9E9, 9E9, 9E9, 9E9, 9E9, 9E9] ], v30, fine, pen\WObj:=platform;
    MoveL [ [4.091, -6.866, 49.391], [0.077, -0.811, -0.579, 0.000], [0, 0, 0, 0], [ 9E9, 9E9, 9E9, 9E9, 9E9, 9E9] ], v1000, fine, pen\WObj:=platform;
    
    !!-0.4503332099679081, -0.48750000000000004;
    MoveL [ [3.193, 10.412, 48.651], [0.116, 0.942, -0.315, 0.000], [0, 0, 0, 0], [ 9E9, 9E9, 9E9, 9E9, 9E9, 9E9] ], v1000, fine, pen\WObj:=platform;
    MoveL [ [-0.450, -0.488, -0.010], [0.116, 0.942, -0.315, 0.000], [0, 0, 0, 0], [ 9E9, 9E9, 9E9, 9E9, 9E9, 9E9] ], v30, fine, pen\WObj:=platform;
    MoveL [ [3.193, 10.412, 48.651], [0.116, 0.942, -0.315, 0.000], [0, 0, 0, 0], [ 9E9, 9E9, 9E9, 9E9, 9E9, 9E9] ], v1000, fine, pen\WObj:=platform;
    
    !!-0.5066248612138966, -0.39000000000000007;
    MoveL [ [4.391, -7.717, 49.207], [0.088, -0.828, -0.554, 0.000], [0, 0, 0, 0], [ 9E9, 9E9, 9E9, 9E9, 9E9, 9E9] ], v1000, fine, pen\WObj:=platform;
    MoveL [ [-0.507, -0.390, -0.010], [0.088, -0.828, -0.554, 0.000], [0, 0, 0, 0], [ 9E9, 9E9, 9E9, 9E9, 9E9, 9E9] ], v30, fine, pen\WObj:=platform;
    MoveL [ [4.391, -7.717, 49.207], [0.088, -0.828, -0.554, 0.000], [0, 0, 0, 0], [ 9E9, 9E9, 9E9, 9E9, 9E9, 9E9] ], v1000, fine, pen\WObj:=platform;
    
    !!-0.5629165124598852, -0.2925000000000001;
    MoveL [ [4.096, -10.936, 48.621], [0.117, -0.910, -0.398, 0.000], [0, 0, 0, 0], [ 9E9, 9E9, 9E9, 9E9, 9E9, 9E9] ], v1000, fine, pen\WObj:=platform;
    MoveL [ [-0.563, -0.293, -0.010], [0.117, -0.910, -0.398, 0.000], [0, 0, 0, 0], [ 9E9, 9E9, 9E9, 9E9, 9E9, 9E9] ], v30, fine, pen\WObj:=platform;
    MoveL [ [4.096, -10.936, 48.621], [0.117, -0.910, -0.398, 0.000], [0, 0, 0, 0], [ 9E9, 9E9, 9E9, 9E9, 9E9, 9E9] ], v1000, fine, pen\WObj:=platform;
    
    !!-0.225166604983954, -0.8775000000000001;
    MoveL [ [3.631, -5.566, 49.620], [0.061, -0.771, -0.634, 0.000], [0, 0, 0, 0], [ 9E9, 9E9, 9E9, 9E9, 9E9, 9E9] ], v1000, fine, pen\WObj:=platform;
    MoveL [ [-0.225, -0.878, -0.010], [0.061, -0.771, -0.634, 0.000], [0, 0, 0, 0], [ 9E9, 9E9, 9E9, 9E9, 9E9, 9E9] ], v30, fine, pen\WObj:=platform;
    MoveL [ [3.631, -5.566, 49.620], [0.061, -0.771, -0.634, 0.000], [0, 0, 0, 0], [ 9E9, 9E9, 9E9, 9E9, 9E9, 9E9] ], v1000, fine, pen\WObj:=platform;
    
    !!-0.1688749537379655, -0.9750000000000001;
    MoveL [ [3.475, -5.127, 49.684], [0.055, -0.750, -0.659, 0.000], [0, 0, 0, 0], [ 9E9, 9E9, 9E9, 9E9, 9E9, 9E9] ], v1000, fine, pen\WObj:=platform;
    MoveL [ [-0.169, -0.975, -0.010], [0.055, -0.750, -0.659, 0.000], [0, 0, 0, 0], [ 9E9, 9E9, 9E9, 9E9, 9E9, 9E9] ], v30, fine, pen\WObj:=platform;
    MoveL [ [3.475, -5.127, 49.684], [0.055, -0.750, -0.659, 0.000], [0, 0, 0, 0], [ 9E9, 9E9, 9E9, 9E9, 9E9, 9E9] ], v1000, fine, pen\WObj:=platform;
    
    !!-0.11258330249197714, -1.0725;
    MoveL [ [2.299, 10.440, 48.587], [0.118, 0.972, -0.204, 0.000], [0, 0, 0, 0], [ 9E9, 9E9, 9E9, 9E9, 9E9, 9E9] ], v1000, fine, pen\WObj:=platform;
    MoveL [ [-0.113, -1.073, -0.010], [0.118, 0.972, -0.204, 0.000], [0, 0, 0, 0], [ 9E9, 9E9, 9E9, 9E9, 9E9, 9E9] ], v30, fine, pen\WObj:=platform;
    MoveL [ [2.299, 10.440, 48.587], [0.118, 0.972, -0.204, 0.000], [0, 0, 0, 0], [ 9E9, 9E9, 9E9, 9E9, 9E9, 9E9] ], v1000, fine, pen\WObj:=platform;
    
    !!-0.0562916512459885, -1.1700000000000002;
    MoveL [ [1.824, -12.819, 48.578], [0.119, -0.980, -0.158, 0.000], [0, 0, 0, 0], [ 9E9, 9E9, 9E9, 9E9, 9E9, 9E9] ], v1000, fine, pen\WObj:=platform;
    MoveL [ [-0.056, -1.170, -0.010], [0.119, -0.980, -0.158, 0.000], [0, 0, 0, 0], [ 9E9, 9E9, 9E9, 9E9, 9E9, 9E9] ], v30, fine, pen\WObj:=platform;
    MoveL [ [1.824, -12.819, 48.578], [0.119, -0.980, -0.158, 0.000], [0, 0, 0, 0], [ 9E9, 9E9, 9E9, 9E9, 9E9, 9E9] ], v1000, fine, pen\WObj:=platform;
    
    !!0, -1.2675000000000003;
    MoveL [ [2.357, 8.598, 48.950], [0.102, 0.968, -0.231, 0.000], [0, 0, 0, 0], [ 9E9, 9E9, 9E9, 9E9, 9E9, 9E9] ], v1000, fine, pen\WObj:=platform;
    MoveL [ [0.000, -1.268, -0.010], [0.102, 0.968, -0.231, 0.000], [0, 0, 0, 0], [ 9E9, 9E9, 9E9, 9E9, 9E9, 9E9] ], v30, fine, pen\WObj:=platform;
    MoveL [ [2.357, 8.598, 48.950], [0.102, 0.968, -0.231, 0.000], [0, 0, 0, 0], [ 9E9, 9E9, 9E9, 9E9, 9E9, 9E9] ], v1000, fine, pen\WObj:=platform;
    
    !!0.0562916512459885, -1.3650000000000002;
    MoveL [ [2.126, 9.042, 48.851], [0.107, 0.975, -0.194, 0.000], [0, 0, 0, 0], [ 9E9, 9E9, 9E9, 9E9, 9E9, 9E9] ], v1000, fine, pen\WObj:=platform;
    MoveL [ [0.056, -1.365, -0.010], [0.107, 0.975, -0.194, 0.000], [0, 0, 0, 0], [ 9E9, 9E9, 9E9, 9E9, 9E9, 9E9] ], v30, fine, pen\WObj:=platform;
    MoveL [ [2.126, 9.042, 48.851], [0.107, 0.975, -0.194, 0.000], [0, 0, 0, 0], [ 9E9, 9E9, 9E9, 9E9, 9E9, 9E9] ], v1000, fine, pen\WObj:=platform;
    
    !!0.112583302491977, -1.4625;
    MoveL [ [2.673, -2.900, 49.904], [0.029, -0.489, -0.872, 0.000], [0, 0, 0, 0], [ 9E9, 9E9, 9E9, 9E9, 9E9, 9E9] ], v1000, fine, pen\WObj:=platform;
    MoveL [ [0.113, -1.462, -0.010], [0.029, -0.489, -0.872, 0.000], [0, 0, 0, 0], [ 9E9, 9E9, 9E9, 9E9, 9E9, 9E9] ], v30, fine, pen\WObj:=platform;
    MoveL [ [2.673, -2.900, 49.904], [0.029, -0.489, -0.872, 0.000], [0, 0, 0, 0], [ 9E9, 9E9, 9E9, 9E9, 9E9, 9E9] ], v1000, fine, pen\WObj:=platform;
    
    !!0.1688749537379655, -1.56;
    MoveL [ [2.508, -2.449, 49.927], [0.025, -0.355, -0.935, 0.000], [0, 0, 0, 0], [ 9E9, 9E9, 9E9, 9E9, 9E9, 9E9] ], v1000, fine, pen\WObj:=platform;
    MoveL [ [0.169, -1.560, -0.010], [0.025, -0.355, -0.935, 0.000], [0, 0, 0, 0], [ 9E9, 9E9, 9E9, 9E9, 9E9, 9E9] ], v30, fine, pen\WObj:=platform;
    MoveL [ [2.508, -2.449, 49.927], [0.025, -0.355, -0.935, 0.000], [0, 0, 0, 0], [ 9E9, 9E9, 9E9, 9E9, 9E9, 9E9] ], v1000, fine, pen\WObj:=platform;
    
    !!0.225166604983954, -1.6575000000000002;
    MoveL [ [2.121, -5.174, 49.830], [0.040, -0.880, -0.474, 0.000], [0, 0, 0, 0], [ 9E9, 9E9, 9E9, 9E9, 9E9, 9E9] ], v1000, fine, pen\WObj:=platform;
    MoveL [ [0.225, -1.658, -0.010], [0.040, -0.880, -0.474, 0.000], [0, 0, 0, 0], [ 9E9, 9E9, 9E9, 9E9, 9E9, 9E9] ], v30, fine, pen\WObj:=platform;
    MoveL [ [2.121, -5.174, 49.830], [0.040, -0.880, -0.474, 0.000], [0, 0, 0, 0], [ 9E9, 9E9, 9E9, 9E9, 9E9, 9E9] ], v1000, fine, pen\WObj:=platform;
    
    !!-0.3940415587219195, -0.7800000000000001;
    MoveL [ [4.152, -5.970, 49.512], [0.069, -0.750, -0.657, 0.000], [0, 0, 0, 0], [ 9E9, 9E9, 9E9, 9E9, 9E9, 9E9] ], v1000, fine, pen\WObj:=platform;
    MoveL [ [-0.394, -0.780, -0.010], [0.069, -0.750, -0.657, 0.000], [0, 0, 0, 0], [ 9E9, 9E9, 9E9, 9E9, 9E9, 9E9] ], v30, fine, pen\WObj:=platform;
    MoveL [ [4.152, -5.970, 49.512], [0.069, -0.750, -0.657, 0.000], [0, 0, 0, 0], [ 9E9, 9E9, 9E9, 9E9, 9E9, 9E9] ], v1000, fine, pen\WObj:=platform;
    
    !!-0.4503332099679081, -0.6825000000000001;
    MoveL [ [4.304, -6.403, 49.434], [0.075, -0.767, -0.637, 0.000], [0, 0, 0, 0], [ 9E9, 9E9, 9E9, 9E9, 9E9, 9E9] ], v1000, fine, pen\WObj:=platform;
    MoveL [ [-0.450, -0.683, -0.010], [0.075, -0.767, -0.637, 0.000], [0, 0, 0, 0], [ 9E9, 9E9, 9E9, 9E9, 9E9, 9E9] ], v30, fine, pen\WObj:=platform;
    MoveL [ [4.304, -6.403, 49.434], [0.075, -0.767, -0.637, 0.000], [0, 0, 0, 0], [ 9E9, 9E9, 9E9, 9E9, 9E9, 9E9] ], v1000, fine, pen\WObj:=platform;
    
    !!-0.5066248612138966, -0.5850000000000001;
    MoveL [ [4.455, -6.832, 49.349], [0.080, -0.781, -0.620, 0.000], [0, 0, 0, 0], [ 9E9, 9E9, 9E9, 9E9, 9E9, 9E9] ], v1000, fine, pen\WObj:=platform;
    MoveL [ [-0.507, -0.585, -0.010], [0.080, -0.781, -0.620, 0.000], [0, 0, 0, 0], [ 9E9, 9E9, 9E9, 9E9, 9E9, 9E9] ], v30, fine, pen\WObj:=platform;
    MoveL [ [4.455, -6.832, 49.349], [0.080, -0.781, -0.620, 0.000], [0, 0, 0, 0], [ 9E9, 9E9, 9E9, 9E9, 9E9, 9E9] ], v1000, fine, pen\WObj:=platform;
    
    !!-0.5629165124598852, -0.48750000000000004;
    MoveL [ [4.605, -7.259, 49.259], [0.085, -0.792, -0.604, 0.000], [0, 0, 0, 0], [ 9E9, 9E9, 9E9, 9E9, 9E9, 9E9] ], v1000, fine, pen\WObj:=platform;
    MoveL [ [-0.563, -0.488, -0.010], [0.085, -0.792, -0.604, 0.000], [0, 0, 0, 0], [ 9E9, 9E9, 9E9, 9E9, 9E9, 9E9] ], v30, fine, pen\WObj:=platform;
    MoveL [ [4.605, -7.259, 49.259], [0.085, -0.792, -0.604, 0.000], [0, 0, 0, 0], [ 9E9, 9E9, 9E9, 9E9, 9E9, 9E9] ], v1000, fine, pen\WObj:=platform;
    
    !!-0.6192081637058736, -0.39000000000000007;
    MoveL [ [4.753, -7.682, 49.163], [0.091, -0.802, -0.591, 0.000], [0, 0, 0, 0], [ 9E9, 9E9, 9E9, 9E9, 9E9, 9E9] ], v1000, fine, pen\WObj:=platform;
    MoveL [ [-0.619, -0.390, -0.010], [0.091, -0.802, -0.591, 0.000], [0, 0, 0, 0], [ 9E9, 9E9, 9E9, 9E9, 9E9, 9E9] ], v30, fine, pen\WObj:=platform;
    MoveL [ [4.753, -7.682, 49.163], [0.091, -0.802, -0.591, 0.000], [0, 0, 0, 0], [ 9E9, 9E9, 9E9, 9E9, 9E9, 9E9] ], v1000, fine, pen\WObj:=platform;
    
    !!-0.6754998149518622, -0.2925000000000001;
    MoveL [ [4.458, -10.883, 48.585], [0.119, -0.894, -0.433, 0.000], [0, 0, 0, 0], [ 9E9, 9E9, 9E9, 9E9, 9E9, 9E9] ], v1000, fine, pen\WObj:=platform;
    MoveL [ [-0.675, -0.293, -0.010], [0.119, -0.894, -0.433, 0.000], [0, 0, 0, 0], [ 9E9, 9E9, 9E9, 9E9, 9E9, 9E9] ], v30, fine, pen\WObj:=platform;
    MoveL [ [4.458, -10.883, 48.585], [0.119, -0.894, -0.433, 0.000], [0, 0, 0, 0], [ 9E9, 9E9, 9E9, 9E9, 9E9, 9E9] ], v1000, fine, pen\WObj:=platform;
    
    !!-0.3377499074759311, -0.8775000000000001;
    MoveL [ [3.998, -5.535, 49.583], [0.064, -0.730, -0.680, 0.000], [0, 0, 0, 0], [ 9E9, 9E9, 9E9, 9E9, 9E9, 9E9] ], v1000, fine, pen\WObj:=platform;
    MoveL [ [-0.338, -0.878, -0.010], [0.064, -0.730, -0.680, 0.000], [0, 0, 0, 0], [ 9E9, 9E9, 9E9, 9E9, 9E9, 9E9] ], v30, fine, pen\WObj:=platform;
    MoveL [ [3.998, -5.535, 49.583], [0.064, -0.730, -0.680, 0.000], [0, 0, 0, 0], [ 9E9, 9E9, 9E9, 9E9, 9E9, 9E9] ], v1000, fine, pen\WObj:=platform;
    
    !!-0.28145825622994264, -0.9750000000000001;
    MoveL [ [3.843, -5.097, 49.649], [0.058, -0.706, -0.706, 0.000], [0, 0, 0, 0], [ 9E9, 9E9, 9E9, 9E9, 9E9, 9E9] ], v1000, fine, pen\WObj:=platform;
    MoveL [ [-0.281, -0.975, -0.010], [0.058, -0.706, -0.706, 0.000], [0, 0, 0, 0], [ 9E9, 9E9, 9E9, 9E9, 9E9, 9E9] ], v30, fine, pen\WObj:=platform;
    MoveL [ [3.843, -5.097, 49.649], [0.058, -0.706, -0.706, 0.000], [0, 0, 0, 0], [ 9E9, 9E9, 9E9, 9E9, 9E9, 9E9] ], v1000, fine, pen\WObj:=platform;
    
    !!-0.225166604983954, -1.0725;
    MoveL [ [2.669, 10.378, 48.575], [0.119, 0.963, -0.243, 0.000], [0, 0, 0, 0], [ 9E9, 9E9, 9E9, 9E9, 9E9, 9E9] ], v1000, fine, pen\WObj:=platform;
    MoveL [ [-0.225, -1.073, -0.010], [0.119, 0.963, -0.243, 0.000], [0, 0, 0, 0], [ 9E9, 9E9, 9E9, 9E9, 9E9, 9E9] ], v30, fine, pen\WObj:=platform;
    MoveL [ [2.669, 10.378, 48.575], [0.119, 0.963, -0.243, 0.000], [0, 0, 0, 0], [ 9E9, 9E9, 9E9, 9E9, 9E9, 9E9] ], v1000, fine, pen\WObj:=platform;
    
    !!-0.1688749537379655, -1.1700000000000002;
    MoveL [ [2.197, -12.746, 48.574], [0.119, -0.973, -0.199, 0.000], [0, 0, 0, 0], [ 9E9, 9E9, 9E9, 9E9, 9E9, 9E9] ], v1000, fine, pen\WObj:=platform;
    MoveL [ [-0.169, -1.170, -0.010], [0.119, -0.973, -0.199, 0.000], [0, 0, 0, 0], [ 9E9, 9E9, 9E9, 9E9, 9E9, 9E9] ], v30, fine, pen\WObj:=platform;
    MoveL [ [2.197, -12.746, 48.574], [0.119, -0.973, -0.199, 0.000], [0, 0, 0, 0], [ 9E9, 9E9, 9E9, 9E9, 9E9, 9E9] ], v1000, fine, pen\WObj:=platform;
    
    !!-0.11258330249197714, -1.2675000000000003;
    MoveL [ [1.561, 13.660, 47.680], [0.152, 0.982, -0.110, 0.000], [0, 0, 0, 0], [ 9E9, 9E9, 9E9, 9E9, 9E9, 9E9] ], v1000, fine, pen\WObj:=platform;
    MoveL [ [-0.113, -1.268, -0.010], [0.152, 0.982, -0.110, 0.000], [0, 0, 0, 0], [ 9E9, 9E9, 9E9, 9E9, 9E9, 9E9] ], v30, fine, pen\WObj:=platform;
    MoveL [ [1.561, 13.660, 47.680], [0.152, 0.982, -0.110, 0.000], [0, 0, 0, 0], [ 9E9, 9E9, 9E9, 9E9, 9E9, 9E9] ], v1000, fine, pen\WObj:=platform;
    
    !!-0.056291651245988644, -1.3650000000000002;
    MoveL [ [2.496, 8.993, 48.839], [0.107, 0.965, -0.238, 0.000], [0, 0, 0, 0], [ 9E9, 9E9, 9E9, 9E9, 9E9, 9E9] ], v1000, fine, pen\WObj:=platform;
    MoveL [ [-0.056, -1.365, -0.010], [0.107, 0.965, -0.238, 0.000], [0, 0, 0, 0], [ 9E9, 9E9, 9E9, 9E9, 9E9, 9E9] ], v30, fine, pen\WObj:=platform;
    MoveL [ [2.496, 8.993, 48.839], [0.107, 0.965, -0.238, 0.000], [0, 0, 0, 0], [ 9E9, 9E9, 9E9, 9E9, 9E9, 9E9] ], v1000, fine, pen\WObj:=platform;
    
    !!0, -1.4625;
    MoveL [ [3.046, -2.873, 49.877], [0.034, -0.420, -0.907, 0.000], [0, 0, 0, 0], [ 9E9, 9E9, 9E9, 9E9, 9E9, 9E9] ], v1000, fine, pen\WObj:=platform;
    MoveL [ [0.000, -1.462, -0.010], [0.034, -0.420, -0.907, 0.000], [0, 0, 0, 0], [ 9E9, 9E9, 9E9, 9E9, 9E9, 9E9] ], v30, fine, pen\WObj:=platform;
    MoveL [ [3.046, -2.873, 49.877], [0.034, -0.420, -0.907, 0.000], [0, 0, 0, 0], [ 9E9, 9E9, 9E9, 9E9, 9E9, 9E9] ], v1000, fine, pen\WObj:=platform;
    
    !!0.0562916512459885, -1.56;
    MoveL [ [2.882, -2.423, 49.903], [0.030, -0.292, -0.956, 0.000], [0, 0, 0, 0], [ 9E9, 9E9, 9E9, 9E9, 9E9, 9E9] ], v1000, fine, pen\WObj:=platform;
    MoveL [ [0.056, -1.560, -0.010], [0.030, -0.292, -0.956, 0.000], [0, 0, 0, 0], [ 9E9, 9E9, 9E9, 9E9, 9E9, 9E9] ], v30, fine, pen\WObj:=platform;
    MoveL [ [2.882, -2.423, 49.903], [0.030, -0.292, -0.956, 0.000], [0, 0, 0, 0], [ 9E9, 9E9, 9E9, 9E9, 9E9, 9E9] ], v1000, fine, pen\WObj:=platform;
    
    !!0.112583302491977, -1.6575000000000002;
    MoveL [ [2.497, -5.130, 49.812], [0.042, -0.824, -0.566, 0.000], [0, 0, 0, 0], [ 9E9, 9E9, 9E9, 9E9, 9E9, 9E9] ], v1000, fine, pen\WObj:=platform;
    MoveL [ [0.113, -1.658, -0.010], [0.042, -0.824, -0.566, 0.000], [0, 0, 0, 0], [ 9E9, 9E9, 9E9, 9E9, 9E9, 9E9] ], v30, fine, pen\WObj:=platform;
    MoveL [ [2.497, -5.130, 49.812], [0.042, -0.824, -0.566, 0.000], [0, 0, 0, 0], [ 9E9, 9E9, 9E9, 9E9, 9E9, 9E9] ], v1000, fine, pen\WObj:=platform;
    
    !!0.1688749537379655, -1.7550000000000001;
    MoveL [ [2.348, -4.698, 49.856], [0.037, -0.803, -0.595, 0.000], [0, 0, 0, 0], [ 9E9, 9E9, 9E9, 9E9, 9E9, 9E9] ], v1000, fine, pen\WObj:=platform;
    MoveL [ [0.169, -1.755, -0.010], [0.037, -0.803, -0.595, 0.000], [0, 0, 0, 0], [ 9E9, 9E9, 9E9, 9E9, 9E9, 9E9] ], v30, fine, pen\WObj:=platform;
    MoveL [ [2.348, -4.698, 49.856], [0.037, -0.803, -0.595, 0.000], [0, 0, 0, 0], [ 9E9, 9E9, 9E9, 9E9, 9E9, 9E9] ], v1000, fine, pen\WObj:=platform;
    
    !!-0.5066248612138966, -0.7800000000000001;
    MoveL [ [4.516, -5.938, 49.469], [0.072, -0.715, -0.696, 0.000], [0, 0, 0, 0], [ 9E9, 9E9, 9E9, 9E9, 9E9, 9E9] ], v1000, fine, pen\WObj:=platform;
    MoveL [ [-0.507, -0.780, -0.010], [0.072, -0.715, -0.696, 0.000], [0, 0, 0, 0], [ 9E9, 9E9, 9E9, 9E9, 9E9, 9E9] ], v30, fine, pen\WObj:=platform;
    MoveL [ [4.516, -5.938, 49.469], [0.072, -0.715, -0.696, 0.000], [0, 0, 0, 0], [ 9E9, 9E9, 9E9, 9E9, 9E9, 9E9] ], v1000, fine, pen\WObj:=platform;
    
    !!-0.5629165124598852, -0.6825000000000001;
    MoveL [ [4.667, -6.370, 49.389], [0.077, -0.734, -0.675, 0.000], [0, 0, 0, 0], [ 9E9, 9E9, 9E9, 9E9, 9E9, 9E9] ], v1000, fine, pen\WObj:=platform;
    MoveL [ [-0.563, -0.683, -0.010], [0.077, -0.734, -0.675, 0.000], [0, 0, 0, 0], [ 9E9, 9E9, 9E9, 9E9, 9E9, 9E9] ], v30, fine, pen\WObj:=platform;
    MoveL [ [4.667, -6.370, 49.389], [0.077, -0.734, -0.675, 0.000], [0, 0, 0, 0], [ 9E9, 9E9, 9E9, 9E9, 9E9, 9E9] ], v1000, fine, pen\WObj:=platform;
    
    !!-0.6192081637058736, -0.5850000000000001;
    MoveL [ [4.817, -6.798, 49.304], [0.083, -0.750, -0.656, 0.000], [0, 0, 0, 0], [ 9E9, 9E9, 9E9, 9E9, 9E9, 9E9] ], v1000, fine, pen\WObj:=platform;
    MoveL [ [-0.619, -0.585, -0.010], [0.083, -0.750, -0.656, 0.000], [0, 0, 0, 0], [ 9E9, 9E9, 9E9, 9E9, 9E9, 9E9] ], v30, fine, pen\WObj:=platform;
    MoveL [ [4.817, -6.798, 49.304], [0.083, -0.750, -0.656, 0.000], [0, 0, 0, 0], [ 9E9, 9E9, 9E9, 9E9, 9E9, 9E9] ], v1000, fine, pen\WObj:=platform;
    
    !!-0.6754998149518622, -0.48750000000000004;
    MoveL [ [4.553, -10.050, 48.788], [0.110, -0.872, -0.477, 0.000], [0, 0, 0, 0], [ 9E9, 9E9, 9E9, 9E9, 9E9, 9E9] ], v1000, fine, pen\WObj:=platform;
    MoveL [ [-0.675, -0.488, -0.010], [0.110, -0.872, -0.477, 0.000], [0, 0, 0, 0], [ 9E9, 9E9, 9E9, 9E9, 9E9, 9E9] ], v30, fine, pen\WObj:=platform;
    MoveL [ [4.553, -10.050, 48.788], [0.110, -0.872, -0.477, 0.000], [0, 0, 0, 0], [ 9E9, 9E9, 9E9, 9E9, 9E9, 9E9] ], v1000, fine, pen\WObj:=platform;
    
    !!-0.7317914661978506, -0.39000000000000007;
    MoveL [ [4.686, -10.442, 48.669], [0.115, -0.874, -0.471, 0.000], [0, 0, 0, 0], [ 9E9, 9E9, 9E9, 9E9, 9E9, 9E9] ], v1000, fine, pen\WObj:=platform;
    MoveL [ [-0.732, -0.390, -0.010], [0.115, -0.874, -0.471, 0.000], [0, 0, 0, 0], [ 9E9, 9E9, 9E9, 9E9, 9E9, 9E9] ], v30, fine, pen\WObj:=platform;
    MoveL [ [4.686, -10.442, 48.669], [0.115, -0.874, -0.471, 0.000], [0, 0, 0, 0], [ 9E9, 9E9, 9E9, 9E9, 9E9, 9E9] ], v1000, fine, pen\WObj:=platform;
    
    !!-0.4503332099679081, -0.8775000000000001;
    MoveL [ [4.364, -5.504, 49.542], [0.067, -0.691, -0.719, 0.000], [0, 0, 0, 0], [ 9E9, 9E9, 9E9, 9E9, 9E9, 9E9] ], v1000, fine, pen\WObj:=platform;
    MoveL [ [-0.450, -0.878, -0.010], [0.067, -0.691, -0.719, 0.000], [0, 0, 0, 0], [ 9E9, 9E9, 9E9, 9E9, 9E9, 9E9] ], v30, fine, pen\WObj:=platform;
    MoveL [ [4.364, -5.504, 49.542], [0.067, -0.691, -0.719, 0.000], [0, 0, 0, 0], [ 9E9, 9E9, 9E9, 9E9, 9E9, 9E9] ], v1000, fine, pen\WObj:=platform;
    
    !!-0.3940415587219195, -0.9750000000000001;
    MoveL [ [4.209, -5.066, 49.609], [0.062, -0.663, -0.746, 0.000], [0, 0, 0, 0], [ 9E9, 9E9, 9E9, 9E9, 9E9, 9E9] ], v1000, fine, pen\WObj:=platform;
    MoveL [ [-0.394, -0.975, -0.010], [0.062, -0.663, -0.746, 0.000], [0, 0, 0, 0], [ 9E9, 9E9, 9E9, 9E9, 9E9, 9E9] ], v30, fine, pen\WObj:=platform;
    MoveL [ [4.209, -5.066, 49.609], [0.062, -0.663, -0.746, 0.000], [0, 0, 0, 0], [ 9E9, 9E9, 9E9, 9E9, 9E9, 9E9] ], v1000, fine, pen\WObj:=platform;
    
    !!-0.3377499074759311, -1.0725;
    MoveL [ [2.688, -13.023, 48.446], [0.124, -0.962, -0.244, 0.000], [0, 0, 0, 0], [ 9E9, 9E9, 9E9, 9E9, 9E9, 9E9] ], v1000, fine, pen\WObj:=platform;
    MoveL [ [-0.338, -1.073, -0.010], [0.124, -0.962, -0.244, 0.000], [0, 0, 0, 0], [ 9E9, 9E9, 9E9, 9E9, 9E9, 9E9] ], v30, fine, pen\WObj:=platform;
    MoveL [ [2.688, -13.023, 48.446], [0.124, -0.962, -0.244, 0.000], [0, 0, 0, 0], [ 9E9, 9E9, 9E9, 9E9, 9E9, 9E9] ], v1000, fine, pen\WObj:=platform;
    
    !!-0.28145825622994247, -1.1700000000000002;
    MoveL [ [2.569, -12.672, 48.565], [0.119, -0.964, -0.239, 0.000], [0, 0, 0, 0], [ 9E9, 9E9, 9E9, 9E9, 9E9, 9E9] ], v1000, fine, pen\WObj:=platform;
    MoveL [ [-0.281, -1.170, -0.010], [0.119, -0.964, -0.239, 0.000], [0, 0, 0, 0], [ 9E9, 9E9, 9E9, 9E9, 9E9, 9E9] ], v30, fine, pen\WObj:=platform;
    MoveL [ [2.569, -12.672, 48.565], [0.119, -0.964, -0.239, 0.000], [0, 0, 0, 0], [ 9E9, 9E9, 9E9, 9E9, 9E9, 9E9] ], v1000, fine, pen\WObj:=platform;
    
    !!-0.225166604983954, -1.2675000000000003;
    MoveL [ [1.929, 13.590, 47.683], [0.152, 0.978, -0.142, 0.000], [0, 0, 0, 0], [ 9E9, 9E9, 9E9, 9E9, 9E9, 9E9] ], v1000, fine, pen\WObj:=platform;
    MoveL [ [-0.225, -1.268, -0.010], [0.152, 0.978, -0.142, 0.000], [0, 0, 0, 0], [ 9E9, 9E9, 9E9, 9E9, 9E9, 9E9] ], v30, fine, pen\WObj:=platform;
    MoveL [ [1.929, 13.590, 47.683], [0.152, 0.978, -0.142, 0.000], [0, 0, 0, 0], [ 9E9, 9E9, 9E9, 9E9, 9E9, 9E9] ], v1000, fine, pen\WObj:=platform;
    
    !!-0.1688749537379655, -1.3650000000000002;
    MoveL [ [2.865, 8.944, 48.821], [0.108, 0.954, -0.281, 0.000], [0, 0, 0, 0], [ 9E9, 9E9, 9E9, 9E9, 9E9, 9E9] ], v1000, fine, pen\WObj:=platform;
    MoveL [ [-0.169, -1.365, -0.010], [0.108, 0.954, -0.281, 0.000], [0, 0, 0, 0], [ 9E9, 9E9, 9E9, 9E9, 9E9, 9E9] ], v30, fine, pen\WObj:=platform;
    MoveL [ [2.865, 8.944, 48.821], [0.108, 0.954, -0.281, 0.000], [0, 0, 0, 0], [ 9E9, 9E9, 9E9, 9E9, 9E9, 9E9] ], v1000, fine, pen\WObj:=platform;
    
    !!-0.11258330249197686, -1.4625;
    MoveL [ [3.417, -2.847, 49.846], [0.038, -0.365, -0.930, 0.000], [0, 0, 0, 0], [ 9E9, 9E9, 9E9, 9E9, 9E9, 9E9] ], v1000, fine, pen\WObj:=platform;
    MoveL [ [-0.113, -1.462, -0.010], [0.038, -0.365, -0.930, 0.000], [0, 0, 0, 0], [ 9E9, 9E9, 9E9, 9E9, 9E9, 9E9] ], v30, fine, pen\WObj:=platform;
    MoveL [ [3.417, -2.847, 49.846], [0.038, -0.365, -0.930, 0.000], [0, 0, 0, 0], [ 9E9, 9E9, 9E9, 9E9, 9E9, 9E9] ], v1000, fine, pen\WObj:=platform;
    
    !!-0.0562916512459885, -1.56;
    MoveL [ [3.255, -2.398, 49.873], [0.034, -0.245, -0.969, 0.000], [0, 0, 0, 0], [ 9E9, 9E9, 9E9, 9E9, 9E9, 9E9] ], v1000, fine, pen\WObj:=platform;
    MoveL [ [-0.056, -1.560, -0.010], [0.034, -0.245, -0.969, 0.000], [0, 0, 0, 0], [ 9E9, 9E9, 9E9, 9E9, 9E9, 9E9] ], v30, fine, pen\WObj:=platform;
    MoveL [ [3.255, -2.398, 49.873], [0.034, -0.245, -0.969, 0.000], [0, 0, 0, 0], [ 9E9, 9E9, 9E9, 9E9, 9E9, 9E9] ], v1000, fine, pen\WObj:=platform;
    
    !!0, -1.6575000000000002;
    MoveL [ [2.872, -5.086, 49.790], [0.045, -0.766, -0.641, 0.000], [0, 0, 0, 0], [ 9E9, 9E9, 9E9, 9E9, 9E9, 9E9] ], v1000, fine, pen\WObj:=platform;
    MoveL [ [0.000, -1.658, -0.010], [0.045, -0.766, -0.641, 0.000], [0, 0, 0, 0], [ 9E9, 9E9, 9E9, 9E9, 9E9, 9E9] ], v30, fine, pen\WObj:=platform;
    MoveL [ [2.872, -5.086, 49.790], [0.045, -0.766, -0.641, 0.000], [0, 0, 0, 0], [ 9E9, 9E9, 9E9, 9E9, 9E9, 9E9] ], v1000, fine, pen\WObj:=platform;
    
    !!0.0562916512459885, -1.7550000000000001;
    MoveL [ [2.724, -4.654, 49.835], [0.039, -0.735, -0.677, 0.000], [0, 0, 0, 0], [ 9E9, 9E9, 9E9, 9E9, 9E9, 9E9] ], v1000, fine, pen\WObj:=platform;
    MoveL [ [0.056, -1.755, -0.010], [0.039, -0.735, -0.677, 0.000], [0, 0, 0, 0], [ 9E9, 9E9, 9E9, 9E9, 9E9, 9E9] ], v30, fine, pen\WObj:=platform;
    MoveL [ [2.724, -4.654, 49.835], [0.039, -0.735, -0.677, 0.000], [0, 0, 0, 0], [ 9E9, 9E9, 9E9, 9E9, 9E9, 9E9] ], v1000, fine, pen\WObj:=platform;
    
    !!-0.6192081637058736, -0.7800000000000001;
    MoveL [ [4.879, -5.905, 49.422], [0.075, -0.680, -0.729, 0.000], [0, 0, 0, 0], [ 9E9, 9E9, 9E9, 9E9, 9E9, 9E9] ], v1000, fine, pen\WObj:=platform;
    MoveL [ [-0.619, -0.780, -0.010], [0.075, -0.680, -0.729, 0.000], [0, 0, 0, 0], [ 9E9, 9E9, 9E9, 9E9, 9E9, 9E9] ], v30, fine, pen\WObj:=platform;
    MoveL [ [4.879, -5.905, 49.422], [0.075, -0.680, -0.729, 0.000], [0, 0, 0, 0], [ 9E9, 9E9, 9E9, 9E9, 9E9, 9E9] ], v1000, fine, pen\WObj:=platform;
    
    !!-0.6754998149518621, -0.6825000000000001;
    MoveL [ [5.029, -6.336, 49.341], [0.081, -0.702, -0.708, 0.000], [0, 0, 0, 0], [ 9E9, 9E9, 9E9, 9E9, 9E9, 9E9] ], v1000, fine, pen\WObj:=platform;
    MoveL [ [-0.675, -0.683, -0.010], [0.081, -0.702, -0.708, 0.000], [0, 0, 0, 0], [ 9E9, 9E9, 9E9, 9E9, 9E9, 9E9] ], v30, fine, pen\WObj:=platform;
    MoveL [ [5.029, -6.336, 49.341], [0.081, -0.702, -0.708, 0.000], [0, 0, 0, 0], [ 9E9, 9E9, 9E9, 9E9, 9E9, 9E9] ], v1000, fine, pen\WObj:=platform;
    
    !!-0.7317914661978506, -0.5850000000000001;
    MoveL [ [5.178, -6.764, 49.254], [0.086, -0.720, -0.689, 0.000], [0, 0, 0, 0], [ 9E9, 9E9, 9E9, 9E9, 9E9, 9E9] ], v1000, fine, pen\WObj:=platform;
    MoveL [ [-0.732, -0.585, -0.010], [0.086, -0.720, -0.689, 0.000], [0, 0, 0, 0], [ 9E9, 9E9, 9E9, 9E9, 9E9, 9E9] ], v30, fine, pen\WObj:=platform;
    MoveL [ [5.178, -6.764, 49.254], [0.086, -0.720, -0.689, 0.000], [0, 0, 0, 0], [ 9E9, 9E9, 9E9, 9E9, 9E9, 9E9] ], v1000, fine, pen\WObj:=platform;
    
    !!-0.7880831174438391, -0.48750000000000004;
    MoveL [ [4.914, -9.997, 48.745], [0.112, -0.852, -0.511, 0.000], [0, 0, 0, 0], [ 9E9, 9E9, 9E9, 9E9, 9E9, 9E9] ], v1000, fine, pen\WObj:=platform;
    MoveL [ [-0.788, -0.488, -0.010], [0.112, -0.852, -0.511, 0.000], [0, 0, 0, 0], [ 9E9, 9E9, 9E9, 9E9, 9E9, 9E9] ], v30, fine, pen\WObj:=platform;
    MoveL [ [4.914, -9.997, 48.745], [0.112, -0.852, -0.511, 0.000], [0, 0, 0, 0], [ 9E9, 9E9, 9E9, 9E9, 9E9, 9E9] ], v1000, fine, pen\WObj:=platform;
    
    !!-0.5629165124598852, -0.8775000000000001;
    MoveL [ [4.727, -5.472, 49.497], [0.070, -0.654, -0.753, 0.000], [0, 0, 0, 0], [ 9E9, 9E9, 9E9, 9E9, 9E9, 9E9] ], v1000, fine, pen\WObj:=platform;
    MoveL [ [-0.563, -0.878, -0.010], [0.070, -0.654, -0.753, 0.000], [0, 0, 0, 0], [ 9E9, 9E9, 9E9, 9E9, 9E9, 9E9] ], v30, fine, pen\WObj:=platform;
    MoveL [ [4.727, -5.472, 49.497], [0.070, -0.654, -0.753, 0.000], [0, 0, 0, 0], [ 9E9, 9E9, 9E9, 9E9, 9E9, 9E9] ], v1000, fine, pen\WObj:=platform;
    
    !!-0.5066248612138966, -0.9750000000000001;
    MoveL [ [4.574, -5.036, 49.565], [0.065, -0.623, -0.779, 0.000], [0, 0, 0, 0], [ 9E9, 9E9, 9E9, 9E9, 9E9, 9E9] ], v1000, fine, pen\WObj:=platform;
    MoveL [ [-0.507, -0.975, -0.010], [0.065, -0.623, -0.779, 0.000], [0, 0, 0, 0], [ 9E9, 9E9, 9E9, 9E9, 9E9, 9E9] ], v30, fine, pen\WObj:=platform;
    MoveL [ [4.574, -5.036, 49.565], [0.065, -0.623, -0.779, 0.000], [0, 0, 0, 0], [ 9E9, 9E9, 9E9, 9E9, 9E9, 9E9] ], v1000, fine, pen\WObj:=platform;
    
    !!-0.4503332099679081, -1.0725;
    MoveL [ [4.419, -4.597, 49.627], [0.060, -0.585, -0.809, 0.000], [0, 0, 0, 0], [ 9E9, 9E9, 9E9, 9E9, 9E9, 9E9] ], v1000, fine, pen\WObj:=platform;
    MoveL [ [-0.450, -1.073, -0.010], [0.060, -0.585, -0.809, 0.000], [0, 0, 0, 0], [ 9E9, 9E9, 9E9, 9E9, 9E9, 9E9] ], v30, fine, pen\WObj:=platform;
    MoveL [ [4.419, -4.597, 49.627], [0.060, -0.585, -0.809, 0.000], [0, 0, 0, 0], [ 9E9, 9E9, 9E9, 9E9, 9E9, 9E9] ], v1000, fine, pen\WObj:=platform;
    
    !!-0.3940415587219195, -1.1700000000000002;
    MoveL [ [2.543, 13.117, 47.815], [0.147, 0.969, -0.199, 0.000], [0, 0, 0, 0], [ 9E9, 9E9, 9E9, 9E9, 9E9, 9E9] ], v1000, fine, pen\WObj:=platform;
    MoveL [ [-0.394, -1.170, -0.010], [0.147, 0.969, -0.199, 0.000], [0, 0, 0, 0], [ 9E9, 9E9, 9E9, 9E9, 9E9, 9E9] ], v30, fine, pen\WObj:=platform;
    MoveL [ [2.543, 13.117, 47.815], [0.147, 0.969, -0.199, 0.000], [0, 0, 0, 0], [ 9E9, 9E9, 9E9, 9E9, 9E9, 9E9] ], v1000, fine, pen\WObj:=platform;
    
    !!-0.3377499074759311, -1.2675000000000003;
    MoveL [ [2.296, 13.519, 47.681], [0.152, 0.973, -0.173, 0.000], [0, 0, 0, 0], [ 9E9, 9E9, 9E9, 9E9, 9E9, 9E9] ], v1000, fine, pen\WObj:=platform;
    MoveL [ [-0.338, -1.268, -0.010], [0.152, 0.973, -0.173, 0.000], [0, 0, 0, 0], [ 9E9, 9E9, 9E9, 9E9, 9E9, 9E9] ], v30, fine, pen\WObj:=platform;
    MoveL [ [2.296, 13.519, 47.681], [0.152, 0.973, -0.173, 0.000], [0, 0, 0, 0], [ 9E9, 9E9, 9E9, 9E9, 9E9, 9E9] ], v1000, fine, pen\WObj:=platform;
    
    !!-0.28145825622994247, -1.3650000000000002;
    MoveL [ [2.049, 13.915, 47.541], [0.156, 0.976, -0.149, 0.000], [0, 0, 0, 0], [ 9E9, 9E9, 9E9, 9E9, 9E9, 9E9] ], v1000, fine, pen\WObj:=platform;
    MoveL [ [-0.281, -1.365, -0.010], [0.156, 0.976, -0.149, 0.000], [0, 0, 0, 0], [ 9E9, 9E9, 9E9, 9E9, 9E9, 9E9] ], v30, fine, pen\WObj:=platform;
    MoveL [ [2.049, 13.915, 47.541], [0.156, 0.976, -0.149, 0.000], [0, 0, 0, 0], [ 9E9, 9E9, 9E9, 9E9, 9E9, 9E9] ], v1000, fine, pen\WObj:=platform;
    
    !!-0.225166604983954, -1.4625;
    MoveL [ [3.787, -2.821, 49.810], [0.042, -0.320, -0.946, 0.000], [0, 0, 0, 0], [ 9E9, 9E9, 9E9, 9E9, 9E9, 9E9] ], v1000, fine, pen\WObj:=platform;
    MoveL [ [-0.225, -1.462, -0.010], [0.042, -0.320, -0.946, 0.000], [0, 0, 0, 0], [ 9E9, 9E9, 9E9, 9E9, 9E9, 9E9] ], v30, fine, pen\WObj:=platform;
    MoveL [ [3.787, -2.821, 49.810], [0.042, -0.320, -0.946, 0.000], [0, 0, 0, 0], [ 9E9, 9E9, 9E9, 9E9, 9E9, 9E9] ], v1000, fine, pen\WObj:=platform;
    
    !!-0.1688749537379655, -1.56;
    MoveL [ [3.625, -2.372, 49.839], [0.039, -0.209, -0.977, 0.000], [0, 0, 0, 0], [ 9E9, 9E9, 9E9, 9E9, 9E9, 9E9] ], v1000, fine, pen\WObj:=platform;
    MoveL [ [-0.169, -1.560, -0.010], [0.039, -0.209, -0.977, 0.000], [0, 0, 0, 0], [ 9E9, 9E9, 9E9, 9E9, 9E9, 9E9] ], v30, fine, pen\WObj:=platform;
    MoveL [ [3.625, -2.372, 49.839], [0.039, -0.209, -0.977, 0.000], [0, 0, 0, 0], [ 9E9, 9E9, 9E9, 9E9, 9E9, 9E9] ], v1000, fine, pen\WObj:=platform;
    
    !!-0.11258330249197686, -1.6575000000000002;
    MoveL [ [3.245, -5.041, 49.762], [0.048, -0.709, -0.703, 0.000], [0, 0, 0, 0], [ 9E9, 9E9, 9E9, 9E9, 9E9, 9E9] ], v1000, fine, pen\WObj:=platform;
    MoveL [ [-0.113, -1.658, -0.010], [0.048, -0.709, -0.703, 0.000], [0, 0, 0, 0], [ 9E9, 9E9, 9E9, 9E9, 9E9, 9E9] ], v30, fine, pen\WObj:=platform;
    MoveL [ [3.245, -5.041, 49.762], [0.048, -0.709, -0.703, 0.000], [0, 0, 0, 0], [ 9E9, 9E9, 9E9, 9E9, 9E9, 9E9] ], v1000, fine, pen\WObj:=platform;
    
    !!-0.0562916512459885, -1.7550000000000001;
    MoveL [ [3.098, -4.611, 49.809], [0.043, -0.671, -0.741, 0.000], [0, 0, 0, 0], [ 9E9, 9E9, 9E9, 9E9, 9E9, 9E9] ], v1000, fine, pen\WObj:=platform;
    MoveL [ [-0.056, -1.755, -0.010], [0.043, -0.671, -0.741, 0.000], [0, 0, 0, 0], [ 9E9, 9E9, 9E9, 9E9, 9E9, 9E9] ], v30, fine, pen\WObj:=platform;
    MoveL [ [3.098, -4.611, 49.809], [0.043, -0.671, -0.741, 0.000], [0, 0, 0, 0], [ 9E9, 9E9, 9E9, 9E9, 9E9, 9E9] ], v1000, fine, pen\WObj:=platform;
    
    !!-0.7317914661978507, -0.7800000000000001;
    MoveL [ [5.239, -5.872, 49.370], [0.079, -0.647, -0.759, 0.000], [0, 0, 0, 0], [ 9E9, 9E9, 9E9, 9E9, 9E9, 9E9] ], v1000, fine, pen\WObj:=platform;
    MoveL [ [-0.732, -0.780, -0.010], [0.079, -0.647, -0.759, 0.000], [0, 0, 0, 0], [ 9E9, 9E9, 9E9, 9E9, 9E9, 9E9] ], v30, fine, pen\WObj:=platform;
    MoveL [ [5.239, -5.872, 49.370], [0.079, -0.647, -0.759, 0.000], [0, 0, 0, 0], [ 9E9, 9E9, 9E9, 9E9, 9E9, 9E9] ], v1000, fine, pen\WObj:=platform;
    
    !!-0.7880831174438392, -0.6825000000000001;
    MoveL [ [5.009, -9.152, 48.925], [0.103, -0.821, -0.562, 0.000], [0, 0, 0, 0], [ 9E9, 9E9, 9E9, 9E9, 9E9, 9E9] ], v1000, fine, pen\WObj:=platform;
    MoveL [ [-0.788, -0.683, -0.010], [0.103, -0.821, -0.562, 0.000], [0, 0, 0, 0], [ 9E9, 9E9, 9E9, 9E9, 9E9, 9E9] ], v30, fine, pen\WObj:=platform;
    MoveL [ [5.009, -9.152, 48.925], [0.103, -0.821, -0.562, 0.000], [0, 0, 0, 0], [ 9E9, 9E9, 9E9, 9E9, 9E9, 9E9] ], v1000, fine, pen\WObj:=platform;
    
    !!-0.8443747686898277, -0.5850000000000001;
    MoveL [ [5.141, -9.550, 48.814], [0.108, -0.827, -0.552, 0.000], [0, 0, 0, 0], [ 9E9, 9E9, 9E9, 9E9, 9E9, 9E9] ], v1000, fine, pen\WObj:=platform;
    MoveL [ [-0.844, -0.585, -0.010], [0.108, -0.827, -0.552, 0.000], [0, 0, 0, 0], [ 9E9, 9E9, 9E9, 9E9, 9E9, 9E9] ], v30, fine, pen\WObj:=platform;
    MoveL [ [5.141, -9.550, 48.814], [0.108, -0.827, -0.552, 0.000], [0, 0, 0, 0], [ 9E9, 9E9, 9E9, 9E9, 9E9, 9E9] ], v1000, fine, pen\WObj:=platform;
    
    !!-0.6754998149518622, -0.8775000000000001;
    MoveL [ [5.089, -5.440, 49.447], [0.074, -0.619, -0.782, 0.000], [0, 0, 0, 0], [ 9E9, 9E9, 9E9, 9E9, 9E9, 9E9] ], v1000, fine, pen\WObj:=platform;
    MoveL [ [-0.675, -0.878, -0.010], [0.074, -0.619, -0.782, 0.000], [0, 0, 0, 0], [ 9E9, 9E9, 9E9, 9E9, 9E9, 9E9] ], v30, fine, pen\WObj:=platform;
    MoveL [ [5.089, -5.440, 49.447], [0.074, -0.619, -0.782, 0.000], [0, 0, 0, 0], [ 9E9, 9E9, 9E9, 9E9, 9E9, 9E9] ], v1000, fine, pen\WObj:=platform;
    
    !!-0.6192081637058736, -0.9750000000000001;
    MoveL [ [4.937, -5.005, 49.517], [0.069, -0.586, -0.808, 0.000], [0, 0, 0, 0], [ 9E9, 9E9, 9E9, 9E9, 9E9, 9E9] ], v1000, fine, pen\WObj:=platform;
    MoveL [ [-0.619, -0.975, -0.010], [0.069, -0.586, -0.808, 0.000], [0, 0, 0, 0], [ 9E9, 9E9, 9E9, 9E9, 9E9, 9E9] ], v30, fine, pen\WObj:=platform;
    MoveL [ [4.937, -5.005, 49.517], [0.069, -0.586, -0.808, 0.000], [0, 0, 0, 0], [ 9E9, 9E9, 9E9, 9E9, 9E9, 9E9] ], v1000, fine, pen\WObj:=platform;
    
    !!-0.5629165124598853, -1.0725;
    MoveL [ [4.783, -4.567, 49.580], [0.064, -0.546, -0.835, 0.000], [0, 0, 0, 0], [ 9E9, 9E9, 9E9, 9E9, 9E9, 9E9] ], v1000, fine, pen\WObj:=platform;
    MoveL [ [-0.563, -1.073, -0.010], [0.064, -0.546, -0.835, 0.000], [0, 0, 0, 0], [ 9E9, 9E9, 9E9, 9E9, 9E9, 9E9] ], v30, fine, pen\WObj:=platform;
    MoveL [ [4.783, -4.567, 49.580], [0.064, -0.546, -0.835, 0.000], [0, 0, 0, 0], [ 9E9, 9E9, 9E9, 9E9, 9E9, 9E9] ], v1000, fine, pen\WObj:=platform;
    
    !!-0.5066248612138966, -1.1700000000000002;
    MoveL [ [4.628, -4.127, 49.638], [0.059, -0.498, -0.865, 0.000], [0, 0, 0, 0], [ 9E9, 9E9, 9E9, 9E9, 9E9, 9E9] ], v1000, fine, pen\WObj:=platform;
    MoveL [ [-0.507, -1.170, -0.010], [0.059, -0.498, -0.865, 0.000], [0, 0, 0, 0], [ 9E9, 9E9, 9E9, 9E9, 9E9, 9E9] ], v30, fine, pen\WObj:=platform;
    MoveL [ [4.628, -4.127, 49.638], [0.059, -0.498, -0.865, 0.000], [0, 0, 0, 0], [ 9E9, 9E9, 9E9, 9E9, 9E9, 9E9] ], v1000, fine, pen\WObj:=platform;
    
    !!-0.45033320996790827, -1.2675000000000003;
    MoveL [ [4.472, -3.684, 49.688], [0.055, -0.440, -0.896, 0.000], [0, 0, 0, 0], [ 9E9, 9E9, 9E9, 9E9, 9E9, 9E9] ], v1000, fine, pen\WObj:=platform;
    MoveL [ [-0.450, -1.268, -0.010], [0.055, -0.440, -0.896, 0.000], [0, 0, 0, 0], [ 9E9, 9E9, 9E9, 9E9, 9E9, 9E9] ], v30, fine, pen\WObj:=platform;
    MoveL [ [4.472, -3.684, 49.688], [0.055, -0.440, -0.896, 0.000], [0, 0, 0, 0], [ 9E9, 9E9, 9E9, 9E9, 9E9, 9E9] ], v1000, fine, pen\WObj:=platform;
    
    !!-0.3940415587219196, -1.3650000000000002;
    MoveL [ [4.314, -3.240, 49.733], [0.051, -0.370, -0.928, 0.000], [0, 0, 0, 0], [ 9E9, 9E9, 9E9, 9E9, 9E9, 9E9] ], v1000, fine, pen\WObj:=platform;
    MoveL [ [-0.394, -1.365, -0.010], [0.051, -0.370, -0.928, 0.000], [0, 0, 0, 0], [ 9E9, 9E9, 9E9, 9E9, 9E9, 9E9] ], v30, fine, pen\WObj:=platform;
    MoveL [ [4.314, -3.240, 49.733], [0.051, -0.370, -0.928, 0.000], [0, 0, 0, 0], [ 9E9, 9E9, 9E9, 9E9, 9E9, 9E9] ], v1000, fine, pen\WObj:=platform;
    
    !!-0.3377499074759311, -1.4625;
    MoveL [ [4.154, -2.794, 49.770], [0.047, -0.284, -0.958, 0.000], [0, 0, 0, 0], [ 9E9, 9E9, 9E9, 9E9, 9E9, 9E9] ], v1000, fine, pen\WObj:=platform;
    MoveL [ [-0.338, -1.462, -0.010], [0.047, -0.284, -0.958, 0.000], [0, 0, 0, 0], [ 9E9, 9E9, 9E9, 9E9, 9E9, 9E9] ], v30, fine, pen\WObj:=platform;
    MoveL [ [4.154, -2.794, 49.770], [0.047, -0.284, -0.958, 0.000], [0, 0, 0, 0], [ 9E9, 9E9, 9E9, 9E9, 9E9, 9E9] ], v1000, fine, pen\WObj:=platform;
    
    !!-0.28145825622994264, -1.56;
    MoveL [ [3.993, -2.347, 49.801], [0.044, -0.181, -0.983, 0.000], [0, 0, 0, 0], [ 9E9, 9E9, 9E9, 9E9, 9E9, 9E9] ], v1000, fine, pen\WObj:=platform;
    MoveL [ [-0.281, -1.560, -0.010], [0.044, -0.181, -0.983, 0.000], [0, 0, 0, 0], [ 9E9, 9E9, 9E9, 9E9, 9E9, 9E9] ], v30, fine, pen\WObj:=platform;
    MoveL [ [3.993, -2.347, 49.801], [0.044, -0.181, -0.983, 0.000], [0, 0, 0, 0], [ 9E9, 9E9, 9E9, 9E9, 9E9, 9E9] ], v1000, fine, pen\WObj:=platform;
    
    !!-0.22516660498395427, -1.6575000000000002;
    MoveL [ [3.616, -4.997, 49.730], [0.051, -0.655, -0.754, 0.000], [0, 0, 0, 0], [ 9E9, 9E9, 9E9, 9E9, 9E9, 9E9] ], v1000, fine, pen\WObj:=platform;
    MoveL [ [-0.225, -1.658, -0.010], [0.051, -0.655, -0.754, 0.000], [0, 0, 0, 0], [ 9E9, 9E9, 9E9, 9E9, 9E9, 9E9] ], v30, fine, pen\WObj:=platform;
    MoveL [ [3.616, -4.997, 49.730], [0.051, -0.655, -0.754, 0.000], [0, 0, 0, 0], [ 9E9, 9E9, 9E9, 9E9, 9E9, 9E9] ], v1000, fine, pen\WObj:=platform;
    
    !!-0.1688749537379655, -1.7550000000000001;
    MoveL [ [3.470, -4.567, 49.778], [0.046, -0.611, -0.790, 0.000], [0, 0, 0, 0], [ 9E9, 9E9, 9E9, 9E9, 9E9, 9E9] ], v1000, fine, pen\WObj:=platform;
    MoveL [ [-0.169, -1.755, -0.010], [0.046, -0.611, -0.790, 0.000], [0, 0, 0, 0], [ 9E9, 9E9, 9E9, 9E9, 9E9, 9E9] ], v30, fine, pen\WObj:=platform;
    MoveL [ [3.470, -4.567, 49.778], [0.046, -0.611, -0.790, 0.000], [0, 0, 0, 0], [ 9E9, 9E9, 9E9, 9E9, 9E9, 9E9] ], v1000, fine, pen\WObj:=platform;
    
    !!-0.8443747686898277, -0.7800000000000001;
    MoveL [ [5.235, -8.699, 48.983], [0.100, -0.789, -0.606, 0.000], [0, 0, 0, 0], [ 9E9, 9E9, 9E9, 9E9, 9E9, 9E9] ], v1000, fine, pen\WObj:=platform;
    MoveL [ [-0.844, -0.780, -0.010], [0.100, -0.789, -0.606, 0.000], [0, 0, 0, 0], [ 9E9, 9E9, 9E9, 9E9, 9E9, 9E9] ], v30, fine, pen\WObj:=platform;
    MoveL [ [5.235, -8.699, 48.983], [0.100, -0.789, -0.606, 0.000], [0, 0, 0, 0], [ 9E9, 9E9, 9E9, 9E9, 9E9, 9E9] ], v1000, fine, pen\WObj:=platform;
    
    !!-0.7880831174438392, -0.8775000000000001;
    MoveL [ [5.101, -8.294, 49.085], [0.095, -0.780, -0.619, 0.000], [0, 0, 0, 0], [ 9E9, 9E9, 9E9, 9E9, 9E9, 9E9] ], v1000, fine, pen\WObj:=platform;
    MoveL [ [-0.788, -0.878, -0.010], [0.095, -0.780, -0.619, 0.000], [0, 0, 0, 0], [ 9E9, 9E9, 9E9, 9E9, 9E9, 9E9] ], v30, fine, pen\WObj:=platform;
    MoveL [ [5.101, -8.294, 49.085], [0.095, -0.780, -0.619, 0.000], [0, 0, 0, 0], [ 9E9, 9E9, 9E9, 9E9, 9E9, 9E9] ], v1000, fine, pen\WObj:=platform;
    
    !!-0.7317914661978506, -0.9750000000000001;
    MoveL [ [5.297, -4.973, 49.464], [0.073, -0.551, -0.831, 0.000], [0, 0, 0, 0], [ 9E9, 9E9, 9E9, 9E9, 9E9, 9E9] ], v1000, fine, pen\WObj:=platform;
    MoveL [ [-0.732, -0.975, -0.010], [0.073, -0.551, -0.831, 0.000], [0, 0, 0, 0], [ 9E9, 9E9, 9E9, 9E9, 9E9, 9E9] ], v30, fine, pen\WObj:=platform;
    MoveL [ [5.297, -4.973, 49.464], [0.073, -0.551, -0.831, 0.000], [0, 0, 0, 0], [ 9E9, 9E9, 9E9, 9E9, 9E9, 9E9] ], v1000, fine, pen\WObj:=platform;
    
    !!-0.6754998149518622, -1.0725;
    MoveL [ [5.145, -4.537, 49.529], [0.068, -0.510, -0.857, 0.000], [0, 0, 0, 0], [ 9E9, 9E9, 9E9, 9E9, 9E9, 9E9] ], v1000, fine, pen\WObj:=platform;
    MoveL [ [-0.675, -1.073, -0.010], [0.068, -0.510, -0.857, 0.000], [0, 0, 0, 0], [ 9E9, 9E9, 9E9, 9E9, 9E9, 9E9] ], v30, fine, pen\WObj:=platform;
    MoveL [ [5.145, -4.537, 49.529], [0.068, -0.510, -0.857, 0.000], [0, 0, 0, 0], [ 9E9, 9E9, 9E9, 9E9, 9E9, 9E9] ], v1000, fine, pen\WObj:=platform;
    
    !!-0.6192081637058736, -1.1700000000000002;
    MoveL [ [4.991, -4.097, 49.588], [0.063, -0.462, -0.885, 0.000], [0, 0, 0, 0], [ 9E9, 9E9, 9E9, 9E9, 9E9, 9E9] ], v1000, fine, pen\WObj:=platform;
    MoveL [ [-0.619, -1.170, -0.010], [0.063, -0.462, -0.885, 0.000], [0, 0, 0, 0], [ 9E9, 9E9, 9E9, 9E9, 9E9, 9E9] ], v30, fine, pen\WObj:=platform;
    MoveL [ [4.991, -4.097, 49.588], [0.063, -0.462, -0.885, 0.000], [0, 0, 0, 0], [ 9E9, 9E9, 9E9, 9E9, 9E9, 9E9] ], v1000, fine, pen\WObj:=platform;
    
    !!-0.5629165124598852, -1.2675000000000003;
    MoveL [ [4.835, -3.656, 49.640], [0.059, -0.404, -0.913, 0.000], [0, 0, 0, 0], [ 9E9, 9E9, 9E9, 9E9, 9E9, 9E9] ], v1000, fine, pen\WObj:=platform;
    MoveL [ [-0.563, -1.268, -0.010], [0.059, -0.404, -0.913, 0.000], [0, 0, 0, 0], [ 9E9, 9E9, 9E9, 9E9, 9E9, 9E9] ], v30, fine, pen\WObj:=platform;
    MoveL [ [4.835, -3.656, 49.640], [0.059, -0.404, -0.913, 0.000], [0, 0, 0, 0], [ 9E9, 9E9, 9E9, 9E9, 9E9, 9E9] ], v1000, fine, pen\WObj:=platform;
    
    !!-0.5066248612138966, -1.3650000000000002;
    MoveL [ [4.678, -3.213, 49.686], [0.055, -0.335, -0.941, 0.000], [0, 0, 0, 0], [ 9E9, 9E9, 9E9, 9E9, 9E9, 9E9] ], v1000, fine, pen\WObj:=platform;
    MoveL [ [-0.507, -1.365, -0.010], [0.055, -0.335, -0.941, 0.000], [0, 0, 0, 0], [ 9E9, 9E9, 9E9, 9E9, 9E9, 9E9] ], v30, fine, pen\WObj:=platform;
    MoveL [ [4.678, -3.213, 49.686], [0.055, -0.335, -0.941, 0.000], [0, 0, 0, 0], [ 9E9, 9E9, 9E9, 9E9, 9E9, 9E9] ], v1000, fine, pen\WObj:=platform;
    
    !!-0.4503332099679081, -1.4625;
    MoveL [ [4.520, -2.768, 49.725], [0.051, -0.254, -0.966, 0.000], [0, 0, 0, 0], [ 9E9, 9E9, 9E9, 9E9, 9E9, 9E9] ], v1000, fine, pen\WObj:=platform;
    MoveL [ [-0.450, -1.462, -0.010], [0.051, -0.254, -0.966, 0.000], [0, 0, 0, 0], [ 9E9, 9E9, 9E9, 9E9, 9E9, 9E9] ], v30, fine, pen\WObj:=platform;
    MoveL [ [4.520, -2.768, 49.725], [0.051, -0.254, -0.966, 0.000], [0, 0, 0, 0], [ 9E9, 9E9, 9E9, 9E9, 9E9, 9E9] ], v1000, fine, pen\WObj:=platform;
    
    !!-0.3940415587219195, -1.56;
    MoveL [ [4.129, -5.379, 49.638], [0.059, -0.644, -0.763, 0.000], [0, 0, 0, 0], [ 9E9, 9E9, 9E9, 9E9, 9E9, 9E9] ], v1000, fine, pen\WObj:=platform;
    MoveL [ [-0.394, -1.560, -0.010], [0.059, -0.644, -0.763, 0.000], [0, 0, 0, 0], [ 9E9, 9E9, 9E9, 9E9, 9E9, 9E9] ], v30, fine, pen\WObj:=platform;
    MoveL [ [4.129, -5.379, 49.638], [0.059, -0.644, -0.763, 0.000], [0, 0, 0, 0], [ 9E9, 9E9, 9E9, 9E9, 9E9, 9E9] ], v1000, fine, pen\WObj:=platform;
    
    !!-0.3377499074759311, -1.6575000000000002;
    MoveL [ [3.985, -4.952, 49.694], [0.054, -0.605, -0.794, 0.000], [0, 0, 0, 0], [ 9E9, 9E9, 9E9, 9E9, 9E9, 9E9] ], v1000, fine, pen\WObj:=platform;
    MoveL [ [-0.338, -1.658, -0.010], [0.054, -0.605, -0.794, 0.000], [0, 0, 0, 0], [ 9E9, 9E9, 9E9, 9E9, 9E9, 9E9] ], v30, fine, pen\WObj:=platform;
    MoveL [ [3.985, -4.952, 49.694], [0.054, -0.605, -0.794, 0.000], [0, 0, 0, 0], [ 9E9, 9E9, 9E9, 9E9, 9E9, 9E9] ], v1000, fine, pen\WObj:=platform;
    
    !!-0.9006664199358162, -0.8775000000000001;
    MoveL [ [5.461, -8.243, 49.034], [0.098, -0.753, -0.651, 0.000], [0, 0, 0, 0], [ 9E9, 9E9, 9E9, 9E9, 9E9, 9E9] ], v1000, fine, pen\WObj:=platform;
    MoveL [ [-0.901, -0.878, -0.010], [0.098, -0.753, -0.651, 0.000], [0, 0, 0, 0], [ 9E9, 9E9, 9E9, 9E9, 9E9, 9E9] ], v30, fine, pen\WObj:=platform;
    MoveL [ [5.461, -8.243, 49.034], [0.098, -0.753, -0.651, 0.000], [0, 0, 0, 0], [ 9E9, 9E9, 9E9, 9E9, 9E9, 9E9] ], v1000, fine, pen\WObj:=platform;
    
    !!-0.8443747686898275, -0.9750000000000001;
    MoveL [ [5.327, -7.836, 49.131], [0.093, -0.740, -0.666, 0.000], [0, 0, 0, 0], [ 9E9, 9E9, 9E9, 9E9, 9E9, 9E9] ], v1000, fine, pen\WObj:=platform;
    MoveL [ [-0.844, -0.975, -0.010], [0.093, -0.740, -0.666, 0.000], [0, 0, 0, 0], [ 9E9, 9E9, 9E9, 9E9, 9E9, 9E9] ], v30, fine, pen\WObj:=platform;
    MoveL [ [5.327, -7.836, 49.131], [0.093, -0.740, -0.666, 0.000], [0, 0, 0, 0], [ 9E9, 9E9, 9E9, 9E9, 9E9, 9E9] ], v1000, fine, pen\WObj:=platform;
    
    !!-0.7880831174438392, -1.0725;
    MoveL [ [5.191, -7.426, 49.223], [0.088, -0.725, -0.683, 0.000], [0, 0, 0, 0], [ 9E9, 9E9, 9E9, 9E9, 9E9, 9E9] ], v1000, fine, pen\WObj:=platform;
    MoveL [ [-0.788, -1.073, -0.010], [0.088, -0.725, -0.683, 0.000], [0, 0, 0, 0], [ 9E9, 9E9, 9E9, 9E9, 9E9, 9E9] ], v30, fine, pen\WObj:=platform;
    MoveL [ [5.191, -7.426, 49.223], [0.088, -0.725, -0.683, 0.000], [0, 0, 0, 0], [ 9E9, 9E9, 9E9, 9E9, 9E9, 9E9] ], v1000, fine, pen\WObj:=platform;
    
    !!-0.7317914661978506, -1.1700000000000002;
    MoveL [ [5.351, -4.068, 49.534], [0.068, -0.429, -0.901, 0.000], [0, 0, 0, 0], [ 9E9, 9E9, 9E9, 9E9, 9E9, 9E9] ], v1000, fine, pen\WObj:=platform;
    MoveL [ [-0.732, -1.170, -0.010], [0.068, -0.429, -0.901, 0.000], [0, 0, 0, 0], [ 9E9, 9E9, 9E9, 9E9, 9E9, 9E9] ], v30, fine, pen\WObj:=platform;
    MoveL [ [5.351, -4.068, 49.534], [0.068, -0.429, -0.901, 0.000], [0, 0, 0, 0], [ 9E9, 9E9, 9E9, 9E9, 9E9, 9E9] ], v1000, fine, pen\WObj:=platform;
    
    !!-0.6754998149518622, -1.2675000000000003;
    MoveL [ [4.917, -6.597, 49.390], [0.077, -0.688, -0.722, 0.000], [0, 0, 0, 0], [ 9E9, 9E9, 9E9, 9E9, 9E9, 9E9] ], v1000, fine, pen\WObj:=platform;
    MoveL [ [-0.675, -1.268, -0.010], [0.077, -0.688, -0.722, 0.000], [0, 0, 0, 0], [ 9E9, 9E9, 9E9, 9E9, 9E9, 9E9] ], v30, fine, pen\WObj:=platform;
    MoveL [ [4.917, -6.597, 49.390], [0.077, -0.688, -0.722, 0.000], [0, 0, 0, 0], [ 9E9, 9E9, 9E9, 9E9, 9E9, 9E9] ], v1000, fine, pen\WObj:=platform;
    
    !!-0.6192081637058736, -1.3650000000000002;
    MoveL [ [5.041, -3.186, 49.635], [0.060, -0.306, -0.950, 0.000], [0, 0, 0, 0], [ 9E9, 9E9, 9E9, 9E9, 9E9, 9E9] ], v1000, fine, pen\WObj:=platform;
    MoveL [ [-0.619, -1.365, -0.010], [0.060, -0.306, -0.950, 0.000], [0, 0, 0, 0], [ 9E9, 9E9, 9E9, 9E9, 9E9, 9E9] ], v30, fine, pen\WObj:=platform;
    MoveL [ [5.041, -3.186, 49.635], [0.060, -0.306, -0.950, 0.000], [0, 0, 0, 0], [ 9E9, 9E9, 9E9, 9E9, 9E9, 9E9] ], v1000, fine, pen\WObj:=platform;
    
    !!-0.5629165124598852, -1.4625;
    MoveL [ [4.637, -5.757, 49.533], [0.068, -0.635, -0.769, 0.000], [0, 0, 0, 0], [ 9E9, 9E9, 9E9, 9E9, 9E9, 9E9] ], v1000, fine, pen\WObj:=platform;
    MoveL [ [-0.563, -1.462, -0.010], [0.068, -0.635, -0.769, 0.000], [0, 0, 0, 0], [ 9E9, 9E9, 9E9, 9E9, 9E9, 9E9] ], v30, fine, pen\WObj:=platform;
    MoveL [ [4.637, -5.757, 49.533], [0.068, -0.635, -0.769, 0.000], [0, 0, 0, 0], [ 9E9, 9E9, 9E9, 9E9, 9E9, 9E9] ], v1000, fine, pen\WObj:=platform;
    
    !!-0.5066248612138966, -1.56;
    MoveL [ [4.496, -5.333, 49.596], [0.063, -0.601, -0.797, 0.000], [0, 0, 0, 0], [ 9E9, 9E9, 9E9, 9E9, 9E9, 9E9] ], v1000, fine, pen\WObj:=platform;
    MoveL [ [-0.507, -1.560, -0.010], [0.063, -0.601, -0.797, 0.000], [0, 0, 0, 0], [ 9E9, 9E9, 9E9, 9E9, 9E9, 9E9] ], v30, fine, pen\WObj:=platform;
    MoveL [ [4.496, -5.333, 49.596], [0.063, -0.601, -0.797, 0.000], [0, 0, 0, 0], [ 9E9, 9E9, 9E9, 9E9, 9E9, 9E9] ], v1000, fine, pen\WObj:=platform;
    
    !!-0.4503332099679081, -1.6575000000000002;
    MoveL [ [4.353, -4.907, 49.653], [0.058, -0.559, -0.827, 0.000], [0, 0, 0, 0], [ 9E9, 9E9, 9E9, 9E9, 9E9, 9E9] ], v1000, fine, pen\WObj:=platform;
    MoveL [ [-0.450, -1.658, -0.010], [0.058, -0.559, -0.827, 0.000], [0, 0, 0, 0], [ 9E9, 9E9, 9E9, 9E9, 9E9, 9E9] ], v30, fine, pen\WObj:=platform;
    MoveL [ [4.353, -4.907, 49.653], [0.058, -0.559, -0.827, 0.000], [0, 0, 0, 0], [ 9E9, 9E9, 9E9, 9E9, 9E9, 9E9] ], v1000, fine, pen\WObj:=platform;
    
    !!-0.8443747686898275, -1.1700000000000002;
    MoveL [ [5.416, -6.964, 49.257], [0.086, -0.677, -0.731, 0.000], [0, 0, 0, 0], [ 9E9, 9E9, 9E9, 9E9, 9E9, 9E9] ], v1000, fine, pen\WObj:=platform;
    MoveL [ [-0.844, -1.170, -0.010], [0.086, -0.677, -0.731, 0.000], [0, 0, 0, 0], [ 9E9, 9E9, 9E9, 9E9, 9E9, 9E9] ], v30, fine, pen\WObj:=platform;
    MoveL [ [5.416, -6.964, 49.257], [0.086, -0.677, -0.731, 0.000], [0, 0, 0, 0], [ 9E9, 9E9, 9E9, 9E9, 9E9, 9E9] ], v1000, fine, pen\WObj:=platform;
    
    !!-0.7880831174438391, -1.2675000000000003;
    MoveL [ [5.279, -6.549, 49.339], [0.081, -0.654, -0.752, 0.000], [0, 0, 0, 0], [ 9E9, 9E9, 9E9, 9E9, 9E9, 9E9] ], v1000, fine, pen\WObj:=platform;
    MoveL [ [-0.788, -1.268, -0.010], [0.081, -0.654, -0.752, 0.000], [0, 0, 0, 0], [ 9E9, 9E9, 9E9, 9E9, 9E9, 9E9] ], v30, fine, pen\WObj:=platform;
    MoveL [ [5.279, -6.549, 49.339], [0.081, -0.654, -0.752, 0.000], [0, 0, 0, 0], [ 9E9, 9E9, 9E9, 9E9, 9E9, 9E9] ], v1000, fine, pen\WObj:=platform;
    
    !!-0.7317914661978506, -1.3650000000000002;
    MoveL [ [5.140, -6.131, 49.415], [0.076, -0.628, -0.774, 0.000], [0, 0, 0, 0], [ 9E9, 9E9, 9E9, 9E9, 9E9, 9E9] ], v1000, fine, pen\WObj:=platform;
    MoveL [ [-0.732, -1.365, -0.010], [0.076, -0.628, -0.774, 0.000], [0, 0, 0, 0], [ 9E9, 9E9, 9E9, 9E9, 9E9, 9E9] ], v30, fine, pen\WObj:=platform;
    MoveL [ [5.140, -6.131, 49.415], [0.076, -0.628, -0.774, 0.000], [0, 0, 0, 0], [ 9E9, 9E9, 9E9, 9E9, 9E9, 9E9] ], v1000, fine, pen\WObj:=platform;
    
    !!-0.6754998149518621, -1.4625;
    MoveL [ [5.001, -5.711, 49.485], [0.071, -0.598, -0.799, 0.000], [0, 0, 0, 0], [ 9E9, 9E9, 9E9, 9E9, 9E9, 9E9] ], v1000, fine, pen\WObj:=platform;
    MoveL [ [-0.675, -1.462, -0.010], [0.071, -0.598, -0.799, 0.000], [0, 0, 0, 0], [ 9E9, 9E9, 9E9, 9E9, 9E9, 9E9] ], v30, fine, pen\WObj:=platform;
    MoveL [ [5.001, -5.711, 49.485], [0.071, -0.598, -0.799, 0.000], [0, 0, 0, 0], [ 9E9, 9E9, 9E9, 9E9, 9E9, 9E9] ], v1000, fine, pen\WObj:=platform;
    
    !!-0.0562916512459885, -0.7800000000000001;
    MoveL [ [3.048, -6.065, 49.613], [0.061, -0.861, -0.506, 0.000], [0, 0, 0, 0], [ 9E9, 9E9, 9E9, 9E9, 9E9, 9E9] ], v1000, fine, pen\WObj:=platform;
    MoveL [ [-0.056, -0.780, -0.010], [0.061, -0.861, -0.506, 0.000], [0, 0, 0, 0], [ 9E9, 9E9, 9E9, 9E9, 9E9, 9E9] ], v30, fine, pen\WObj:=platform;
    MoveL [ [3.048, -6.065, 49.613], [0.061, -0.861, -0.506, 0.000], [0, 0, 0, 0], [ 9E9, 9E9, 9E9, 9E9, 9E9, 9E9] ], v1000, fine, pen\WObj:=platform;
    
    !!-0.11258330249197714, -0.6825000000000001;
    MoveL [ [2.299, -12.195, 48.587], [0.118, -0.972, -0.204, 0.000], [0, 0, 0, 0], [ 9E9, 9E9, 9E9, 9E9, 9E9, 9E9] ], v1000, fine, pen\WObj:=platform;
    MoveL [ [-0.113, -0.683, -0.010], [0.118, -0.972, -0.204, 0.000], [0, 0, 0, 0], [ 9E9, 9E9, 9E9, 9E9, 9E9, 9E9] ], v30, fine, pen\WObj:=platform;
    MoveL [ [2.299, -12.195, 48.587], [0.118, -0.972, -0.204, 0.000], [0, 0, 0, 0], [ 9E9, 9E9, 9E9, 9E9, 9E9, 9E9] ], v1000, fine, pen\WObj:=platform;
    
    !!-0.1688749537379655, -0.5850000000000001;
    MoveL [ [2.428, -12.563, 48.465], [0.124, -0.970, -0.210, 0.000], [0, 0, 0, 0], [ 9E9, 9E9, 9E9, 9E9, 9E9, 9E9] ], v1000, fine, pen\WObj:=platform;
    MoveL [ [-0.169, -0.585, -0.010], [0.124, -0.970, -0.210, 0.000], [0, 0, 0, 0], [ 9E9, 9E9, 9E9, 9E9, 9E9, 9E9] ], v30, fine, pen\WObj:=platform;
    MoveL [ [2.428, -12.563, 48.465], [0.124, -0.970, -0.210, 0.000], [0, 0, 0, 0], [ 9E9, 9E9, 9E9, 9E9, 9E9, 9E9] ], v1000, fine, pen\WObj:=platform;
    
    !!-0.225166604983954, -0.48750000000000004;
    MoveL [ [3.738, 1.986, 49.771], [0.047, 0.529, -0.847, 0.000], [0, 0, 0, 0], [ 9E9, 9E9, 9E9, 9E9, 9E9, 9E9] ], v1000, fine, pen\WObj:=platform;
    MoveL [ [-0.225, -0.488, -0.010], [0.047, 0.529, -0.847, 0.000], [0, 0, 0, 0], [ 9E9, 9E9, 9E9, 9E9, 9E9, 9E9] ], v30, fine, pen\WObj:=platform;
    MoveL [ [3.738, 1.986, 49.771], [0.047, 0.529, -0.847, 0.000], [0, 0, 0, 0], [ 9E9, 9E9, 9E9, 9E9, 9E9, 9E9] ], v1000, fine, pen\WObj:=platform;
    
    !!-0.28145825622994247, -0.39000000000000007;
    MoveL [ [2.703, 10.130, 48.780], [0.110, 0.956, -0.271, 0.000], [0, 0, 0, 0], [ 9E9, 9E9, 9E9, 9E9, 9E9, 9E9] ], v1000, fine, pen\WObj:=platform;
    MoveL [ [-0.281, -0.390, -0.010], [0.110, 0.956, -0.271, 0.000], [0, 0, 0, 0], [ 9E9, 9E9, 9E9, 9E9, 9E9, 9E9] ], v30, fine, pen\WObj:=platform;
    MoveL [ [2.703, 10.130, 48.780], [0.110, 0.956, -0.271, 0.000], [0, 0, 0, 0], [ 9E9, 9E9, 9E9, 9E9, 9E9, 9E9] ], v1000, fine, pen\WObj:=platform;
    
    !!-0.3377499074759311, -0.2925000000000001;
    MoveL [ [3.812, -8.209, 49.185], [0.090, -0.882, -0.462, 0.000], [0, 0, 0, 0], [ 9E9, 9E9, 9E9, 9E9, 9E9, 9E9] ], v1000, fine, pen\WObj:=platform;
    MoveL [ [-0.338, -0.293, -0.010], [0.090, -0.882, -0.462, 0.000], [0, 0, 0, 0], [ 9E9, 9E9, 9E9, 9E9, 9E9, 9E9] ], v30, fine, pen\WObj:=platform;
    MoveL [ [3.812, -8.209, 49.185], [0.090, -0.882, -0.462, 0.000], [0, 0, 0, 0], [ 9E9, 9E9, 9E9, 9E9, 9E9, 9E9] ], v1000, fine, pen\WObj:=platform;
    
    !!-0.3940415587219195, -0.19500000000000003;
    MoveL [ [3.504, -11.426, 48.556], [0.120, -0.938, -0.326, 0.000], [0, 0, 0, 0], [ 9E9, 9E9, 9E9, 9E9, 9E9, 9E9] ], v1000, fine, pen\WObj:=platform;
    MoveL [ [-0.394, -0.195, -0.010], [0.120, -0.938, -0.326, 0.000], [0, 0, 0, 0], [ 9E9, 9E9, 9E9, 9E9, 9E9, 9E9] ], v30, fine, pen\WObj:=platform;
    MoveL [ [3.504, -11.426, 48.556], [0.120, -0.938, -0.326, 0.000], [0, 0, 0, 0], [ 9E9, 9E9, 9E9, 9E9, 9E9, 9E9] ], v1000, fine, pen\WObj:=platform;
    
    !!-0.4503332099679081, -0.09750000000000009;
    MoveL [ [3.638, -11.808, 48.427], [0.125, -0.937, -0.327, 0.000], [0, 0, 0, 0], [ 9E9, 9E9, 9E9, 9E9, 9E9, 9E9] ], v1000, fine, pen\WObj:=platform;
    MoveL [ [-0.450, -0.098, -0.010], [0.125, -0.937, -0.327, 0.000], [0, 0, 0, 0], [ 9E9, 9E9, 9E9, 9E9, 9E9, 9E9] ], v30, fine, pen\WObj:=platform;
    MoveL [ [3.638, -11.808, 48.427], [0.125, -0.937, -0.327, 0.000], [0, 0, 0, 0], [ 9E9, 9E9, 9E9, 9E9, 9E9, 9E9] ], v1000, fine, pen\WObj:=platform;
    
    !!0, -0.8775000000000001;
    MoveL [ [2.891, -5.627, 49.680], [0.056, -0.853, -0.519, 0.000], [0, 0, 0, 0], [ 9E9, 9E9, 9E9, 9E9, 9E9, 9E9] ], v1000, fine, pen\WObj:=platform;
    MoveL [ [0.000, -0.878, -0.010], [0.056, -0.853, -0.519, 0.000], [0, 0, 0, 0], [ 9E9, 9E9, 9E9, 9E9, 9E9, 9E9] ], v30, fine, pen\WObj:=platform;
    MoveL [ [2.891, -5.627, 49.680], [0.056, -0.853, -0.519, 0.000], [0, 0, 0, 0], [ 9E9, 9E9, 9E9, 9E9, 9E9, 9E9] ], v1000, fine, pen\WObj:=platform;
    
    !!0.0562916512459885, -0.9750000000000001;
    MoveL [ [2.733, -5.187, 49.740], [0.050, -0.843, -0.536, 0.000], [0, 0, 0, 0], [ 9E9, 9E9, 9E9, 9E9, 9E9, 9E9] ], v1000, fine, pen\WObj:=platform;
    MoveL [ [0.056, -0.975, -0.010], [0.050, -0.843, -0.536, 0.000], [0, 0, 0, 0], [ 9E9, 9E9, 9E9, 9E9, 9E9, 9E9] ], v30, fine, pen\WObj:=platform;
    MoveL [ [2.733, -5.187, 49.740], [0.050, -0.843, -0.536, 0.000], [0, 0, 0, 0], [ 9E9, 9E9, 9E9, 9E9, 9E9, 9E9] ], v1000, fine, pen\WObj:=platform;
    
    !!0.112583302491977, -1.0725;
    MoveL [ [1.557, 10.561, 48.596], [0.118, 0.985, -0.122, 0.000], [0, 0, 0, 0], [ 9E9, 9E9, 9E9, 9E9, 9E9, 9E9] ], v1000, fine, pen\WObj:=platform;
    MoveL [ [0.113, -1.073, -0.010], [0.118, 0.985, -0.122, 0.000], [0, 0, 0, 0], [ 9E9, 9E9, 9E9, 9E9, 9E9, 9E9] ], v30, fine, pen\WObj:=platform;
    MoveL [ [1.557, 10.561, 48.596], [0.118, 0.985, -0.122, 0.000], [0, 0, 0, 0], [ 9E9, 9E9, 9E9, 9E9, 9E9, 9E9] ], v1000, fine, pen\WObj:=platform;
    
    !!0.1688749537379655, -1.1700000000000002;
    MoveL [ [1.075, -12.962, 48.571], [0.119, -0.990, -0.076, 0.000], [0, 0, 0, 0], [ 9E9, 9E9, 9E9, 9E9, 9E9, 9E9] ], v1000, fine, pen\WObj:=platform;
    MoveL [ [0.169, -1.170, -0.010], [0.119, -0.990, -0.076, 0.000], [0, 0, 0, 0], [ 9E9, 9E9, 9E9, 9E9, 9E9, 9E9] ], v30, fine, pen\WObj:=platform;
    MoveL [ [1.075, -12.962, 48.571], [0.119, -0.990, -0.076, 0.000], [0, 0, 0, 0], [ 9E9, 9E9, 9E9, 9E9, 9E9, 9E9] ], v1000, fine, pen\WObj:=platform;
    
    !!0.225166604983954, -1.2675000000000003;
    MoveL [ [0.453, 13.862, 47.645], [0.153, 0.988, -0.015, 0.000], [0, 0, 0, 0], [ 9E9, 9E9, 9E9, 9E9, 9E9, 9E9] ], v1000, fine, pen\WObj:=platform;
    MoveL [ [0.225, -1.268, -0.010], [0.153, 0.988, -0.015, 0.000], [0, 0, 0, 0], [ 9E9, 9E9, 9E9, 9E9, 9E9, 9E9] ], v30, fine, pen\WObj:=platform;
    MoveL [ [0.453, 13.862, 47.645], [0.153, 0.988, -0.015, 0.000], [0, 0, 0, 0], [ 9E9, 9E9, 9E9, 9E9, 9E9, 9E9] ], v1000, fine, pen\WObj:=platform;
    
    !!0.28145825622994247, -1.3650000000000002;
    MoveL [ [0.208, 14.252, 47.489], [0.158, 0.987, 0.005, 0.000], [0, 0, 0, 0], [ 9E9, 9E9, 9E9, 9E9, 9E9, 9E9] ], v1000, fine, pen\WObj:=platform;
    MoveL [ [0.281, -1.365, -0.010], [0.158, 0.987, 0.005, 0.000], [0, 0, 0, 0], [ 9E9, 9E9, 9E9, 9E9, 9E9, 9E9] ], v30, fine, pen\WObj:=platform;
    MoveL [ [0.208, 14.252, 47.489], [0.158, 0.987, 0.005, 0.000], [0, 0, 0, 0], [ 9E9, 9E9, 9E9, 9E9, 9E9, 9E9] ], v1000, fine, pen\WObj:=platform;
    
    !!0.337749907475931, -1.4625;
    MoveL [ [1.921, -2.952, 49.943], [0.022, -0.685, -0.728, 0.000], [0, 0, 0, 0], [ 9E9, 9E9, 9E9, 9E9, 9E9, 9E9] ], v1000, fine, pen\WObj:=platform;
    MoveL [ [0.338, -1.462, -0.010], [0.022, -0.685, -0.728, 0.000], [0, 0, 0, 0], [ 9E9, 9E9, 9E9, 9E9, 9E9, 9E9] ], v30, fine, pen\WObj:=platform;
    MoveL [ [1.921, -2.952, 49.943], [0.022, -0.685, -0.728, 0.000], [0, 0, 0, 0], [ 9E9, 9E9, 9E9, 9E9, 9E9, 9E9] ], v1000, fine, pen\WObj:=platform;
    
    !!0.3940415587219195, -1.56;
    MoveL [ [1.514, -5.692, 49.806], [0.043, -0.964, -0.261, 0.000], [0, 0, 0, 0], [ 9E9, 9E9, 9E9, 9E9, 9E9, 9E9] ], v1000, fine, pen\WObj:=platform;
    MoveL [ [0.394, -1.560, -0.010], [0.043, -0.964, -0.261, 0.000], [0, 0, 0, 0], [ 9E9, 9E9, 9E9, 9E9, 9E9, 9E9] ], v30, fine, pen\WObj:=platform;
    MoveL [ [1.514, -5.692, 49.806], [0.043, -0.964, -0.261, 0.000], [0, 0, 0, 0], [ 9E9, 9E9, 9E9, 9E9, 9E9, 9E9] ], v1000, fine, pen\WObj:=platform;
    
    !!0.450333209967908, -1.6575000000000002;
    MoveL [ [1.363, -5.260, 49.852], [0.037, -0.969, -0.245, 0.000], [0, 0, 0, 0], [ 9E9, 9E9, 9E9, 9E9, 9E9, 9E9] ], v1000, fine, pen\WObj:=platform;
    MoveL [ [0.450, -1.658, -0.010], [0.037, -0.969, -0.245, 0.000], [0, 0, 0, 0], [ 9E9, 9E9, 9E9, 9E9, 9E9, 9E9] ], v30, fine, pen\WObj:=platform;
    MoveL [ [1.363, -5.260, 49.852], [0.037, -0.969, -0.245, 0.000], [0, 0, 0, 0], [ 9E9, 9E9, 9E9, 9E9, 9E9, 9E9] ], v1000, fine, pen\WObj:=platform;
    
    !!0.0562916512459885, -0.7800000000000001;
    MoveL [ [2.677, -6.096, 49.637], [0.059, -0.895, -0.441, 0.000], [0, 0, 0, 0], [ 9E9, 9E9, 9E9, 9E9, 9E9, 9E9] ], v1000, fine, pen\WObj:=platform;
    MoveL [ [0.056, -0.780, -0.010], [0.059, -0.895, -0.441, 0.000], [0, 0, 0, 0], [ 9E9, 9E9, 9E9, 9E9, 9E9, 9E9] ], v30, fine, pen\WObj:=platform;
    MoveL [ [2.677, -6.096, 49.637], [0.059, -0.895, -0.441, 0.000], [0, 0, 0, 0], [ 9E9, 9E9, 9E9, 9E9, 9E9, 9E9] ], v1000, fine, pen\WObj:=platform;
    
    !!0, -0.6825000000000001;
    MoveL [ [2.833, -6.532, 49.566], [0.065, -0.898, -0.435, 0.000], [0, 0, 0, 0], [ 9E9, 9E9, 9E9, 9E9, 9E9, 9E9] ], v1000, fine, pen\WObj:=platform;
    MoveL [ [0.000, -0.683, -0.010], [0.065, -0.898, -0.435, 0.000], [0, 0, 0, 0], [ 9E9, 9E9, 9E9, 9E9, 9E9, 9E9] ], v30, fine, pen\WObj:=platform;
    MoveL [ [2.833, -6.532, 49.566], [0.065, -0.898, -0.435, 0.000], [0, 0, 0, 0], [ 9E9, 9E9, 9E9, 9E9, 9E9, 9E9] ], v1000, fine, pen\WObj:=platform;
    
    !!-0.0562916512459885, -0.5850000000000001;
    MoveL [ [2.989, -6.965, 49.488], [0.071, -0.900, -0.430, 0.000], [0, 0, 0, 0], [ 9E9, 9E9, 9E9, 9E9, 9E9, 9E9] ], v1000, fine, pen\WObj:=platform;
    MoveL [ [-0.056, -0.585, -0.010], [0.071, -0.900, -0.430, 0.000], [0, 0, 0, 0], [ 9E9, 9E9, 9E9, 9E9, 9E9, 9E9] ], v30, fine, pen\WObj:=platform;
    MoveL [ [2.989, -6.965, 49.488], [0.071, -0.900, -0.430, 0.000], [0, 0, 0, 0], [ 9E9, 9E9, 9E9, 9E9, 9E9, 9E9] ], v1000, fine, pen\WObj:=platform;
    
    !!-0.11258330249197714, -0.48750000000000004;
    MoveL [ [3.142, -7.395, 49.404], [0.077, -0.902, -0.425, 0.000], [0, 0, 0, 0], [ 9E9, 9E9, 9E9, 9E9, 9E9, 9E9] ], v1000, fine, pen\WObj:=platform;
    MoveL [ [-0.113, -0.488, -0.010], [0.077, -0.902, -0.425, 0.000], [0, 0, 0, 0], [ 9E9, 9E9, 9E9, 9E9, 9E9, 9E9] ], v30, fine, pen\WObj:=platform;
    MoveL [ [3.142, -7.395, 49.404], [0.077, -0.902, -0.425, 0.000], [0, 0, 0, 0], [ 9E9, 9E9, 9E9, 9E9, 9E9, 9E9] ], v1000, fine, pen\WObj:=platform;
    
    !!-0.1688749537379655, -0.39000000000000007;
    MoveL [ [3.295, -7.821, 49.313], [0.082, -0.903, -0.421, 0.000], [0, 0, 0, 0], [ 9E9, 9E9, 9E9, 9E9, 9E9, 9E9] ], v1000, fine, pen\WObj:=platform;
    MoveL [ [-0.169, -0.390, -0.010], [0.082, -0.903, -0.421, 0.000], [0, 0, 0, 0], [ 9E9, 9E9, 9E9, 9E9, 9E9, 9E9] ], v30, fine, pen\WObj:=platform;
    MoveL [ [3.295, -7.821, 49.313], [0.082, -0.903, -0.421, 0.000], [0, 0, 0, 0], [ 9E9, 9E9, 9E9, 9E9, 9E9, 9E9] ], v1000, fine, pen\WObj:=platform;
    
    !!-0.225166604983954, -0.2925000000000001;
    MoveL [ [3.446, -8.244, 49.217], [0.088, -0.904, -0.418, 0.000], [0, 0, 0, 0], [ 9E9, 9E9, 9E9, 9E9, 9E9, 9E9] ], v1000, fine, pen\WObj:=platform;
    MoveL [ [-0.225, -0.293, -0.010], [0.088, -0.904, -0.418, 0.000], [0, 0, 0, 0], [ 9E9, 9E9, 9E9, 9E9, 9E9, 9E9] ], v30, fine, pen\WObj:=platform;
    MoveL [ [3.446, -8.244, 49.217], [0.088, -0.904, -0.418, 0.000], [0, 0, 0, 0], [ 9E9, 9E9, 9E9, 9E9, 9E9, 9E9] ], v1000, fine, pen\WObj:=platform;
    
    !!-0.28145825622994247, -0.19500000000000003;
    MoveL [ [3.596, -8.664, 49.115], [0.094, -0.905, -0.414, 0.000], [0, 0, 0, 0], [ 9E9, 9E9, 9E9, 9E9, 9E9, 9E9] ], v1000, fine, pen\WObj:=platform;
    MoveL [ [-0.281, -0.195, -0.010], [0.094, -0.905, -0.414, 0.000], [0, 0, 0, 0], [ 9E9, 9E9, 9E9, 9E9, 9E9, 9E9] ], v30, fine, pen\WObj:=platform;
    MoveL [ [3.596, -8.664, 49.115], [0.094, -0.905, -0.414, 0.000], [0, 0, 0, 0], [ 9E9, 9E9, 9E9, 9E9, 9E9, 9E9] ], v1000, fine, pen\WObj:=platform;
    
    !!-0.3377499074759311, -0.09750000000000009;
    MoveL [ [3.274, -11.860, 48.452], [0.124, -0.949, -0.291, 0.000], [0, 0, 0, 0], [ 9E9, 9E9, 9E9, 9E9, 9E9, 9E9] ], v1000, fine, pen\WObj:=platform;
    MoveL [ [-0.338, -0.098, -0.010], [0.124, -0.949, -0.291, 0.000], [0, 0, 0, 0], [ 9E9, 9E9, 9E9, 9E9, 9E9, 9E9] ], v30, fine, pen\WObj:=platform;
    MoveL [ [3.274, -11.860, 48.452], [0.124, -0.949, -0.291, 0.000], [0, 0, 0, 0], [ 9E9, 9E9, 9E9, 9E9, 9E9, 9E9] ], v1000, fine, pen\WObj:=platform;
    
    !!0.112583302491977, -0.8775000000000001;
    MoveL [ [2.519, -5.657, 49.703], [0.054, -0.892, -0.449, 0.000], [0, 0, 0, 0], [ 9E9, 9E9, 9E9, 9E9, 9E9, 9E9] ], v1000, fine, pen\WObj:=platform;
    MoveL [ [0.113, -0.878, -0.010], [0.054, -0.892, -0.449, 0.000], [0, 0, 0, 0], [ 9E9, 9E9, 9E9, 9E9, 9E9, 9E9] ], v30, fine, pen\WObj:=platform;
    MoveL [ [2.519, -5.657, 49.703], [0.054, -0.892, -0.449, 0.000], [0, 0, 0, 0], [ 9E9, 9E9, 9E9, 9E9, 9E9, 9E9] ], v1000, fine, pen\WObj:=platform;
    
    !!0.1688749537379655, -0.9750000000000001;
    MoveL [ [2.359, -5.216, 49.762], [0.048, -0.887, -0.458, 0.000], [0, 0, 0, 0], [ 9E9, 9E9, 9E9, 9E9, 9E9, 9E9] ], v1000, fine, pen\WObj:=platform;
    MoveL [ [0.169, -0.975, -0.010], [0.048, -0.887, -0.458, 0.000], [0, 0, 0, 0], [ 9E9, 9E9, 9E9, 9E9, 9E9, 9E9] ], v30, fine, pen\WObj:=platform;
    MoveL [ [2.359, -5.216, 49.762], [0.048, -0.887, -0.458, 0.000], [0, 0, 0, 0], [ 9E9, 9E9, 9E9, 9E9, 9E9, 9E9] ], v1000, fine, pen\WObj:=platform;
    
    !!0.225166604983954, -1.0725;
    MoveL [ [1.184, 10.620, 48.594], [0.118, 0.990, -0.081, 0.000], [0, 0, 0, 0], [ 9E9, 9E9, 9E9, 9E9, 9E9, 9E9] ], v1000, fine, pen\WObj:=platform;
    MoveL [ [0.225, -1.073, -0.010], [0.118, 0.990, -0.081, 0.000], [0, 0, 0, 0], [ 9E9, 9E9, 9E9, 9E9, 9E9, 9E9] ], v30, fine, pen\WObj:=platform;
    MoveL [ [1.184, 10.620, 48.594], [0.118, 0.990, -0.081, 0.000], [0, 0, 0, 0], [ 9E9, 9E9, 9E9, 9E9, 9E9, 9E9] ], v1000, fine, pen\WObj:=platform;
    
    !!0.28145825622994247, -1.1700000000000002;
    MoveL [ [0.699, -13.032, 48.561], [0.120, -0.992, -0.035, 0.000], [0, 0, 0, 0], [ 9E9, 9E9, 9E9, 9E9, 9E9, 9E9] ], v1000, fine, pen\WObj:=platform;
    MoveL [ [0.281, -1.170, -0.010], [0.120, -0.992, -0.035, 0.000], [0, 0, 0, 0], [ 9E9, 9E9, 9E9, 9E9, 9E9, 9E9] ], v30, fine, pen\WObj:=platform;
    MoveL [ [0.699, -13.032, 48.561], [0.120, -0.992, -0.035, 0.000], [0, 0, 0, 0], [ 9E9, 9E9, 9E9, 9E9, 9E9, 9E9] ], v1000, fine, pen\WObj:=platform;
    
    !!0.337749907475931, -1.2675000000000003;
    MoveL [ [0.082, 13.927, 47.625], [0.154, 0.988, 0.017, 0.000], [0, 0, 0, 0], [ 9E9, 9E9, 9E9, 9E9, 9E9, 9E9] ], v1000, fine, pen\WObj:=platform;
    MoveL [ [0.338, -1.268, -0.010], [0.154, 0.988, 0.017, 0.000], [0, 0, 0, 0], [ 9E9, 9E9, 9E9, 9E9, 9E9, 9E9] ], v30, fine, pen\WObj:=platform;
    MoveL [ [0.082, 13.927, 47.625], [0.154, 0.988, 0.017, 0.000], [0, 0, 0, 0], [ 9E9, 9E9, 9E9, 9E9, 9E9, 9E9] ], v1000, fine, pen\WObj:=platform;
    
    !!0.3940415587219195, -1.3650000000000002;
    MoveL [ [1.709, -3.429, 49.930], [0.024, -0.843, -0.537, 0.000], [0, 0, 0, 0], [ 9E9, 9E9, 9E9, 9E9, 9E9, 9E9] ], v1000, fine, pen\WObj:=platform;
    MoveL [ [0.394, -1.365, -0.010], [0.024, -0.843, -0.537, 0.000], [0, 0, 0, 0], [ 9E9, 9E9, 9E9, 9E9, 9E9, 9E9] ], v30, fine, pen\WObj:=platform;
    MoveL [ [1.709, -3.429, 49.930], [0.024, -0.843, -0.537, 0.000], [0, 0, 0, 0], [ 9E9, 9E9, 9E9, 9E9, 9E9, 9E9] ], v1000, fine, pen\WObj:=platform;
    
    !!0.450333209967908, -1.4625;
    MoveL [ [1.543, -2.977, 49.955], [0.019, -0.811, -0.585, 0.000], [0, 0, 0, 0], [ 9E9, 9E9, 9E9, 9E9, 9E9, 9E9] ], v1000, fine, pen\WObj:=platform;
    MoveL [ [0.450, -1.462, -0.010], [0.019, -0.811, -0.585, 0.000], [0, 0, 0, 0], [ 9E9, 9E9, 9E9, 9E9, 9E9, 9E9] ], v30, fine, pen\WObj:=platform;
    MoveL [ [1.543, -2.977, 49.955], [0.019, -0.811, -0.585, 0.000], [0, 0, 0, 0], [ 9E9, 9E9, 9E9, 9E9, 9E9, 9E9] ], v1000, fine, pen\WObj:=platform;
    
    !!0.5066248612138967, -1.56;
    MoveL [ [1.133, -5.735, 49.811], [0.042, -0.988, -0.148, 0.000], [0, 0, 0, 0], [ 9E9, 9E9, 9E9, 9E9, 9E9, 9E9] ], v1000, fine, pen\WObj:=platform;
    MoveL [ [0.507, -1.560, -0.010], [0.042, -0.988, -0.148, 0.000], [0, 0, 0, 0], [ 9E9, 9E9, 9E9, 9E9, 9E9, 9E9] ], v30, fine, pen\WObj:=platform;
    MoveL [ [1.133, -5.735, 49.811], [0.042, -0.988, -0.148, 0.000], [0, 0, 0, 0], [ 9E9, 9E9, 9E9, 9E9, 9E9, 9E9] ], v1000, fine, pen\WObj:=platform;
    
    !!0.1688749537379655, -0.7800000000000001;
    MoveL [ [2.303, -6.126, 49.657], [0.058, -0.927, -0.370, 0.000], [0, 0, 0, 0], [ 9E9, 9E9, 9E9, 9E9, 9E9, 9E9] ], v1000, fine, pen\WObj:=platform;
    MoveL [ [0.169, -0.780, -0.010], [0.058, -0.927, -0.370, 0.000], [0, 0, 0, 0], [ 9E9, 9E9, 9E9, 9E9, 9E9, 9E9] ], v30, fine, pen\WObj:=platform;
    MoveL [ [2.303, -6.126, 49.657], [0.058, -0.927, -0.370, 0.000], [0, 0, 0, 0], [ 9E9, 9E9, 9E9, 9E9, 9E9, 9E9] ], v1000, fine, pen\WObj:=platform;
    
    !!0.112583302491977, -0.6825000000000001;
    MoveL [ [2.461, -6.563, 49.587], [0.063, -0.927, -0.370, 0.000], [0, 0, 0, 0], [ 9E9, 9E9, 9E9, 9E9, 9E9, 9E9] ], v1000, fine, pen\WObj:=platform;
    MoveL [ [0.113, -0.683, -0.010], [0.063, -0.927, -0.370, 0.000], [0, 0, 0, 0], [ 9E9, 9E9, 9E9, 9E9, 9E9, 9E9] ], v30, fine, pen\WObj:=platform;
    MoveL [ [2.461, -6.563, 49.587], [0.063, -0.927, -0.370, 0.000], [0, 0, 0, 0], [ 9E9, 9E9, 9E9, 9E9, 9E9, 9E9] ], v1000, fine, pen\WObj:=platform;
    
    !!0.0562916512459885, -0.5850000000000001;
    MoveL [ [2.618, -6.997, 49.511], [0.069, -0.926, -0.370, 0.000], [0, 0, 0, 0], [ 9E9, 9E9, 9E9, 9E9, 9E9, 9E9] ], v1000, fine, pen\WObj:=platform;
    MoveL [ [0.056, -0.585, -0.010], [0.069, -0.926, -0.370, 0.000], [0, 0, 0, 0], [ 9E9, 9E9, 9E9, 9E9, 9E9, 9E9] ], v30, fine, pen\WObj:=platform;
    MoveL [ [2.618, -6.997, 49.511], [0.069, -0.926, -0.370, 0.000], [0, 0, 0, 0], [ 9E9, 9E9, 9E9, 9E9, 9E9, 9E9] ], v1000, fine, pen\WObj:=platform;
    
    !!0, -0.48750000000000004;
    MoveL [ [2.773, -7.427, 49.428], [0.075, -0.926, -0.370, 0.000], [0, 0, 0, 0], [ 9E9, 9E9, 9E9, 9E9, 9E9, 9E9] ], v1000, fine, pen\WObj:=platform;
    MoveL [ [0.000, -0.488, -0.010], [0.075, -0.926, -0.370, 0.000], [0, 0, 0, 0], [ 9E9, 9E9, 9E9, 9E9, 9E9, 9E9] ], v30, fine, pen\WObj:=platform;
    MoveL [ [2.773, -7.427, 49.428], [0.075, -0.926, -0.370, 0.000], [0, 0, 0, 0], [ 9E9, 9E9, 9E9, 9E9, 9E9, 9E9] ], v1000, fine, pen\WObj:=platform;
    
    !!-0.0562916512459885, -0.39000000000000007;
    MoveL [ [2.926, -7.855, 49.340], [0.081, -0.926, -0.370, 0.000], [0, 0, 0, 0], [ 9E9, 9E9, 9E9, 9E9, 9E9, 9E9] ], v1000, fine, pen\WObj:=platform;
    MoveL [ [-0.056, -0.390, -0.010], [0.081, -0.926, -0.370, 0.000], [0, 0, 0, 0], [ 9E9, 9E9, 9E9, 9E9, 9E9, 9E9] ], v30, fine, pen\WObj:=platform;
    MoveL [ [2.926, -7.855, 49.340], [0.081, -0.926, -0.370, 0.000], [0, 0, 0, 0], [ 9E9, 9E9, 9E9, 9E9, 9E9, 9E9] ], v1000, fine, pen\WObj:=platform;
    
    !!-0.11258330249197714, -0.2925000000000001;
    MoveL [ [3.079, -8.278, 49.245], [0.086, -0.925, -0.370, 0.000], [0, 0, 0, 0], [ 9E9, 9E9, 9E9, 9E9, 9E9, 9E9] ], v1000, fine, pen\WObj:=platform;
    MoveL [ [-0.113, -0.293, -0.010], [0.086, -0.925, -0.370, 0.000], [0, 0, 0, 0], [ 9E9, 9E9, 9E9, 9E9, 9E9, 9E9] ], v30, fine, pen\WObj:=platform;
    MoveL [ [3.079, -8.278, 49.245], [0.086, -0.925, -0.370, 0.000], [0, 0, 0, 0], [ 9E9, 9E9, 9E9, 9E9, 9E9, 9E9] ], v1000, fine, pen\WObj:=platform;
    
    !!-0.1688749537379655, -0.19500000000000003;
    MoveL [ [3.230, -8.699, 49.144], [0.092, -0.925, -0.370, 0.000], [0, 0, 0, 0], [ 9E9, 9E9, 9E9, 9E9, 9E9, 9E9] ], v1000, fine, pen\WObj:=platform;
    MoveL [ [-0.169, -0.195, -0.010], [0.092, -0.925, -0.370, 0.000], [0, 0, 0, 0], [ 9E9, 9E9, 9E9, 9E9, 9E9, 9E9] ], v30, fine, pen\WObj:=platform;
    MoveL [ [3.230, -8.699, 49.144], [0.092, -0.925, -0.370, 0.000], [0, 0, 0, 0], [ 9E9, 9E9, 9E9, 9E9, 9E9, 9E9] ], v1000, fine, pen\WObj:=platform;
    
    !!-0.225166604983954, -0.09750000000000009;
    MoveL [ [2.909, -11.910, 48.473], [0.123, -0.959, -0.254, 0.000], [0, 0, 0, 0], [ 9E9, 9E9, 9E9, 9E9, 9E9, 9E9] ], v1000, fine, pen\WObj:=platform;
    MoveL [ [-0.225, -0.098, -0.010], [0.123, -0.959, -0.254, 0.000], [0, 0, 0, 0], [ 9E9, 9E9, 9E9, 9E9, 9E9, 9E9] ], v30, fine, pen\WObj:=platform;
    MoveL [ [2.909, -11.910, 48.473], [0.123, -0.959, -0.254, 0.000], [0, 0, 0, 0], [ 9E9, 9E9, 9E9, 9E9, 9E9, 9E9] ], v1000, fine, pen\WObj:=platform;
    
    !!0.225166604983954, -0.8775000000000001;
    MoveL [ [2.144, -5.687, 49.721], [0.052, -0.928, -0.370, 0.000], [0, 0, 0, 0], [ 9E9, 9E9, 9E9, 9E9, 9E9, 9E9] ], v1000, fine, pen\WObj:=platform;
    MoveL [ [0.225, -0.878, -0.010], [0.052, -0.928, -0.370, 0.000], [0, 0, 0, 0], [ 9E9, 9E9, 9E9, 9E9, 9E9, 9E9] ], v30, fine, pen\WObj:=platform;
    MoveL [ [2.144, -5.687, 49.721], [0.052, -0.928, -0.370, 0.000], [0, 0, 0, 0], [ 9E9, 9E9, 9E9, 9E9, 9E9, 9E9] ], v1000, fine, pen\WObj:=platform;
    
    !!0.28145825622994247, -0.9750000000000001;
    MoveL [ [1.984, -5.245, 49.778], [0.046, -0.928, -0.370, 0.000], [0, 0, 0, 0], [ 9E9, 9E9, 9E9, 9E9, 9E9, 9E9] ], v1000, fine, pen\WObj:=platform;
    MoveL [ [0.281, -0.975, -0.010], [0.046, -0.928, -0.370, 0.000], [0, 0, 0, 0], [ 9E9, 9E9, 9E9, 9E9, 9E9, 9E9] ], v30, fine, pen\WObj:=platform;
    MoveL [ [1.984, -5.245, 49.778], [0.046, -0.928, -0.370, 0.000], [0, 0, 0, 0], [ 9E9, 9E9, 9E9, 9E9, 9E9, 9E9] ], v1000, fine, pen\WObj:=platform;
    
    !!0.337749907475931, -1.0725;
    MoveL [ [0.810, 10.678, 48.587], [0.118, 0.992, -0.040, 0.000], [0, 0, 0, 0], [ 9E9, 9E9, 9E9, 9E9, 9E9, 9E9] ], v1000, fine, pen\WObj:=platform;
    MoveL [ [0.338, -1.073, -0.010], [0.118, 0.992, -0.040, 0.000], [0, 0, 0, 0], [ 9E9, 9E9, 9E9, 9E9, 9E9, 9E9] ], v30, fine, pen\WObj:=platform;
    MoveL [ [0.810, 10.678, 48.587], [0.118, 0.992, -0.040, 0.000], [0, 0, 0, 0], [ 9E9, 9E9, 9E9, 9E9, 9E9, 9E9] ], v1000, fine, pen\WObj:=platform;
    
    !!0.3940415587219195, -1.1700000000000002;
    MoveL [ [0.322, -13.101, 48.546], [0.120, -0.993, 0.006, 0.000], [0, 0, 0, 0], [ 9E9, 9E9, 9E9, 9E9, 9E9, 9E9] ], v1000, fine, pen\WObj:=platform;
    MoveL [ [0.394, -1.170, -0.010], [0.120, -0.993, 0.006, 0.000], [0, 0, 0, 0], [ 9E9, 9E9, 9E9, 9E9, 9E9, 9E9] ], v30, fine, pen\WObj:=platform;
    MoveL [ [0.322, -13.101, 48.546], [0.120, -0.993, 0.006, 0.000], [0, 0, 0, 0], [ 9E9, 9E9, 9E9, 9E9, 9E9, 9E9] ], v1000, fine, pen\WObj:=platform;
    
    !!0.450333209967908, -1.2675000000000003;
    MoveL [ [-0.289, 13.990, 47.600], [0.155, 0.987, 0.048, 0.000], [0, 0, 0, 0], [ 9E9, 9E9, 9E9, 9E9, 9E9, 9E9] ], v1000, fine, pen\WObj:=platform;
    MoveL [ [0.450, -1.268, -0.010], [0.155, 0.987, 0.048, 0.000], [0, 0, 0, 0], [ 9E9, 9E9, 9E9, 9E9, 9E9, 9E9] ], v30, fine, pen\WObj:=platform;
    MoveL [ [-0.289, 13.990, 47.600], [0.155, 0.987, 0.048, 0.000], [0, 0, 0, 0], [ 9E9, 9E9, 9E9, 9E9, 9E9, 9E9] ], v1000, fine, pen\WObj:=platform;
    
    !!0.5066248612138967, -1.3650000000000002;
    MoveL [ [1.330, -3.455, 49.940], [0.022, -0.930, -0.366, 0.000], [0, 0, 0, 0], [ 9E9, 9E9, 9E9, 9E9, 9E9, 9E9] ], v1000, fine, pen\WObj:=platform;
    MoveL [ [0.507, -1.365, -0.010], [0.022, -0.930, -0.366, 0.000], [0, 0, 0, 0], [ 9E9, 9E9, 9E9, 9E9, 9E9, 9E9] ], v30, fine, pen\WObj:=platform;
    MoveL [ [1.330, -3.455, 49.940], [0.022, -0.930, -0.366, 0.000], [0, 0, 0, 0], [ 9E9, 9E9, 9E9, 9E9, 9E9, 9E9] ], v1000, fine, pen\WObj:=platform;
    
    !!0.5629165124598849, -1.4625;
    MoveL [ [1.163, -3.003, 49.963], [0.017, -0.932, -0.363, 0.000], [0, 0, 0, 0], [ 9E9, 9E9, 9E9, 9E9, 9E9, 9E9] ], v1000, fine, pen\WObj:=platform;
    MoveL [ [0.563, -1.462, -0.010], [0.017, -0.932, -0.363, 0.000], [0, 0, 0, 0], [ 9E9, 9E9, 9E9, 9E9, 9E9, 9E9] ], v30, fine, pen\WObj:=platform;
    MoveL [ [1.163, -3.003, 49.963], [0.017, -0.932, -0.363, 0.000], [0, 0, 0, 0], [ 9E9, 9E9, 9E9, 9E9, 9E9, 9E9] ], v1000, fine, pen\WObj:=platform;
    
    !!0.28145825622994275, -0.7800000000000001;
    MoveL [ [1.051, -12.003, 48.708], [0.113, -0.991, -0.068, 0.000], [0, 0, 0, 0], [ 9E9, 9E9, 9E9, 9E9, 9E9, 9E9] ], v1000, fine, pen\WObj:=platform;
    MoveL [ [0.281, -0.780, -0.010], [0.113, -0.991, -0.068, 0.000], [0, 0, 0, 0], [ 9E9, 9E9, 9E9, 9E9, 9E9, 9E9] ], v30, fine, pen\WObj:=platform;
    MoveL [ [1.051, -12.003, 48.708], [0.113, -0.991, -0.068, 0.000], [0, 0, 0, 0], [ 9E9, 9E9, 9E9, 9E9, 9E9, 9E9] ], v1000, fine, pen\WObj:=platform;
    
    !!0.225166604983954, -0.6825000000000001;
    MoveL [ [1.184, -12.375, 48.594], [0.118, -0.990, -0.081, 0.000], [0, 0, 0, 0], [ 9E9, 9E9, 9E9, 9E9, 9E9, 9E9] ], v1000, fine, pen\WObj:=platform;
    MoveL [ [0.225, -0.683, -0.010], [0.118, -0.990, -0.081, 0.000], [0, 0, 0, 0], [ 9E9, 9E9, 9E9, 9E9, 9E9, 9E9] ], v30, fine, pen\WObj:=platform;
    MoveL [ [1.184, -12.375, 48.594], [0.118, -0.990, -0.081, 0.000], [0, 0, 0, 0], [ 9E9, 9E9, 9E9, 9E9, 9E9, 9E9] ], v1000, fine, pen\WObj:=platform;
    
    !!0.1688749537379655, -0.5850000000000001;
    MoveL [ [2.245, -7.028, 49.530], [0.068, -0.950, -0.306, 0.000], [0, 0, 0, 0], [ 9E9, 9E9, 9E9, 9E9, 9E9, 9E9] ], v1000, fine, pen\WObj:=platform;
    MoveL [ [0.169, -0.585, -0.010], [0.068, -0.950, -0.306, 0.000], [0, 0, 0, 0], [ 9E9, 9E9, 9E9, 9E9, 9E9, 9E9] ], v30, fine, pen\WObj:=platform;
    MoveL [ [2.245, -7.028, 49.530], [0.068, -0.950, -0.306, 0.000], [0, 0, 0, 0], [ 9E9, 9E9, 9E9, 9E9, 9E9, 9E9] ], v1000, fine, pen\WObj:=platform;
    
    !!0.112583302491977, -0.48750000000000004;
    MoveL [ [2.401, -7.459, 49.449], [0.074, -0.948, -0.311, 0.000], [0, 0, 0, 0], [ 9E9, 9E9, 9E9, 9E9, 9E9, 9E9] ], v1000, fine, pen\WObj:=platform;
    MoveL [ [0.113, -0.488, -0.010], [0.074, -0.948, -0.311, 0.000], [0, 0, 0, 0], [ 9E9, 9E9, 9E9, 9E9, 9E9, 9E9] ], v30, fine, pen\WObj:=platform;
    MoveL [ [2.401, -7.459, 49.449], [0.074, -0.948, -0.311, 0.000], [0, 0, 0, 0], [ 9E9, 9E9, 9E9, 9E9, 9E9, 9E9] ], v1000, fine, pen\WObj:=platform;
    
    !!0.05629165124598878, -0.39000000000000007;
    MoveL [ [2.556, -7.887, 49.361], [0.079, -0.946, -0.315, 0.000], [0, 0, 0, 0], [ 9E9, 9E9, 9E9, 9E9, 9E9, 9E9] ], v1000, fine, pen\WObj:=platform;
    MoveL [ [0.056, -0.390, -0.010], [0.079, -0.946, -0.315, 0.000], [0, 0, 0, 0], [ 9E9, 9E9, 9E9, 9E9, 9E9, 9E9] ], v30, fine, pen\WObj:=platform;
    MoveL [ [2.556, -7.887, 49.361], [0.079, -0.946, -0.315, 0.000], [0, 0, 0, 0], [ 9E9, 9E9, 9E9, 9E9, 9E9, 9E9] ], v1000, fine, pen\WObj:=platform;
    
    !!0, -0.2925000000000001;
    MoveL [ [2.709, -8.312, 49.268], [0.085, -0.944, -0.319, 0.000], [0, 0, 0, 0], [ 9E9, 9E9, 9E9, 9E9, 9E9, 9E9] ], v1000, fine, pen\WObj:=platform;
    MoveL [ [0.000, -0.293, -0.010], [0.085, -0.944, -0.319, 0.000], [0, 0, 0, 0], [ 9E9, 9E9, 9E9, 9E9, 9E9, 9E9] ], v30, fine, pen\WObj:=platform;
    MoveL [ [2.709, -8.312, 49.268], [0.085, -0.944, -0.319, 0.000], [0, 0, 0, 0], [ 9E9, 9E9, 9E9, 9E9, 9E9, 9E9] ], v1000, fine, pen\WObj:=platform;
    
    !!-0.0562916512459885, -0.19500000000000003;
    MoveL [ [2.862, -8.733, 49.169], [0.091, -0.942, -0.322, 0.000], [0, 0, 0, 0], [ 9E9, 9E9, 9E9, 9E9, 9E9, 9E9] ], v1000, fine, pen\WObj:=platform;
    MoveL [ [-0.056, -0.195, -0.010], [0.091, -0.942, -0.322, 0.000], [0, 0, 0, 0], [ 9E9, 9E9, 9E9, 9E9, 9E9, 9E9] ], v30, fine, pen\WObj:=platform;
    MoveL [ [2.862, -8.733, 49.169], [0.091, -0.942, -0.322, 0.000], [0, 0, 0, 0], [ 9E9, 9E9, 9E9, 9E9, 9E9, 9E9] ], v1000, fine, pen\WObj:=platform;
    
    !!-0.11258330249197686, -0.09750000000000009;
    MoveL [ [2.542, -11.960, 48.490], [0.122, -0.969, -0.217, 0.000], [0, 0, 0, 0], [ 9E9, 9E9, 9E9, 9E9, 9E9, 9E9] ], v1000, fine, pen\WObj:=platform;
    MoveL [ [-0.113, -0.098, -0.010], [0.122, -0.969, -0.217, 0.000], [0, 0, 0, 0], [ 9E9, 9E9, 9E9, 9E9, 9E9, 9E9] ], v30, fine, pen\WObj:=platform;
    MoveL [ [2.542, -11.960, 48.490], [0.122, -0.969, -0.217, 0.000], [0, 0, 0, 0], [ 9E9, 9E9, 9E9, 9E9, 9E9, 9E9] ], v1000, fine, pen\WObj:=platform;
    
    !!-0.1688749537379655, 0;
    MoveL [ [2.679, -12.340, 48.360], [0.128, -0.966, -0.223, 0.000], [0, 0, 0, 0], [ 9E9, 9E9, 9E9, 9E9, 9E9, 9E9] ], v1000, fine, pen\WObj:=platform;
    MoveL [ [-0.169, 0.000, -0.010], [0.128, -0.966, -0.223, 0.000], [0, 0, 0, 0], [ 9E9, 9E9, 9E9, 9E9, 9E9, 9E9] ], v30, fine, pen\WObj:=platform;
    MoveL [ [2.679, -12.340, 48.360], [0.128, -0.966, -0.223, 0.000], [0, 0, 0, 0], [ 9E9, 9E9, 9E9, 9E9, 9E9, 9E9] ], v1000, fine, pen\WObj:=platform;
    
    !!0.337749907475931, -0.8775000000000001;
    MoveL [ [1.769, -5.716, 49.735], [0.051, -0.958, -0.283, 0.000], [0, 0, 0, 0], [ 9E9, 9E9, 9E9, 9E9, 9E9, 9E9] ], v1000, fine, pen\WObj:=platform;
    MoveL [ [0.338, -0.878, -0.010], [0.051, -0.958, -0.283, 0.000], [0, 0, 0, 0], [ 9E9, 9E9, 9E9, 9E9, 9E9, 9E9] ], v30, fine, pen\WObj:=platform;
    MoveL [ [1.769, -5.716, 49.735], [0.051, -0.958, -0.283, 0.000], [0, 0, 0, 0], [ 9E9, 9E9, 9E9, 9E9, 9E9, 9E9] ], v1000, fine, pen\WObj:=platform;
    
    !!0.3940415587219195, -0.9750000000000001;
    MoveL [ [1.607, -5.273, 49.790], [0.045, -0.961, -0.271, 0.000], [0, 0, 0, 0], [ 9E9, 9E9, 9E9, 9E9, 9E9, 9E9] ], v1000, fine, pen\WObj:=platform;
    MoveL [ [0.394, -0.975, -0.010], [0.045, -0.961, -0.271, 0.000], [0, 0, 0, 0], [ 9E9, 9E9, 9E9, 9E9, 9E9, 9E9] ], v30, fine, pen\WObj:=platform;
    MoveL [ [1.607, -5.273, 49.790], [0.045, -0.961, -0.271, 0.000], [0, 0, 0, 0], [ 9E9, 9E9, 9E9, 9E9, 9E9, 9E9] ], v1000, fine, pen\WObj:=platform;
    
    !!0.450333209967908, -1.0725;
    MoveL [ [0.071, -13.520, 48.414], [0.126, -0.992, 0.030, 0.000], [0, 0, 0, 0], [ 9E9, 9E9, 9E9, 9E9, 9E9, 9E9] ], v1000, fine, pen\WObj:=platform;
    MoveL [ [0.450, -1.073, -0.010], [0.126, -0.992, 0.030, 0.000], [0, 0, 0, 0], [ 9E9, 9E9, 9E9, 9E9, 9E9, 9E9] ], v30, fine, pen\WObj:=platform;
    MoveL [ [0.071, -13.520, 48.414], [0.126, -0.992, 0.030, 0.000], [0, 0, 0, 0], [ 9E9, 9E9, 9E9, 9E9, 9E9, 9E9] ], v1000, fine, pen\WObj:=platform;
    
    !!0.5066248612138967, -1.1700000000000002;
    MoveL [ [1.281, -4.381, 49.881], [0.033, -0.972, -0.234, 0.000], [0, 0, 0, 0], [ 9E9, 9E9, 9E9, 9E9, 9E9, 9E9] ], v1000, fine, pen\WObj:=platform;
    MoveL [ [0.507, -1.170, -0.010], [0.033, -0.972, -0.234, 0.000], [0, 0, 0, 0], [ 9E9, 9E9, 9E9, 9E9, 9E9, 9E9] ], v30, fine, pen\WObj:=platform;
    MoveL [ [1.281, -4.381, 49.881], [0.033, -0.972, -0.234, 0.000], [0, 0, 0, 0], [ 9E9, 9E9, 9E9, 9E9, 9E9, 9E9] ], v1000, fine, pen\WObj:=platform;
    
    !!0.5629165124598849, -1.2675000000000003;
    MoveL [ [1.116, -3.932, 49.916], [0.027, -0.979, -0.203, 0.000], [0, 0, 0, 0], [ 9E9, 9E9, 9E9, 9E9, 9E9, 9E9] ], v1000, fine, pen\WObj:=platform;
    MoveL [ [0.563, -1.268, -0.010], [0.027, -0.979, -0.203, 0.000], [0, 0, 0, 0], [ 9E9, 9E9, 9E9, 9E9, 9E9, 9E9] ], v30, fine, pen\WObj:=platform;
    MoveL [ [1.116, -3.932, 49.916], [0.027, -0.979, -0.203, 0.000], [0, 0, 0, 0], [ 9E9, 9E9, 9E9, 9E9, 9E9, 9E9] ], v1000, fine, pen\WObj:=platform;
    
    !!0.6192081637058735, -1.3650000000000002;
    MoveL [ [0.949, -3.481, 49.944], [0.021, -0.988, -0.154, 0.000], [0, 0, 0, 0], [ 9E9, 9E9, 9E9, 9E9, 9E9, 9E9] ], v1000, fine, pen\WObj:=platform;
    MoveL [ [0.619, -1.365, -0.010], [0.021, -0.988, -0.154, 0.000], [0, 0, 0, 0], [ 9E9, 9E9, 9E9, 9E9, 9E9, 9E9] ], v30, fine, pen\WObj:=platform;
    MoveL [ [0.949, -3.481, 49.944], [0.021, -0.988, -0.154, 0.000], [0, 0, 0, 0], [ 9E9, 9E9, 9E9, 9E9, 9E9, 9E9] ], v1000, fine, pen\WObj:=platform;
    
    !!0.6754998149518622, -1.4625;
    MoveL [ [0.521, -6.251, 49.760], [0.048, -0.998, 0.032, 0.000], [0, 0, 0, 0], [ 9E9, 9E9, 9E9, 9E9, 9E9, 9E9] ], v1000, fine, pen\WObj:=platform;
    MoveL [ [0.675, -1.462, -0.010], [0.048, -0.998, 0.032, 0.000], [0, 0, 0, 0], [ 9E9, 9E9, 9E9, 9E9, 9E9, 9E9] ], v30, fine, pen\WObj:=platform;
    MoveL [ [0.521, -6.251, 49.760], [0.048, -0.998, 0.032, 0.000], [0, 0, 0, 0], [ 9E9, 9E9, 9E9, 9E9, 9E9, 9E9] ], v1000, fine, pen\WObj:=platform;
    
    !!0.3940415587219195, -0.7800000000000001;
    MoveL [ [1.776, 0.289, 49.959], [0.017, 0.612, -0.791, 0.000], [0, 0, 0, 0], [ 9E9, 9E9, 9E9, 9E9, 9E9, 9E9] ], v1000, fine, pen\WObj:=platform;
    MoveL [ [0.394, -0.780, -0.010], [0.017, 0.612, -0.791, 0.000], [0, 0, 0, 0], [ 9E9, 9E9, 9E9, 9E9, 9E9, 9E9] ], v30, fine, pen\WObj:=platform;
    MoveL [ [1.776, 0.289, 49.959], [0.017, 0.612, -0.791, 0.000], [0, 0, 0, 0], [ 9E9, 9E9, 9E9, 9E9, 9E9, 9E9] ], v1000, fine, pen\WObj:=platform;
    
    !!0.337749907475931, -0.6825000000000001;
    MoveL [ [1.935, -3.440, 49.888], [0.032, -0.865, -0.501, 0.000], [0, 0, 0, 0], [ 9E9, 9E9, 9E9, 9E9, 9E9, 9E9] ], v1000, fine, pen\WObj:=platform;
    MoveL [ [0.338, -0.683, -0.010], [0.032, -0.865, -0.501, 0.000], [0, 0, 0, 0], [ 9E9, 9E9, 9E9, 9E9, 9E9, 9E9] ], v30, fine, pen\WObj:=platform;
    MoveL [ [1.935, -3.440, 49.888], [0.032, -0.865, -0.501, 0.000], [0, 0, 0, 0], [ 9E9, 9E9, 9E9, 9E9, 9E9, 9E9] ], v1000, fine, pen\WObj:=platform;
    
    !!0.28145825622994247, -0.5850000000000001;
    MoveL [ [0.943, -12.802, 48.470], [0.123, -0.991, -0.054, 0.000], [0, 0, 0, 0], [ 9E9, 9E9, 9E9, 9E9, 9E9, 9E9] ], v1000, fine, pen\WObj:=platform;
    MoveL [ [0.281, -0.585, -0.010], [0.123, -0.991, -0.054, 0.000], [0, 0, 0, 0], [ 9E9, 9E9, 9E9, 9E9, 9E9, 9E9] ], v30, fine, pen\WObj:=platform;
    MoveL [ [0.943, -12.802, 48.470], [0.123, -0.991, -0.054, 0.000], [0, 0, 0, 0], [ 9E9, 9E9, 9E9, 9E9, 9E9, 9E9] ], v1000, fine, pen\WObj:=platform;
    
    !!0.225166604983954, -0.48750000000000004;
    MoveL [ [2.028, -7.491, 49.464], [0.073, -0.966, -0.249, 0.000], [0, 0, 0, 0], [ 9E9, 9E9, 9E9, 9E9, 9E9, 9E9] ], v1000, fine, pen\WObj:=platform;
    MoveL [ [0.225, -0.488, -0.010], [0.073, -0.966, -0.249, 0.000], [0, 0, 0, 0], [ 9E9, 9E9, 9E9, 9E9, 9E9, 9E9] ], v30, fine, pen\WObj:=platform;
    MoveL [ [2.028, -7.491, 49.464], [0.073, -0.966, -0.249, 0.000], [0, 0, 0, 0], [ 9E9, 9E9, 9E9, 9E9, 9E9, 9E9] ], v1000, fine, pen\WObj:=platform;
    
    !!0.1688749537379655, -0.39000000000000007;
    MoveL [ [2.184, -7.920, 49.379], [0.078, -0.963, -0.258, 0.000], [0, 0, 0, 0], [ 9E9, 9E9, 9E9, 9E9, 9E9, 9E9] ], v1000, fine, pen\WObj:=platform;
    MoveL [ [0.169, -0.390, -0.010], [0.078, -0.963, -0.258, 0.000], [0, 0, 0, 0], [ 9E9, 9E9, 9E9, 9E9, 9E9, 9E9] ], v30, fine, pen\WObj:=platform;
    MoveL [ [2.184, -7.920, 49.379], [0.078, -0.963, -0.258, 0.000], [0, 0, 0, 0], [ 9E9, 9E9, 9E9, 9E9, 9E9, 9E9] ], v1000, fine, pen\WObj:=platform;
    
    !!0.112583302491977, -0.2925000000000001;
    MoveL [ [2.339, -8.345, 49.287], [0.084, -0.960, -0.266, 0.000], [0, 0, 0, 0], [ 9E9, 9E9, 9E9, 9E9, 9E9, 9E9] ], v1000, fine, pen\WObj:=platform;
    MoveL [ [0.113, -0.293, -0.010], [0.084, -0.960, -0.266, 0.000], [0, 0, 0, 0], [ 9E9, 9E9, 9E9, 9E9, 9E9, 9E9] ], v30, fine, pen\WObj:=platform;
    MoveL [ [2.339, -8.345, 49.287], [0.084, -0.960, -0.266, 0.000], [0, 0, 0, 0], [ 9E9, 9E9, 9E9, 9E9, 9E9, 9E9] ], v1000, fine, pen\WObj:=platform;
    
    !!0.0562916512459885, -0.19500000000000003;
    MoveL [ [2.492, -8.767, 49.190], [0.089, -0.958, -0.272, 0.000], [0, 0, 0, 0], [ 9E9, 9E9, 9E9, 9E9, 9E9, 9E9] ], v1000, fine, pen\WObj:=platform;
    MoveL [ [0.056, -0.195, -0.010], [0.089, -0.958, -0.272, 0.000], [0, 0, 0, 0], [ 9E9, 9E9, 9E9, 9E9, 9E9, 9E9] ], v30, fine, pen\WObj:=platform;
    MoveL [ [2.492, -8.767, 49.190], [0.089, -0.958, -0.272, 0.000], [0, 0, 0, 0], [ 9E9, 9E9, 9E9, 9E9, 9E9, 9E9] ], v1000, fine, pen\WObj:=platform;
    
    !!0, -0.09750000000000009;
    MoveL [ [2.174, -12.009, 48.502], [0.122, -0.976, -0.178, 0.000], [0, 0, 0, 0], [ 9E9, 9E9, 9E9, 9E9, 9E9, 9E9] ], v1000, fine, pen\WObj:=platform;
    MoveL [ [0.000, -0.098, -0.010], [0.122, -0.976, -0.178, 0.000], [0, 0, 0, 0], [ 9E9, 9E9, 9E9, 9E9, 9E9, 9E9] ], v30, fine, pen\WObj:=platform;
    MoveL [ [2.174, -12.009, 48.502], [0.122, -0.976, -0.178, 0.000], [0, 0, 0, 0], [ 9E9, 9E9, 9E9, 9E9, 9E9, 9E9] ], v1000, fine, pen\WObj:=platform;
    
    !!-0.0562916512459885, 0;
    MoveL [ [2.312, -12.389, 48.373], [0.127, -0.974, -0.186, 0.000], [0, 0, 0, 0], [ 9E9, 9E9, 9E9, 9E9, 9E9, 9E9] ], v1000, fine, pen\WObj:=platform;
    MoveL [ [-0.056, 0.000, -0.010], [0.127, -0.974, -0.186, 0.000], [0, 0, 0, 0], [ 9E9, 9E9, 9E9, 9E9, 9E9, 9E9] ], v30, fine, pen\WObj:=platform;
    MoveL [ [2.312, -12.389, 48.373], [0.127, -0.974, -0.186, 0.000], [0, 0, 0, 0], [ 9E9, 9E9, 9E9, 9E9, 9E9, 9E9] ], v1000, fine, pen\WObj:=platform;
    
    !!0.450333209967908, -0.8775000000000001;
    MoveL [ [1.391, -5.745, 49.744], [0.050, -0.981, -0.190, 0.000], [0, 0, 0, 0], [ 9E9, 9E9, 9E9, 9E9, 9E9, 9E9] ], v1000, fine, pen\WObj:=platform;
    MoveL [ [0.450, -0.878, -0.010], [0.050, -0.981, -0.190, 0.000], [0, 0, 0, 0], [ 9E9, 9E9, 9E9, 9E9, 9E9, 9E9] ], v30, fine, pen\WObj:=platform;
    MoveL [ [1.391, -5.745, 49.744], [0.050, -0.981, -0.190, 0.000], [0, 0, 0, 0], [ 9E9, 9E9, 9E9, 9E9, 9E9, 9E9] ], v1000, fine, pen\WObj:=platform;
    
    !!0.5066248612138967, -0.9750000000000001;
    MoveL [ [1.229, -5.301, 49.797], [0.044, -0.985, -0.164, 0.000], [0, 0, 0, 0], [ 9E9, 9E9, 9E9, 9E9, 9E9, 9E9] ], v1000, fine, pen\WObj:=platform;
    MoveL [ [0.507, -0.975, -0.010], [0.044, -0.985, -0.164, 0.000], [0, 0, 0, 0], [ 9E9, 9E9, 9E9, 9E9, 9E9, 9E9] ], v30, fine, pen\WObj:=platform;
    MoveL [ [1.229, -5.301, 49.797], [0.044, -0.985, -0.164, 0.000], [0, 0, 0, 0], [ 9E9, 9E9, 9E9, 9E9, 9E9, 9E9] ], v1000, fine, pen\WObj:=platform;
    
    !!0.5629165124598849, -1.0725;
    MoveL [ [1.065, -4.856, 49.844], [0.038, -0.991, -0.132, 0.000], [0, 0, 0, 0], [ 9E9, 9E9, 9E9, 9E9, 9E9, 9E9] ], v1000, fine, pen\WObj:=platform;
    MoveL [ [0.563, -1.073, -0.010], [0.038, -0.991, -0.132, 0.000], [0, 0, 0, 0], [ 9E9, 9E9, 9E9, 9E9, 9E9, 9E9] ], v30, fine, pen\WObj:=platform;
    MoveL [ [1.065, -4.856, 49.844], [0.038, -0.991, -0.132, 0.000], [0, 0, 0, 0], [ 9E9, 9E9, 9E9, 9E9, 9E9, 9E9] ], v1000, fine, pen\WObj:=platform;
    
    !!0.6192081637058735, -1.1700000000000002;
    MoveL [ [0.900, -4.408, 49.884], [0.033, -0.996, -0.086, 0.000], [0, 0, 0, 0], [ 9E9, 9E9, 9E9, 9E9, 9E9, 9E9] ], v1000, fine, pen\WObj:=platform;
    MoveL [ [0.619, -1.170, -0.010], [0.033, -0.996, -0.086, 0.000], [0, 0, 0, 0], [ 9E9, 9E9, 9E9, 9E9, 9E9, 9E9] ], v30, fine, pen\WObj:=platform;
    MoveL [ [0.900, -4.408, 49.884], [0.033, -0.996, -0.086, 0.000], [0, 0, 0, 0], [ 9E9, 9E9, 9E9, 9E9, 9E9, 9E9] ], v1000, fine, pen\WObj:=platform;
    
    !!0.6754998149518622, -1.2675000000000003;
    MoveL [ [0.734, -3.958, 49.918], [0.027, -0.999, -0.022, 0.000], [0, 0, 0, 0], [ 9E9, 9E9, 9E9, 9E9, 9E9, 9E9] ], v1000, fine, pen\WObj:=platform;
    MoveL [ [0.675, -1.268, -0.010], [0.027, -0.999, -0.022, 0.000], [0, 0, 0, 0], [ 9E9, 9E9, 9E9, 9E9, 9E9, 9E9] ], v30, fine, pen\WObj:=platform;
    MoveL [ [0.734, -3.958, 49.918], [0.027, -0.999, -0.022, 0.000], [0, 0, 0, 0], [ 9E9, 9E9, 9E9, 9E9, 9E9, 9E9] ], v1000, fine, pen\WObj:=platform;
    
    !!0.7317914661978507, -1.3650000000000002;
    MoveL [ [0.290, -6.722, 49.700], [0.054, -0.995, 0.082, 0.000], [0, 0, 0, 0], [ 9E9, 9E9, 9E9, 9E9, 9E9, 9E9] ], v1000, fine, pen\WObj:=platform;
    MoveL [ [0.732, -1.365, -0.010], [0.054, -0.995, 0.082, 0.000], [0, 0, 0, 0], [ 9E9, 9E9, 9E9, 9E9, 9E9, 9E9] ], v30, fine, pen\WObj:=platform;
    MoveL [ [0.290, -6.722, 49.700], [0.054, -0.995, 0.082, 0.000], [0, 0, 0, 0], [ 9E9, 9E9, 9E9, 9E9, 9E9, 9E9] ], v1000, fine, pen\WObj:=platform;
    
    !!0.5066248612138967, -0.7800000000000001;
    MoveL [ [1.174, -6.214, 49.689], [0.055, -0.991, -0.122, 0.000], [0, 0, 0, 0], [ 9E9, 9E9, 9E9, 9E9, 9E9, 9E9] ], v1000, fine, pen\WObj:=platform;
    MoveL [ [0.507, -0.780, -0.010], [0.055, -0.991, -0.122, 0.000], [0, 0, 0, 0], [ 9E9, 9E9, 9E9, 9E9, 9E9, 9E9] ], v30, fine, pen\WObj:=platform;
    MoveL [ [1.174, -6.214, 49.689], [0.055, -0.991, -0.122, 0.000], [0, 0, 0, 0], [ 9E9, 9E9, 9E9, 9E9, 9E9, 9E9] ], v1000, fine, pen\WObj:=platform;
    
    !!0.450333209967908, -0.6825000000000001;
    MoveL [ [0.434, -12.490, 48.576], [0.119, -0.993, 0.001, 0.000], [0, 0, 0, 0], [ 9E9, 9E9, 9E9, 9E9, 9E9, 9E9] ], v1000, fine, pen\WObj:=platform;
    MoveL [ [0.450, -0.683, -0.010], [0.119, -0.993, 0.001, 0.000], [0, 0, 0, 0], [ 9E9, 9E9, 9E9, 9E9, 9E9, 9E9] ], v30, fine, pen\WObj:=platform;
    MoveL [ [0.434, -12.490, 48.576], [0.119, -0.993, 0.001, 0.000], [0, 0, 0, 0], [ 9E9, 9E9, 9E9, 9E9, 9E9, 9E9] ], v1000, fine, pen\WObj:=platform;
    
    !!0.3940415587219195, -0.5850000000000001;
    MoveL [ [0.569, -12.859, 48.460], [0.124, -0.992, -0.014, 0.000], [0, 0, 0, 0], [ 9E9, 9E9, 9E9, 9E9, 9E9, 9E9] ], v1000, fine, pen\WObj:=platform;
    MoveL [ [0.394, -0.585, -0.010], [0.124, -0.992, -0.014, 0.000], [0, 0, 0, 0], [ 9E9, 9E9, 9E9, 9E9, 9E9, 9E9] ], v30, fine, pen\WObj:=platform;
    MoveL [ [0.569, -12.859, 48.460], [0.124, -0.992, -0.014, 0.000], [0, 0, 0, 0], [ 9E9, 9E9, 9E9, 9E9, 9E9, 9E9] ], v1000, fine, pen\WObj:=platform;
    
    !!0.337749907475931, -0.48750000000000004;
    MoveL [ [1.874, 2.123, 49.898], [0.030, 0.862, -0.507, 0.000], [0, 0, 0, 0], [ 9E9, 9E9, 9E9, 9E9, 9E9, 9E9] ], v1000, fine, pen\WObj:=platform;
    MoveL [ [0.338, -0.488, -0.010], [0.030, 0.862, -0.507, 0.000], [0, 0, 0, 0], [ 9E9, 9E9, 9E9, 9E9, 9E9, 9E9] ], v30, fine, pen\WObj:=platform;
    MoveL [ [1.874, 2.123, 49.898], [0.030, 0.862, -0.507, 0.000], [0, 0, 0, 0], [ 9E9, 9E9, 9E9, 9E9, 9E9, 9E9] ], v1000, fine, pen\WObj:=platform;
    
    !!0.28145825622994247, -0.39000000000000007;
    MoveL [ [1.810, -7.951, 49.391], [0.077, -0.977, -0.198, 0.000], [0, 0, 0, 0], [ 9E9, 9E9, 9E9, 9E9, 9E9, 9E9] ], v1000, fine, pen\WObj:=platform;
    MoveL [ [0.281, -0.390, -0.010], [0.077, -0.977, -0.198, 0.000], [0, 0, 0, 0], [ 9E9, 9E9, 9E9, 9E9, 9E9, 9E9] ], v30, fine, pen\WObj:=platform;
    MoveL [ [1.810, -7.951, 49.391], [0.077, -0.977, -0.198, 0.000], [0, 0, 0, 0], [ 9E9, 9E9, 9E9, 9E9, 9E9, 9E9] ], v1000, fine, pen\WObj:=platform;
    
    !!0.225166604983954, -0.2925000000000001;
    MoveL [ [1.966, -8.377, 49.301], [0.083, -0.974, -0.210, 0.000], [0, 0, 0, 0], [ 9E9, 9E9, 9E9, 9E9, 9E9, 9E9] ], v1000, fine, pen\WObj:=platform;
    MoveL [ [0.225, -0.293, -0.010], [0.083, -0.974, -0.210, 0.000], [0, 0, 0, 0], [ 9E9, 9E9, 9E9, 9E9, 9E9, 9E9] ], v30, fine, pen\WObj:=platform;
    MoveL [ [1.966, -8.377, 49.301], [0.083, -0.974, -0.210, 0.000], [0, 0, 0, 0], [ 9E9, 9E9, 9E9, 9E9, 9E9, 9E9] ], v1000, fine, pen\WObj:=platform;
    
    !!0.1688749537379655, -0.19500000000000003;
    MoveL [ [2.121, -8.799, 49.205], [0.089, -0.971, -0.220, 0.000], [0, 0, 0, 0], [ 9E9, 9E9, 9E9, 9E9, 9E9, 9E9] ], v1000, fine, pen\WObj:=platform;
    MoveL [ [0.169, -0.195, -0.010], [0.089, -0.971, -0.220, 0.000], [0, 0, 0, 0], [ 9E9, 9E9, 9E9, 9E9, 9E9, 9E9] ], v30, fine, pen\WObj:=platform;
    MoveL [ [2.121, -8.799, 49.205], [0.089, -0.971, -0.220, 0.000], [0, 0, 0, 0], [ 9E9, 9E9, 9E9, 9E9, 9E9, 9E9] ], v1000, fine, pen\WObj:=platform;
    
    !!0.112583302491977, -0.09750000000000009;
    MoveL [ [1.805, -12.057, 48.509], [0.122, -0.983, -0.139, 0.000], [0, 0, 0, 0], [ 9E9, 9E9, 9E9, 9E9, 9E9, 9E9] ], v1000, fine, pen\WObj:=platform;
    MoveL [ [0.113, -0.098, -0.010], [0.122, -0.983, -0.139, 0.000], [0, 0, 0, 0], [ 9E9, 9E9, 9E9, 9E9, 9E9, 9E9] ], v30, fine, pen\WObj:=platform;
    MoveL [ [1.805, -12.057, 48.509], [0.122, -0.983, -0.139, 0.000], [0, 0, 0, 0], [ 9E9, 9E9, 9E9, 9E9, 9E9, 9E9] ], v1000, fine, pen\WObj:=platform;
    
    !!0.0562916512459885, 0;
