MODULE MainModule
  PERS wobjdata platform := [ FALSE, TRUE, "", [ [800, 0, 600], [1, 0, 0 ,0] ], [ [0, 0, 0], [1, 0, 0 ,0] ] ];
  PERS tooldata pen := [ TRUE, [[0, 0, 100], [1, 0, 0 ,0]], [0.8,[0, 0, 30], [1, 0, 0, 0], 0, 0, 0]];
  PROC main()
    ConfL\Off;
    ConfJ\Off;
    SingArea\Wrist;
    !!-4.683465383666245, 0.050699999999998524;
    MoveL [ [-3.529, -14.567, 47.792], [0.148, -0.986, -0.078, 0.000], [0, 0, 0, 0], [ 9E9, 9E9, 9E9, 9E9, 9E9, 9E9] ], v1000, fine, pen\WObj:=platform;
    MoveL [ [-4.683, 0.051, -0.010], [0.148, -0.986, -0.078, 0.000], [0, 0, 0, 0], [ 9E9, 9E9, 9E9, 9E9, 9E9, 9E9] ], v30, fine, pen\WObj:=platform;
    MoveL [ [-3.529, -14.567, 47.792], [0.148, -0.986, -0.078, 0.000], [0, 0, 0, 0], [ 9E9, 9E9, 9E9, 9E9, 9E9, 9E9] ], v1000, fine, pen\WObj:=platform;
    
    !!-4.624922066370417, -0.0507000000000013;
    MoveL [ [-3.512, -14.536, 47.833], [0.147, -0.986, -0.076, 0.000], [0, 0, 0, 0], [ 9E9, 9E9, 9E9, 9E9, 9E9, 9E9] ], v1000, fine, pen\WObj:=platform;
    MoveL [ [-4.625, -0.051, -0.010], [0.147, -0.986, -0.076, 0.000], [0, 0, 0, 0], [ 9E9, 9E9, 9E9, 9E9, 9E9, 9E9] ], v30, fine, pen\WObj:=platform;
    MoveL [ [-3.512, -14.536, 47.833], [0.147, -0.986, -0.076, 0.000], [0, 0, 0, 0], [ 9E9, 9E9, 9E9, 9E9, 9E9, 9E9] ], v1000, fine, pen\WObj:=platform;
    
    !!-4.683465383666245, -0.15210000000000168;
    MoveL [ [-0.609, -16.720, 46.989], [0.173, -0.956, -0.235, 0.000], [0, 0, 0, 0], [ 9E9, 9E9, 9E9, 9E9, 9E9, 9E9] ], v1000, fine, pen\WObj:=platform;
    MoveL [ [-4.683, -0.152, -0.010], [0.173, -0.956, -0.235, 0.000], [0, 0, 0, 0], [ 9E9, 9E9, 9E9, 9E9, 9E9, 9E9] ], v30, fine, pen\WObj:=platform;
    MoveL [ [-0.609, -16.720, 46.989], [0.173, -0.956, -0.235, 0.000], [0, 0, 0, 0], [ 9E9, 9E9, 9E9, 9E9, 9E9, 9E9] ], v1000, fine, pen\WObj:=platform;
    
    !!-4.624922066370417, -0.2535000000000015;
    MoveL [ [-3.497, -14.462, 47.915], [0.144, -0.986, -0.078, 0.000], [0, 0, 0, 0], [ 9E9, 9E9, 9E9, 9E9, 9E9, 9E9] ], v1000, fine, pen\WObj:=platform;
    MoveL [ [-4.625, -0.254, -0.010], [0.144, -0.986, -0.078, 0.000], [0, 0, 0, 0], [ 9E9, 9E9, 9E9, 9E9, 9E9, 9E9] ], v30, fine, pen\WObj:=platform;
    MoveL [ [-3.497, -14.462, 47.915], [0.144, -0.986, -0.078, 0.000], [0, 0, 0, 0], [ 9E9, 9E9, 9E9, 9E9, 9E9, 9E9] ], v1000, fine, pen\WObj:=platform;
    
    !!-4.683465383666245, -0.3549000000000019;
    MoveL [ [-3.497, -14.418, 47.957], [0.143, -0.986, -0.083, 0.000], [0, 0, 0, 0], [ 9E9, 9E9, 9E9, 9E9, 9E9, 9E9] ], v1000, fine, pen\WObj:=platform;
    MoveL [ [-4.683, -0.355, -0.010], [0.143, -0.986, -0.083, 0.000], [0, 0, 0, 0], [ 9E9, 9E9, 9E9, 9E9, 9E9, 9E9] ], v30, fine, pen\WObj:=platform;
    MoveL [ [-3.497, -14.418, 47.957], [0.143, -0.986, -0.083, 0.000], [0, 0, 0, 0], [ 9E9, 9E9, 9E9, 9E9, 9E9, 9E9] ], v1000, fine, pen\WObj:=platform;
    
    !!-4.624922066370417, -0.45630000000000115;
    MoveL [ [-0.552, -16.584, 47.142], [0.169, -0.956, -0.241, 0.000], [0, 0, 0, 0], [ 9E9, 9E9, 9E9, 9E9, 9E9, 9E9] ], v1000, fine, pen\WObj:=platform;
    MoveL [ [-4.625, -0.456, -0.010], [0.169, -0.956, -0.241, 0.000], [0, 0, 0, 0], [ 9E9, 9E9, 9E9, 9E9, 9E9, 9E9] ], v30, fine, pen\WObj:=platform;
    MoveL [ [-0.552, -16.584, 47.142], [0.169, -0.956, -0.241, 0.000], [0, 0, 0, 0], [ 9E9, 9E9, 9E9, 9E9, 9E9, 9E9] ], v1000, fine, pen\WObj:=platform;
    
    !!-4.683465383666245, -0.5577000000000021;
    MoveL [ [-3.481, -14.341, 48.038], [0.140, -0.986, -0.086, 0.000], [0, 0, 0, 0], [ 9E9, 9E9, 9E9, 9E9, 9E9, 9E9] ], v1000, fine, pen\WObj:=platform;
    MoveL [ [-4.683, -0.558, -0.010], [0.140, -0.986, -0.086, 0.000], [0, 0, 0, 0], [ 9E9, 9E9, 9E9, 9E9, 9E9, 9E9] ], v30, fine, pen\WObj:=platform;
    MoveL [ [-3.481, -14.341, 48.038], [0.140, -0.986, -0.086, 0.000], [0, 0, 0, 0], [ 9E9, 9E9, 9E9, 9E9, 9E9, 9E9] ], v1000, fine, pen\WObj:=platform;
    
    !!-4.624922066370417, -0.6591000000000019;
    MoveL [ [-0.519, -16.483, 47.242], [0.166, -0.955, -0.248, 0.000], [0, 0, 0, 0], [ 9E9, 9E9, 9E9, 9E9, 9E9, 9E9] ], v1000, fine, pen\WObj:=platform;
    MoveL [ [-4.625, -0.659, -0.010], [0.166, -0.955, -0.248, 0.000], [0, 0, 0, 0], [ 9E9, 9E9, 9E9, 9E9, 9E9, 9E9] ], v30, fine, pen\WObj:=platform;
    MoveL [ [-0.519, -16.483, 47.242], [0.166, -0.955, -0.248, 0.000], [0, 0, 0, 0], [ 9E9, 9E9, 9E9, 9E9, 9E9, 9E9] ], v1000, fine, pen\WObj:=platform;
    
    !!-4.683465383666245, -0.7605000000000017;
    MoveL [ [-3.465, -14.263, 48.117], [0.137, -0.987, -0.089, 0.000], [0, 0, 0, 0], [ 9E9, 9E9, 9E9, 9E9, 9E9, 9E9] ], v1000, fine, pen\WObj:=platform;
    MoveL [ [-4.683, -0.761, -0.010], [0.137, -0.987, -0.089, 0.000], [0, 0, 0, 0], [ 9E9, 9E9, 9E9, 9E9, 9E9, 9E9] ], v30, fine, pen\WObj:=platform;
    MoveL [ [-3.465, -14.263, 48.117], [0.137, -0.987, -0.089, 0.000], [0, 0, 0, 0], [ 9E9, 9E9, 9E9, 9E9, 9E9, 9E9] ], v1000, fine, pen\WObj:=platform;
    
    !!-4.624922066370417, -0.8619000000000016;
    MoveL [ [-3.448, -14.230, 48.155], [0.135, -0.987, -0.087, 0.000], [0, 0, 0, 0], [ 9E9, 9E9, 9E9, 9E9, 9E9, 9E9] ], v1000, fine, pen\WObj:=platform;
    MoveL [ [-4.625, -0.862, -0.010], [0.135, -0.987, -0.087, 0.000], [0, 0, 0, 0], [ 9E9, 9E9, 9E9, 9E9, 9E9, 9E9] ], v30, fine, pen\WObj:=platform;
    MoveL [ [-3.448, -14.230, 48.155], [0.135, -0.987, -0.087, 0.000], [0, 0, 0, 0], [ 9E9, 9E9, 9E9, 9E9, 9E9, 9E9] ], v1000, fine, pen\WObj:=platform;
    
    !!-4.683465383666245, -0.9633000000000014;
    MoveL [ [-3.448, -14.184, 48.195], [0.134, -0.987, -0.092, 0.000], [0, 0, 0, 0], [ 9E9, 9E9, 9E9, 9E9, 9E9, 9E9] ], v1000, fine, pen\WObj:=platform;
    MoveL [ [-4.683, -0.963, -0.010], [0.134, -0.987, -0.092, 0.000], [0, 0, 0, 0], [ 9E9, 9E9, 9E9, 9E9, 9E9, 9E9] ], v30, fine, pen\WObj:=platform;
    MoveL [ [-3.448, -14.184, 48.195], [0.134, -0.987, -0.092, 0.000], [0, 0, 0, 0], [ 9E9, 9E9, 9E9, 9E9, 9E9, 9E9] ], v1000, fine, pen\WObj:=platform;
    
    !!-4.624922066370417, -1.0647000000000018;
    MoveL [ [-0.453, -16.277, 47.437], [0.160, -0.952, -0.261, 0.000], [0, 0, 0, 0], [ 9E9, 9E9, 9E9, 9E9, 9E9, 9E9] ], v1000, fine, pen\WObj:=platform;
    MoveL [ [-4.625, -1.065, -0.010], [0.160, -0.952, -0.261, 0.000], [0, 0, 0, 0], [ 9E9, 9E9, 9E9, 9E9, 9E9, 9E9] ], v30, fine, pen\WObj:=platform;
    MoveL [ [-0.453, -16.277, 47.437], [0.160, -0.952, -0.261, 0.000], [0, 0, 0, 0], [ 9E9, 9E9, 9E9, 9E9, 9E9, 9E9] ], v1000, fine, pen\WObj:=platform;
    
    !!-4.683465383666245, -1.1661000000000015;
    MoveL [ [-3.431, -14.104, 48.271], [0.131, -0.987, -0.096, 0.000], [0, 0, 0, 0], [ 9E9, 9E9, 9E9, 9E9, 9E9, 9E9] ], v1000, fine, pen\WObj:=platform;
    MoveL [ [-4.683, -1.166, -0.010], [0.131, -0.987, -0.096, 0.000], [0, 0, 0, 0], [ 9E9, 9E9, 9E9, 9E9, 9E9, 9E9] ], v30, fine, pen\WObj:=platform;
    MoveL [ [-3.431, -14.104, 48.271], [0.131, -0.987, -0.096, 0.000], [0, 0, 0, 0], [ 9E9, 9E9, 9E9, 9E9, 9E9, 9E9] ], v1000, fine, pen\WObj:=platform;
    
    !!-4.624922066370417, -1.2675000000000018;
    MoveL [ [-3.414, -14.069, 48.308], [0.130, -0.987, -0.093, 0.000], [0, 0, 0, 0], [ 9E9, 9E9, 9E9, 9E9, 9E9, 9E9] ], v1000, fine, pen\WObj:=platform;
    MoveL [ [-4.625, -1.268, -0.010], [0.130, -0.987, -0.093, 0.000], [0, 0, 0, 0], [ 9E9, 9E9, 9E9, 9E9, 9E9, 9E9] ], v30, fine, pen\WObj:=platform;
    MoveL [ [-3.414, -14.069, 48.308], [0.130, -0.987, -0.093, 0.000], [0, 0, 0, 0], [ 9E9, 9E9, 9E9, 9E9, 9E9, 9E9] ], v1000, fine, pen\WObj:=platform;
    
    !!-4.683465383666245, -1.3689000000000018;
    MoveL [ [-0.411, -16.106, 47.577], [0.155, -0.949, -0.275, 0.000], [0, 0, 0, 0], [ 9E9, 9E9, 9E9, 9E9, 9E9, 9E9] ], v1000, fine, pen\WObj:=platform;
    MoveL [ [-4.683, -1.369, -0.010], [0.155, -0.949, -0.275, 0.000], [0, 0, 0, 0], [ 9E9, 9E9, 9E9, 9E9, 9E9, 9E9] ], v30, fine, pen\WObj:=platform;
    MoveL [ [-0.411, -16.106, 47.577], [0.155, -0.949, -0.275, 0.000], [0, 0, 0, 0], [ 9E9, 9E9, 9E9, 9E9, 9E9, 9E9] ], v1000, fine, pen\WObj:=platform;
    
    !!-4.624922066370417, -1.4703000000000022;
    MoveL [ [-3.396, -13.987, 48.382], [0.127, -0.987, -0.097, 0.000], [0, 0, 0, 0], [ 9E9, 9E9, 9E9, 9E9, 9E9, 9E9] ], v1000, fine, pen\WObj:=platform;
    MoveL [ [-4.625, -1.470, -0.010], [0.127, -0.987, -0.097, 0.000], [0, 0, 0, 0], [ 9E9, 9E9, 9E9, 9E9, 9E9, 9E9] ], v30, fine, pen\WObj:=platform;
    MoveL [ [-3.396, -13.987, 48.382], [0.127, -0.987, -0.097, 0.000], [0, 0, 0, 0], [ 9E9, 9E9, 9E9, 9E9, 9E9, 9E9] ], v1000, fine, pen\WObj:=platform;
    
    !!-4.683465383666245, -1.571700000000002;
    MoveL [ [-3.396, -13.939, 48.419], [0.125, -0.987, -0.103, 0.000], [0, 0, 0, 0], [ 9E9, 9E9, 9E9, 9E9, 9E9, 9E9] ], v1000, fine, pen\WObj:=platform;
    MoveL [ [-4.683, -1.572, -0.010], [0.125, -0.987, -0.103, 0.000], [0, 0, 0, 0], [ 9E9, 9E9, 9E9, 9E9, 9E9, 9E9] ], v30, fine, pen\WObj:=platform;
    MoveL [ [-3.396, -13.939, 48.419], [0.125, -0.987, -0.103, 0.000], [0, 0, 0, 0], [ 9E9, 9E9, 9E9, 9E9, 9E9, 9E9] ], v1000, fine, pen\WObj:=platform;
    
    !!-4.624922066370417, -1.6731000000000018;
    MoveL [ [-3.379, -13.903, 48.455], [0.124, -0.987, -0.101, 0.000], [0, 0, 0, 0], [ 9E9, 9E9, 9E9, 9E9, 9E9, 9E9] ], v1000, fine, pen\WObj:=platform;
    MoveL [ [-4.625, -1.673, -0.010], [0.124, -0.987, -0.101, 0.000], [0, 0, 0, 0], [ 9E9, 9E9, 9E9, 9E9, 9E9, 9E9] ], v30, fine, pen\WObj:=platform;
    MoveL [ [-3.379, -13.903, 48.455], [0.124, -0.987, -0.101, 0.000], [0, 0, 0, 0], [ 9E9, 9E9, 9E9, 9E9, 9E9, 9E9] ], v1000, fine, pen\WObj:=platform;
    
    !!-4.683465383666245, -1.7745000000000022;
    MoveL [ [-3.378, -13.855, 48.491], [0.122, -0.987, -0.107, 0.000], [0, 0, 0, 0], [ 9E9, 9E9, 9E9, 9E9, 9E9, 9E9] ], v1000, fine, pen\WObj:=platform;
    MoveL [ [-4.683, -1.775, -0.010], [0.122, -0.987, -0.107, 0.000], [0, 0, 0, 0], [ 9E9, 9E9, 9E9, 9E9, 9E9, 9E9] ], v30, fine, pen\WObj:=platform;
    MoveL [ [-3.378, -13.855, 48.491], [0.122, -0.987, -0.107, 0.000], [0, 0, 0, 0], [ 9E9, 9E9, 9E9, 9E9, 9E9, 9E9] ], v1000, fine, pen\WObj:=platform;
    
    !!-4.624922066370417, -1.8759000000000015;
    MoveL [ [-3.361, -13.819, 48.526], [0.121, -0.987, -0.105, 0.000], [0, 0, 0, 0], [ 9E9, 9E9, 9E9, 9E9, 9E9, 9E9] ], v1000, fine, pen\WObj:=platform;
    MoveL [ [-4.625, -1.876, -0.010], [0.121, -0.987, -0.105, 0.000], [0, 0, 0, 0], [ 9E9, 9E9, 9E9, 9E9, 9E9, 9E9] ], v30, fine, pen\WObj:=platform;
    MoveL [ [-3.361, -13.819, 48.526], [0.121, -0.987, -0.105, 0.000], [0, 0, 0, 0], [ 9E9, 9E9, 9E9, 9E9, 9E9, 9E9] ], v1000, fine, pen\WObj:=platform;
    
    !!-4.683465383666245, -1.9773000000000023;
    MoveL [ [-3.360, -13.769, 48.562], [0.120, -0.987, -0.111, 0.000], [0, 0, 0, 0], [ 9E9, 9E9, 9E9, 9E9, 9E9, 9E9] ], v1000, fine, pen\WObj:=platform;
    MoveL [ [-4.683, -1.977, -0.010], [0.120, -0.987, -0.111, 0.000], [0, 0, 0, 0], [ 9E9, 9E9, 9E9, 9E9, 9E9, 9E9] ], v30, fine, pen\WObj:=platform;
    MoveL [ [-3.360, -13.769, 48.562], [0.120, -0.987, -0.111, 0.000], [0, 0, 0, 0], [ 9E9, 9E9, 9E9, 9E9, 9E9, 9E9] ], v1000, fine, pen\WObj:=platform;
    
    !!-4.624922066370417, -2.0787000000000018;
    MoveL [ [-0.284, -15.728, 47.895], [0.145, -0.943, -0.300, 0.000], [0, 0, 0, 0], [ 9E9, 9E9, 9E9, 9E9, 9E9, 9E9] ], v1000, fine, pen\WObj:=platform;
    MoveL [ [-4.625, -2.079, -0.010], [0.145, -0.943, -0.300, 0.000], [0, 0, 0, 0], [ 9E9, 9E9, 9E9, 9E9, 9E9, 9E9] ], v30, fine, pen\WObj:=platform;
    MoveL [ [-0.284, -15.728, 47.895], [0.145, -0.943, -0.300, 0.000], [0, 0, 0, 0], [ 9E9, 9E9, 9E9, 9E9, 9E9, 9E9] ], v1000, fine, pen\WObj:=platform;
    
    !!-4.683465383666245, -2.180100000000002;
    MoveL [ [-3.341, -13.682, 48.630], [0.117, -0.986, -0.115, 0.000], [0, 0, 0, 0], [ 9E9, 9E9, 9E9, 9E9, 9E9, 9E9] ], v1000, fine, pen\WObj:=platform;
    MoveL [ [-4.683, -2.180, -0.010], [0.117, -0.986, -0.115, 0.000], [0, 0, 0, 0], [ 9E9, 9E9, 9E9, 9E9, 9E9, 9E9] ], v30, fine, pen\WObj:=platform;
    MoveL [ [-3.341, -13.682, 48.630], [0.117, -0.986, -0.115, 0.000], [0, 0, 0, 0], [ 9E9, 9E9, 9E9, 9E9, 9E9, 9E9] ], v1000, fine, pen\WObj:=platform;
    
    !!-4.624922066370417, -2.281500000000002;
    MoveL [ [-0.250, -15.613, 47.981], [0.142, -0.941, -0.309, 0.000], [0, 0, 0, 0], [ 9E9, 9E9, 9E9, 9E9, 9E9, 9E9] ], v1000, fine, pen\WObj:=platform;
    MoveL [ [-4.625, -2.282, -0.010], [0.142, -0.941, -0.309, 0.000], [0, 0, 0, 0], [ 9E9, 9E9, 9E9, 9E9, 9E9, 9E9] ], v30, fine, pen\WObj:=platform;
    MoveL [ [-0.250, -15.613, 47.981], [0.142, -0.941, -0.309, 0.000], [0, 0, 0, 0], [ 9E9, 9E9, 9E9, 9E9, 9E9, 9E9] ], v1000, fine, pen\WObj:=platform;
    
    !!-4.683465383666245, -2.382900000000002;
    MoveL [ [-3.323, -13.595, 48.698], [0.114, -0.986, -0.120, 0.000], [0, 0, 0, 0], [ 9E9, 9E9, 9E9, 9E9, 9E9, 9E9] ], v1000, fine, pen\WObj:=platform;
    MoveL [ [-4.683, -2.383, -0.010], [0.114, -0.986, -0.120, 0.000], [0, 0, 0, 0], [ 9E9, 9E9, 9E9, 9E9, 9E9, 9E9] ], v30, fine, pen\WObj:=platform;
    MoveL [ [-3.323, -13.595, 48.698], [0.114, -0.986, -0.120, 0.000], [0, 0, 0, 0], [ 9E9, 9E9, 9E9, 9E9, 9E9, 9E9] ], v1000, fine, pen\WObj:=platform;
    
    !!-4.624922066370417, -2.484300000000002;
    MoveL [ [-3.305, -13.557, 48.731], [0.112, -0.987, -0.118, 0.000], [0, 0, 0, 0], [ 9E9, 9E9, 9E9, 9E9, 9E9, 9E9] ], v1000, fine, pen\WObj:=platform;
    MoveL [ [-4.625, -2.484, -0.010], [0.112, -0.987, -0.118, 0.000], [0, 0, 0, 0], [ 9E9, 9E9, 9E9, 9E9, 9E9, 9E9] ], v30, fine, pen\WObj:=platform;
    MoveL [ [-3.305, -13.557, 48.731], [0.112, -0.987, -0.118, 0.000], [0, 0, 0, 0], [ 9E9, 9E9, 9E9, 9E9, 9E9, 9E9] ], v1000, fine, pen\WObj:=platform;
    
    !!-4.683465383666245, -2.585700000000002;
    MoveL [ [-3.304, -13.506, 48.763], [0.111, -0.986, -0.125, 0.000], [0, 0, 0, 0], [ 9E9, 9E9, 9E9, 9E9, 9E9, 9E9] ], v1000, fine, pen\WObj:=platform;
    MoveL [ [-4.683, -2.586, -0.010], [0.111, -0.986, -0.125, 0.000], [0, 0, 0, 0], [ 9E9, 9E9, 9E9, 9E9, 9E9, 9E9] ], v30, fine, pen\WObj:=platform;
    MoveL [ [-3.304, -13.506, 48.763], [0.111, -0.986, -0.125, 0.000], [0, 0, 0, 0], [ 9E9, 9E9, 9E9, 9E9, 9E9, 9E9] ], v1000, fine, pen\WObj:=platform;
    
    !!-4.624922066370417, -2.6871000000000023;
    MoveL [ [-0.181, -15.378, 48.148], [0.136, -0.935, -0.327, 0.000], [0, 0, 0, 0], [ 9E9, 9E9, 9E9, 9E9, 9E9, 9E9] ], v1000, fine, pen\WObj:=platform;
    MoveL [ [-4.625, -2.687, -0.010], [0.136, -0.935, -0.327, 0.000], [0, 0, 0, 0], [ 9E9, 9E9, 9E9, 9E9, 9E9, 9E9] ], v30, fine, pen\WObj:=platform;
    MoveL [ [-0.181, -15.378, 48.148], [0.136, -0.935, -0.327, 0.000], [0, 0, 0, 0], [ 9E9, 9E9, 9E9, 9E9, 9E9, 9E9] ], v1000, fine, pen\WObj:=platform;
    
    !!-4.683465383666245, -2.7885000000000018;
    MoveL [ [-3.284, -13.415, 48.828], [0.108, -0.986, -0.130, 0.000], [0, 0, 0, 0], [ 9E9, 9E9, 9E9, 9E9, 9E9, 9E9] ], v1000, fine, pen\WObj:=platform;
    MoveL [ [-4.683, -2.789, -0.010], [0.108, -0.986, -0.130, 0.000], [0, 0, 0, 0], [ 9E9, 9E9, 9E9, 9E9, 9E9, 9E9] ], v30, fine, pen\WObj:=platform;
    MoveL [ [-3.284, -13.415, 48.828], [0.108, -0.986, -0.130, 0.000], [0, 0, 0, 0], [ 9E9, 9E9, 9E9, 9E9, 9E9, 9E9] ], v1000, fine, pen\WObj:=platform;
    
    !!-4.624922066370417, -2.8899000000000026;
    MoveL [ [-3.266, -13.377, 48.859], [0.106, -0.986, -0.128, 0.000], [0, 0, 0, 0], [ 9E9, 9E9, 9E9, 9E9, 9E9, 9E9] ], v1000, fine, pen\WObj:=platform;
    MoveL [ [-4.625, -2.890, -0.010], [0.106, -0.986, -0.128, 0.000], [0, 0, 0, 0], [ 9E9, 9E9, 9E9, 9E9, 9E9, 9E9] ], v30, fine, pen\WObj:=platform;
    MoveL [ [-3.266, -13.377, 48.859], [0.106, -0.986, -0.128, 0.000], [0, 0, 0, 0], [ 9E9, 9E9, 9E9, 9E9, 9E9, 9E9] ], v1000, fine, pen\WObj:=platform;
    
    !!-4.683465383666245, -2.9913000000000025;
    MoveL [ [-0.137, -15.186, 48.266], [0.131, -0.929, -0.346, 0.000], [0, 0, 0, 0], [ 9E9, 9E9, 9E9, 9E9, 9E9, 9E9] ], v1000, fine, pen\WObj:=platform;
    MoveL [ [-4.683, -2.991, -0.010], [0.131, -0.929, -0.346, 0.000], [0, 0, 0, 0], [ 9E9, 9E9, 9E9, 9E9, 9E9, 9E9] ], v30, fine, pen\WObj:=platform;
    MoveL [ [-0.137, -15.186, 48.266], [0.131, -0.929, -0.346, 0.000], [0, 0, 0, 0], [ 9E9, 9E9, 9E9, 9E9, 9E9, 9E9] ], v1000, fine, pen\WObj:=platform;
    
    !!-4.624922066370417, -3.0927000000000024;
    MoveL [ [-3.246, -13.285, 48.921], [0.103, -0.986, -0.133, 0.000], [0, 0, 0, 0], [ 9E9, 9E9, 9E9, 9E9, 9E9, 9E9] ], v1000, fine, pen\WObj:=platform;
    MoveL [ [-4.625, -3.093, -0.010], [0.103, -0.986, -0.133, 0.000], [0, 0, 0, 0], [ 9E9, 9E9, 9E9, 9E9, 9E9, 9E9] ], v30, fine, pen\WObj:=platform;
    MoveL [ [-3.246, -13.285, 48.921], [0.103, -0.986, -0.133, 0.000], [0, 0, 0, 0], [ 9E9, 9E9, 9E9, 9E9, 9E9, 9E9] ], v1000, fine, pen\WObj:=platform;
    
    !!-4.683465383666245, -3.194100000000002;
    MoveL [ [-3.245, -13.232, 48.951], [0.102, -0.985, -0.141, 0.000], [0, 0, 0, 0], [ 9E9, 9E9, 9E9, 9E9, 9E9, 9E9] ], v1000, fine, pen\WObj:=platform;
    MoveL [ [-4.683, -3.194, -0.010], [0.102, -0.985, -0.141, 0.000], [0, 0, 0, 0], [ 9E9, 9E9, 9E9, 9E9, 9E9, 9E9] ], v30, fine, pen\WObj:=platform;
    MoveL [ [-3.245, -13.232, 48.951], [0.102, -0.985, -0.141, 0.000], [0, 0, 0, 0], [ 9E9, 9E9, 9E9, 9E9, 9E9, 9E9] ], v1000, fine, pen\WObj:=platform;
    
    !!-4.624922066370417, -3.2955000000000023;
    MoveL [ [-3.226, -13.192, 48.981], [0.100, -0.985, -0.139, 0.000], [0, 0, 0, 0], [ 9E9, 9E9, 9E9, 9E9, 9E9, 9E9] ], v1000, fine, pen\WObj:=platform;
    MoveL [ [-4.625, -3.296, -0.010], [0.100, -0.985, -0.139, 0.000], [0, 0, 0, 0], [ 9E9, 9E9, 9E9, 9E9, 9E9, 9E9] ], v30, fine, pen\WObj:=platform;
    MoveL [ [-3.226, -13.192, 48.981], [0.100, -0.985, -0.139, 0.000], [0, 0, 0, 0], [ 9E9, 9E9, 9E9, 9E9, 9E9, 9E9] ], v1000, fine, pen\WObj:=platform;
    
    !!-4.683465383666245, -3.3969000000000023;
    MoveL [ [-0.066, -14.940, 48.420], [0.125, -0.921, -0.368, 0.000], [0, 0, 0, 0], [ 9E9, 9E9, 9E9, 9E9, 9E9, 9E9] ], v1000, fine, pen\WObj:=platform;
    MoveL [ [-4.683, -3.397, -0.010], [0.125, -0.921, -0.368, 0.000], [0, 0, 0, 0], [ 9E9, 9E9, 9E9, 9E9, 9E9, 9E9] ], v30, fine, pen\WObj:=platform;
    MoveL [ [-0.066, -14.940, 48.420], [0.125, -0.921, -0.368, 0.000], [0, 0, 0, 0], [ 9E9, 9E9, 9E9, 9E9, 9E9, 9E9] ], v1000, fine, pen\WObj:=platform;
    
    !!-4.624922066370417, -3.498300000000002;
    MoveL [ [-3.206, -13.099, 49.039], [0.098, -0.985, -0.146, 0.000], [0, 0, 0, 0], [ 9E9, 9E9, 9E9, 9E9, 9E9, 9E9] ], v1000, fine, pen\WObj:=platform;
    MoveL [ [-4.625, -3.498, -0.010], [0.098, -0.985, -0.146, 0.000], [0, 0, 0, 0], [ 9E9, 9E9, 9E9, 9E9, 9E9, 9E9] ], v30, fine, pen\WObj:=platform;
    MoveL [ [-3.206, -13.099, 49.039], [0.098, -0.985, -0.146, 0.000], [0, 0, 0, 0], [ 9E9, 9E9, 9E9, 9E9, 9E9, 9E9] ], v1000, fine, pen\WObj:=platform;
    
    !!-4.683465383666245, -3.599700000000002;
    MoveL [ [-3.204, -13.045, 49.068], [0.096, -0.983, -0.154, 0.000], [0, 0, 0, 0], [ 9E9, 9E9, 9E9, 9E9, 9E9, 9E9] ], v1000, fine, pen\WObj:=platform;
    MoveL [ [-4.683, -3.600, -0.010], [0.096, -0.983, -0.154, 0.000], [0, 0, 0, 0], [ 9E9, 9E9, 9E9, 9E9, 9E9, 9E9] ], v30, fine, pen\WObj:=platform;
    MoveL [ [-3.204, -13.045, 49.068], [0.096, -0.983, -0.154, 0.000], [0, 0, 0, 0], [ 9E9, 9E9, 9E9, 9E9, 9E9, 9E9] ], v1000, fine, pen\WObj:=platform;
    
    !!-4.624922066370417, -3.7011000000000016;
    MoveL [ [-3.185, -13.004, 49.096], [0.095, -0.984, -0.152, 0.000], [0, 0, 0, 0], [ 9E9, 9E9, 9E9, 9E9, 9E9, 9E9] ], v1000, fine, pen\WObj:=platform;
    MoveL [ [-4.625, -3.701, -0.010], [0.095, -0.984, -0.152, 0.000], [0, 0, 0, 0], [ 9E9, 9E9, 9E9, 9E9, 9E9, 9E9] ], v30, fine, pen\WObj:=platform;
    MoveL [ [-3.185, -13.004, 49.096], [0.095, -0.984, -0.152, 0.000], [0, 0, 0, 0], [ 9E9, 9E9, 9E9, 9E9, 9E9, 9E9] ], v1000, fine, pen\WObj:=platform;
    
    !!-4.683465383666245, -3.8025000000000024;
    MoveL [ [-3.183, -12.949, 49.123], [0.093, -0.983, -0.161, 0.000], [0, 0, 0, 0], [ 9E9, 9E9, 9E9, 9E9, 9E9, 9E9] ], v1000, fine, pen\WObj:=platform;
    MoveL [ [-4.683, -3.803, -0.010], [0.093, -0.983, -0.161, 0.000], [0, 0, 0, 0], [ 9E9, 9E9, 9E9, 9E9, 9E9, 9E9] ], v30, fine, pen\WObj:=platform;
    MoveL [ [-3.183, -12.949, 49.123], [0.093, -0.983, -0.161, 0.000], [0, 0, 0, 0], [ 9E9, 9E9, 9E9, 9E9, 9E9, 9E9] ], v1000, fine, pen\WObj:=platform;
    
    !!-4.624922066370417, -3.9039000000000024;
    MoveL [ [0.031, -14.634, 48.603], [0.118, -0.911, -0.395, 0.000], [0, 0, 0, 0], [ 9E9, 9E9, 9E9, 9E9, 9E9, 9E9] ], v1000, fine, pen\WObj:=platform;
    MoveL [ [-4.625, -3.904, -0.010], [0.118, -0.911, -0.395, 0.000], [0, 0, 0, 0], [ 9E9, 9E9, 9E9, 9E9, 9E9, 9E9] ], v30, fine, pen\WObj:=platform;
    MoveL [ [0.031, -14.634, 48.603], [0.118, -0.911, -0.395, 0.000], [0, 0, 0, 0], [ 9E9, 9E9, 9E9, 9E9, 9E9, 9E9] ], v1000, fine, pen\WObj:=platform;
    
    !!-4.683465383666245, -4.005300000000003;
    MoveL [ [-3.162, -12.853, 49.177], [0.090, -0.982, -0.169, 0.000], [0, 0, 0, 0], [ 9E9, 9E9, 9E9, 9E9, 9E9, 9E9] ], v1000, fine, pen\WObj:=platform;
    MoveL [ [-4.683, -4.005, -0.010], [0.090, -0.982, -0.169, 0.000], [0, 0, 0, 0], [ 9E9, 9E9, 9E9, 9E9, 9E9, 9E9] ], v30, fine, pen\WObj:=platform;
    MoveL [ [-3.162, -12.853, 49.177], [0.090, -0.982, -0.169, 0.000], [0, 0, 0, 0], [ 9E9, 9E9, 9E9, 9E9, 9E9, 9E9] ], v1000, fine, pen\WObj:=platform;
    
    !!-4.624922066370417, -4.106700000000002;
    MoveL [ [-3.143, -12.812, 49.204], [0.089, -0.982, -0.167, 0.000], [0, 0, 0, 0], [ 9E9, 9E9, 9E9, 9E9, 9E9, 9E9] ], v1000, fine, pen\WObj:=platform;
    MoveL [ [-4.625, -4.107, -0.010], [0.089, -0.982, -0.167, 0.000], [0, 0, 0, 0], [ 9E9, 9E9, 9E9, 9E9, 9E9, 9E9] ], v30, fine, pen\WObj:=platform;
    MoveL [ [-3.143, -12.812, 49.204], [0.089, -0.982, -0.167, 0.000], [0, 0, 0, 0], [ 9E9, 9E9, 9E9, 9E9, 9E9, 9E9] ], v1000, fine, pen\WObj:=platform;
    
    !!-4.683465383666245, -4.208100000000003;
    MoveL [ [-3.141, -12.756, 49.230], [0.087, -0.980, -0.177, 0.000], [0, 0, 0, 0], [ 9E9, 9E9, 9E9, 9E9, 9E9, 9E9] ], v1000, fine, pen\WObj:=platform;
    MoveL [ [-4.683, -4.208, -0.010], [0.087, -0.980, -0.177, 0.000], [0, 0, 0, 0], [ 9E9, 9E9, 9E9, 9E9, 9E9, 9E9] ], v30, fine, pen\WObj:=platform;
    MoveL [ [-3.141, -12.756, 49.230], [0.087, -0.980, -0.177, 0.000], [0, 0, 0, 0], [ 9E9, 9E9, 9E9, 9E9, 9E9, 9E9] ], v1000, fine, pen\WObj:=platform;
    
    !!-4.624922066370417, -4.3095000000000026;
    MoveL [ [-3.122, -12.714, 49.256], [0.086, -0.981, -0.175, 0.000], [0, 0, 0, 0], [ 9E9, 9E9, 9E9, 9E9, 9E9, 9E9] ], v1000, fine, pen\WObj:=platform;
    MoveL [ [-4.625, -4.310, -0.010], [0.086, -0.981, -0.175, 0.000], [0, 0, 0, 0], [ 9E9, 9E9, 9E9, 9E9, 9E9, 9E9] ], v30, fine, pen\WObj:=platform;
    MoveL [ [-3.122, -12.714, 49.256], [0.086, -0.981, -0.175, 0.000], [0, 0, 0, 0], [ 9E9, 9E9, 9E9, 9E9, 9E9, 9E9] ], v1000, fine, pen\WObj:=platform;
    
    !!-4.683465383666245, -4.410900000000002;
    MoveL [ [-3.119, -12.658, 49.280], [0.084, -0.979, -0.186, 0.000], [0, 0, 0, 0], [ 9E9, 9E9, 9E9, 9E9, 9E9, 9E9] ], v1000, fine, pen\WObj:=platform;
    MoveL [ [-4.683, -4.411, -0.010], [0.084, -0.979, -0.186, 0.000], [0, 0, 0, 0], [ 9E9, 9E9, 9E9, 9E9, 9E9, 9E9] ], v30, fine, pen\WObj:=platform;
    MoveL [ [-3.119, -12.658, 49.280], [0.084, -0.979, -0.186, 0.000], [0, 0, 0, 0], [ 9E9, 9E9, 9E9, 9E9, 9E9, 9E9] ], v1000, fine, pen\WObj:=platform;
    
    !!-4.624922066370417, -4.512300000000003;
    MoveL [ [-3.100, -12.616, 49.305], [0.083, -0.979, -0.184, 0.000], [0, 0, 0, 0], [ 9E9, 9E9, 9E9, 9E9, 9E9, 9E9] ], v1000, fine, pen\WObj:=platform;
    MoveL [ [-4.625, -4.512, -0.010], [0.083, -0.979, -0.184, 0.000], [0, 0, 0, 0], [ 9E9, 9E9, 9E9, 9E9, 9E9, 9E9] ], v30, fine, pen\WObj:=platform;
    MoveL [ [-3.100, -12.616, 49.305], [0.083, -0.979, -0.184, 0.000], [0, 0, 0, 0], [ 9E9, 9E9, 9E9, 9E9, 9E9, 9E9] ], v1000, fine, pen\WObj:=platform;
    
    !!-4.683465383666245, -4.613700000000003;
    MoveL [ [0.148, -14.165, 48.831], [0.108, -0.887, -0.449, 0.000], [0, 0, 0, 0], [ 9E9, 9E9, 9E9, 9E9, 9E9, 9E9] ], v1000, fine, pen\WObj:=platform;
    MoveL [ [-4.683, -4.614, -0.010], [0.108, -0.887, -0.449, 0.000], [0, 0, 0, 0], [ 9E9, 9E9, 9E9, 9E9, 9E9, 9E9] ], v30, fine, pen\WObj:=platform;
    MoveL [ [0.148, -14.165, 48.831], [0.108, -0.887, -0.449, 0.000], [0, 0, 0, 0], [ 9E9, 9E9, 9E9, 9E9, 9E9, 9E9] ], v1000, fine, pen\WObj:=platform;
    
    !!-4.624922066370417, -4.715100000000002;
    MoveL [ [-3.078, -12.517, 49.353], [0.080, -0.978, -0.194, 0.000], [0, 0, 0, 0], [ 9E9, 9E9, 9E9, 9E9, 9E9, 9E9] ], v1000, fine, pen\WObj:=platform;
    MoveL [ [-4.625, -4.715, -0.010], [0.080, -0.978, -0.194, 0.000], [0, 0, 0, 0], [ 9E9, 9E9, 9E9, 9E9, 9E9, 9E9] ], v30, fine, pen\WObj:=platform;
    MoveL [ [-3.078, -12.517, 49.353], [0.080, -0.978, -0.194, 0.000], [0, 0, 0, 0], [ 9E9, 9E9, 9E9, 9E9, 9E9, 9E9] ], v1000, fine, pen\WObj:=platform;
    
    !!-4.683465383666245, -4.816500000000002;
    MoveL [ [-3.075, -12.460, 49.376], [0.078, -0.976, -0.205, 0.000], [0, 0, 0, 0], [ 9E9, 9E9, 9E9, 9E9, 9E9, 9E9] ], v1000, fine, pen\WObj:=platform;
    MoveL [ [-4.683, -4.817, -0.010], [0.078, -0.976, -0.205, 0.000], [0, 0, 0, 0], [ 9E9, 9E9, 9E9, 9E9, 9E9, 9E9] ], v30, fine, pen\WObj:=platform;
    MoveL [ [-3.075, -12.460, 49.376], [0.078, -0.976, -0.205, 0.000], [0, 0, 0, 0], [ 9E9, 9E9, 9E9, 9E9, 9E9, 9E9] ], v1000, fine, pen\WObj:=platform;
    
    !!-4.624922066370417, -4.917900000000002;
    MoveL [ [-3.056, -12.417, 49.400], [0.077, -0.976, -0.204, 0.000], [0, 0, 0, 0], [ 9E9, 9E9, 9E9, 9E9, 9E9, 9E9] ], v1000, fine, pen\WObj:=platform;
    MoveL [ [-4.625, -4.918, -0.010], [0.077, -0.976, -0.204, 0.000], [0, 0, 0, 0], [ 9E9, 9E9, 9E9, 9E9, 9E9, 9E9] ], v30, fine, pen\WObj:=platform;
    MoveL [ [-3.056, -12.417, 49.400], [0.077, -0.976, -0.204, 0.000], [0, 0, 0, 0], [ 9E9, 9E9, 9E9, 9E9, 9E9, 9E9] ], v1000, fine, pen\WObj:=platform;
    
    !!-4.683465383666245, -5.019300000000003;
    MoveL [ [-3.053, -12.359, 49.421], [0.075, -0.973, -0.216, 0.000], [0, 0, 0, 0], [ 9E9, 9E9, 9E9, 9E9, 9E9, 9E9] ], v1000, fine, pen\WObj:=platform;
    MoveL [ [-4.683, -5.019, -0.010], [0.075, -0.973, -0.216, 0.000], [0, 0, 0, 0], [ 9E9, 9E9, 9E9, 9E9, 9E9, 9E9] ], v30, fine, pen\WObj:=platform;
    MoveL [ [-3.053, -12.359, 49.421], [0.075, -0.973, -0.216, 0.000], [0, 0, 0, 0], [ 9E9, 9E9, 9E9, 9E9, 9E9, 9E9] ], v1000, fine, pen\WObj:=platform;
    
    !!-4.624922066370417, -5.120700000000003;
    MoveL [ [0.248, -13.839, 48.982], [0.100, -0.869, -0.485, 0.000], [0, 0, 0, 0], [ 9E9, 9E9, 9E9, 9E9, 9E9, 9E9] ], v1000, fine, pen\WObj:=platform;
    MoveL [ [-4.625, -5.121, -0.010], [0.100, -0.869, -0.485, 0.000], [0, 0, 0, 0], [ 9E9, 9E9, 9E9, 9E9, 9E9, 9E9] ], v30, fine, pen\WObj:=platform;
    MoveL [ [0.248, -13.839, 48.982], [0.100, -0.869, -0.485, 0.000], [0, 0, 0, 0], [ 9E9, 9E9, 9E9, 9E9, 9E9, 9E9] ], v1000, fine, pen\WObj:=platform;
    
    !!-4.683465383666245, -5.222100000000003;
    MoveL [ [-3.030, -12.258, 49.465], [0.072, -0.971, -0.228, 0.000], [0, 0, 0, 0], [ 9E9, 9E9, 9E9, 9E9, 9E9, 9E9] ], v1000, fine, pen\WObj:=platform;
    MoveL [ [-4.683, -5.222, -0.010], [0.072, -0.971, -0.228, 0.000], [0, 0, 0, 0], [ 9E9, 9E9, 9E9, 9E9, 9E9, 9E9] ], v30, fine, pen\WObj:=platform;
    MoveL [ [-3.030, -12.258, 49.465], [0.072, -0.971, -0.228, 0.000], [0, 0, 0, 0], [ 9E9, 9E9, 9E9, 9E9, 9E9, 9E9] ], v1000, fine, pen\WObj:=platform;
    
    !!-4.624922066370417, -5.323500000000003;
    MoveL [ [0.284, -13.702, 49.038], [0.098, -0.859, -0.503, 0.000], [0, 0, 0, 0], [ 9E9, 9E9, 9E9, 9E9, 9E9, 9E9] ], v1000, fine, pen\WObj:=platform;
    MoveL [ [-4.625, -5.324, -0.010], [0.098, -0.859, -0.503, 0.000], [0, 0, 0, 0], [ 9E9, 9E9, 9E9, 9E9, 9E9, 9E9] ], v30, fine, pen\WObj:=platform;
    MoveL [ [0.284, -13.702, 49.038], [0.098, -0.859, -0.503, 0.000], [0, 0, 0, 0], [ 9E9, 9E9, 9E9, 9E9, 9E9, 9E9] ], v1000, fine, pen\WObj:=platform;
    
    !!-4.683465383666245, -5.424900000000003;
    MoveL [ [-3.008, -12.156, 49.507], [0.070, -0.968, -0.241, 0.000], [0, 0, 0, 0], [ 9E9, 9E9, 9E9, 9E9, 9E9, 9E9] ], v1000, fine, pen\WObj:=platform;
    MoveL [ [-4.683, -5.425, -0.010], [0.070, -0.968, -0.241, 0.000], [0, 0, 0, 0], [ 9E9, 9E9, 9E9, 9E9, 9E9, 9E9] ], v30, fine, pen\WObj:=platform;
    MoveL [ [-3.008, -12.156, 49.507], [0.070, -0.968, -0.241, 0.000], [0, 0, 0, 0], [ 9E9, 9E9, 9E9, 9E9, 9E9, 9E9] ], v1000, fine, pen\WObj:=platform;
    
    !!-4.624922066370417, -5.526300000000002;
    MoveL [ [0.320, -13.564, 49.091], [0.095, -0.848, -0.522, 0.000], [0, 0, 0, 0], [ 9E9, 9E9, 9E9, 9E9, 9E9, 9E9] ], v1000, fine, pen\WObj:=platform;
    MoveL [ [-4.625, -5.526, -0.010], [0.095, -0.848, -0.522, 0.000], [0, 0, 0, 0], [ 9E9, 9E9, 9E9, 9E9, 9E9, 9E9] ], v30, fine, pen\WObj:=platform;
    MoveL [ [0.320, -13.564, 49.091], [0.095, -0.848, -0.522, 0.000], [0, 0, 0, 0], [ 9E9, 9E9, 9E9, 9E9, 9E9, 9E9] ], v1000, fine, pen\WObj:=platform;
    
    !!-4.683465383666245, -5.627700000000003;
    MoveL [ [-2.985, -12.053, 49.546], [0.067, -0.965, -0.255, 0.000], [0, 0, 0, 0], [ 9E9, 9E9, 9E9, 9E9, 9E9, 9E9] ], v1000, fine, pen\WObj:=platform;
    MoveL [ [-4.683, -5.628, -0.010], [0.067, -0.965, -0.255, 0.000], [0, 0, 0, 0], [ 9E9, 9E9, 9E9, 9E9, 9E9, 9E9] ], v30, fine, pen\WObj:=platform;
    MoveL [ [-2.985, -12.053, 49.546], [0.067, -0.965, -0.255, 0.000], [0, 0, 0, 0], [ 9E9, 9E9, 9E9, 9E9, 9E9, 9E9] ], v1000, fine, pen\WObj:=platform;
    
    !!-4.624922066370417, -5.729100000000003;
    MoveL [ [-2.965, -12.009, 49.566], [0.065, -0.965, -0.255, 0.000], [0, 0, 0, 0], [ 9E9, 9E9, 9E9, 9E9, 9E9, 9E9] ], v1000, fine, pen\WObj:=platform;
    MoveL [ [-4.625, -5.729, -0.010], [0.065, -0.965, -0.255, 0.000], [0, 0, 0, 0], [ 9E9, 9E9, 9E9, 9E9, 9E9, 9E9] ], v30, fine, pen\WObj:=platform;
    MoveL [ [-2.965, -12.009, 49.566], [0.065, -0.965, -0.255, 0.000], [0, 0, 0, 0], [ 9E9, 9E9, 9E9, 9E9, 9E9, 9E9] ], v1000, fine, pen\WObj:=platform;
    
    !!-4.683465383666245, -5.8305000000000025;
    MoveL [ [-2.961, -11.950, 49.584], [0.064, -0.961, -0.270, 0.000], [0, 0, 0, 0], [ 9E9, 9E9, 9E9, 9E9, 9E9, 9E9] ], v1000, fine, pen\WObj:=platform;
    MoveL [ [-4.683, -5.831, -0.010], [0.064, -0.961, -0.270, 0.000], [0, 0, 0, 0], [ 9E9, 9E9, 9E9, 9E9, 9E9, 9E9] ], v30, fine, pen\WObj:=platform;
    MoveL [ [-2.961, -11.950, 49.584], [0.064, -0.961, -0.270, 0.000], [0, 0, 0, 0], [ 9E9, 9E9, 9E9, 9E9, 9E9, 9E9] ], v1000, fine, pen\WObj:=platform;
    
    !!-4.624922066370417, -5.931900000000003;
    MoveL [ [0.393, -13.284, 49.191], [0.089, -0.823, -0.561, 0.000], [0, 0, 0, 0], [ 9E9, 9E9, 9E9, 9E9, 9E9, 9E9] ], v1000, fine, pen\WObj:=platform;
    MoveL [ [-4.625, -5.932, -0.010], [0.089, -0.823, -0.561, 0.000], [0, 0, 0, 0], [ 9E9, 9E9, 9E9, 9E9, 9E9, 9E9] ], v30, fine, pen\WObj:=platform;
    MoveL [ [0.393, -13.284, 49.191], [0.089, -0.823, -0.561, 0.000], [0, 0, 0, 0], [ 9E9, 9E9, 9E9, 9E9, 9E9, 9E9] ], v1000, fine, pen\WObj:=platform;
    
    !!-4.683465383666245, -6.033300000000004;
    MoveL [ [-2.938, -11.846, 49.620], [0.061, -0.956, -0.287, 0.000], [0, 0, 0, 0], [ 9E9, 9E9, 9E9, 9E9, 9E9, 9E9] ], v1000, fine, pen\WObj:=platform;
    MoveL [ [-4.683, -6.033, -0.010], [0.061, -0.956, -0.287, 0.000], [0, 0, 0, 0], [ 9E9, 9E9, 9E9, 9E9, 9E9, 9E9] ], v30, fine, pen\WObj:=platform;
    MoveL [ [-2.938, -11.846, 49.620], [0.061, -0.956, -0.287, 0.000], [0, 0, 0, 0], [ 9E9, 9E9, 9E9, 9E9, 9E9, 9E9] ], v1000, fine, pen\WObj:=platform;
    
    !!-4.624922066370417, -6.134700000000003;
    MoveL [ [-2.917, -11.801, 49.638], [0.059, -0.956, -0.288, 0.000], [0, 0, 0, 0], [ 9E9, 9E9, 9E9, 9E9, 9E9, 9E9] ], v1000, fine, pen\WObj:=platform;
    MoveL [ [-4.625, -6.135, -0.010], [0.059, -0.956, -0.288, 0.000], [0, 0, 0, 0], [ 9E9, 9E9, 9E9, 9E9, 9E9, 9E9] ], v30, fine, pen\WObj:=platform;
    MoveL [ [-2.917, -11.801, 49.638], [0.059, -0.956, -0.288, 0.000], [0, 0, 0, 0], [ 9E9, 9E9, 9E9, 9E9, 9E9, 9E9] ], v1000, fine, pen\WObj:=platform;
    
    !!-4.683465383666245, -6.236100000000002;
    MoveL [ [-2.914, -11.742, 49.654], [0.058, -0.950, -0.305, 0.000], [0, 0, 0, 0], [ 9E9, 9E9, 9E9, 9E9, 9E9, 9E9] ], v1000, fine, pen\WObj:=platform;
    MoveL [ [-4.683, -6.236, -0.010], [0.058, -0.950, -0.305, 0.000], [0, 0, 0, 0], [ 9E9, 9E9, 9E9, 9E9, 9E9, 9E9] ], v30, fine, pen\WObj:=platform;
    MoveL [ [-2.914, -11.742, 49.654], [0.058, -0.950, -0.305, 0.000], [0, 0, 0, 0], [ 9E9, 9E9, 9E9, 9E9, 9E9, 9E9] ], v1000, fine, pen\WObj:=platform;
    
    !!-4.624922066370417, -6.337500000000001;
    MoveL [ [0.467, -13.001, 49.282], [0.084, -0.792, -0.605, 0.000], [0, 0, 0, 0], [ 9E9, 9E9, 9E9, 9E9, 9E9, 9E9] ], v1000, fine, pen\WObj:=platform;
    MoveL [ [-4.625, -6.338, -0.010], [0.084, -0.792, -0.605, 0.000], [0, 0, 0, 0], [ 9E9, 9E9, 9E9, 9E9, 9E9, 9E9] ], v30, fine, pen\WObj:=platform;
    MoveL [ [0.467, -13.001, 49.282], [0.084, -0.792, -0.605, 0.000], [0, 0, 0, 0], [ 9E9, 9E9, 9E9, 9E9, 9E9, 9E9] ], v1000, fine, pen\WObj:=platform;
    
    !!-4.683465383666245, -6.438900000000003;
    MoveL [ [-2.890, -11.637, 49.687], [0.055, -0.944, -0.326, 0.000], [0, 0, 0, 0], [ 9E9, 9E9, 9E9, 9E9, 9E9, 9E9] ], v1000, fine, pen\WObj:=platform;
    MoveL [ [-4.683, -6.439, -0.010], [0.055, -0.944, -0.326, 0.000], [0, 0, 0, 0], [ 9E9, 9E9, 9E9, 9E9, 9E9, 9E9] ], v30, fine, pen\WObj:=platform;
    MoveL [ [-2.890, -11.637, 49.687], [0.055, -0.944, -0.326, 0.000], [0, 0, 0, 0], [ 9E9, 9E9, 9E9, 9E9, 9E9, 9E9] ], v1000, fine, pen\WObj:=platform;
    
    !!-4.624922066370417, -6.540300000000004;
    MoveL [ [-2.869, -11.591, 49.703], [0.054, -0.943, -0.328, 0.000], [0, 0, 0, 0], [ 9E9, 9E9, 9E9, 9E9, 9E9, 9E9] ], v1000, fine, pen\WObj:=platform;
    MoveL [ [-4.625, -6.540, -0.010], [0.054, -0.943, -0.328, 0.000], [0, 0, 0, 0], [ 9E9, 9E9, 9E9, 9E9, 9E9, 9E9] ], v30, fine, pen\WObj:=platform;
    MoveL [ [-2.869, -11.591, 49.703], [0.054, -0.943, -0.328, 0.000], [0, 0, 0, 0], [ 9E9, 9E9, 9E9, 9E9, 9E9, 9E9] ], v1000, fine, pen\WObj:=platform;
    
    !!-4.683465383666245, -6.641700000000002;
    MoveL [ [0.513, -12.775, 49.340], [0.081, -0.760, -0.644, 0.000], [0, 0, 0, 0], [ 9E9, 9E9, 9E9, 9E9, 9E9, 9E9] ], v1000, fine, pen\WObj:=platform;
    MoveL [ [-4.683, -6.642, -0.010], [0.081, -0.760, -0.644, 0.000], [0, 0, 0, 0], [ 9E9, 9E9, 9E9, 9E9, 9E9, 9E9] ], v30, fine, pen\WObj:=platform;
    MoveL [ [0.513, -12.775, 49.340], [0.081, -0.760, -0.644, 0.000], [0, 0, 0, 0], [ 9E9, 9E9, 9E9, 9E9, 9E9, 9E9] ], v1000, fine, pen\WObj:=platform;
    
    !!-4.624922066370417, -6.743100000000004;
    MoveL [ [-2.845, -11.486, 49.733], [0.051, -0.935, -0.351, 0.000], [0, 0, 0, 0], [ 9E9, 9E9, 9E9, 9E9, 9E9, 9E9] ], v1000, fine, pen\WObj:=platform;
    MoveL [ [-4.625, -6.743, -0.010], [0.051, -0.935, -0.351, 0.000], [0, 0, 0, 0], [ 9E9, 9E9, 9E9, 9E9, 9E9, 9E9] ], v30, fine, pen\WObj:=platform;
    MoveL [ [-2.845, -11.486, 49.733], [0.051, -0.935, -0.351, 0.000], [0, 0, 0, 0], [ 9E9, 9E9, 9E9, 9E9, 9E9, 9E9] ], v1000, fine, pen\WObj:=platform;
    
    !!-4.683465383666245, -6.844500000000004;
    MoveL [ [-2.841, -11.425, 49.746], [0.049, -0.927, -0.373, 0.000], [0, 0, 0, 0], [ 9E9, 9E9, 9E9, 9E9, 9E9, 9E9] ], v1000, fine, pen\WObj:=platform;
    MoveL [ [-4.683, -6.845, -0.010], [0.049, -0.927, -0.373, 0.000], [0, 0, 0, 0], [ 9E9, 9E9, 9E9, 9E9, 9E9, 9E9] ], v30, fine, pen\WObj:=platform;
    MoveL [ [-2.841, -11.425, 49.746], [0.049, -0.927, -0.373, 0.000], [0, 0, 0, 0], [ 9E9, 9E9, 9E9, 9E9, 9E9, 9E9] ], v1000, fine, pen\WObj:=platform;
    
    !!-4.624922066370417, -6.945900000000003;
    MoveL [ [-2.821, -11.379, 49.760], [0.048, -0.925, -0.377, 0.000], [0, 0, 0, 0], [ 9E9, 9E9, 9E9, 9E9, 9E9, 9E9] ], v1000, fine, pen\WObj:=platform;
    MoveL [ [-4.625, -6.946, -0.010], [0.048, -0.925, -0.377, 0.000], [0, 0, 0, 0], [ 9E9, 9E9, 9E9, 9E9, 9E9, 9E9] ], v30, fine, pen\WObj:=platform;
    MoveL [ [-2.821, -11.379, 49.760], [0.048, -0.925, -0.377, 0.000], [0, 0, 0, 0], [ 9E9, 9E9, 9E9, 9E9, 9E9, 9E9] ], v1000, fine, pen\WObj:=platform;
    
    !!-4.683465383666245, -7.047300000000002;
    MoveL [ [0.586, -12.485, 49.413], [0.076, -0.716, -0.694, 0.000], [0, 0, 0, 0], [ 9E9, 9E9, 9E9, 9E9, 9E9, 9E9] ], v1000, fine, pen\WObj:=platform;
    MoveL [ [-4.683, -7.047, -0.010], [0.076, -0.716, -0.694, 0.000], [0, 0, 0, 0], [ 9E9, 9E9, 9E9, 9E9, 9E9, 9E9] ], v30, fine, pen\WObj:=platform;
    MoveL [ [0.586, -12.485, 49.413], [0.076, -0.716, -0.694, 0.000], [0, 0, 0, 0], [ 9E9, 9E9, 9E9, 9E9, 9E9, 9E9] ], v1000, fine, pen\WObj:=platform;
    
    !!-4.624922066370417, -7.148700000000003;
    MoveL [ [-2.796, -11.273, 49.786], [0.045, -0.913, -0.405, 0.000], [0, 0, 0, 0], [ 9E9, 9E9, 9E9, 9E9, 9E9, 9E9] ], v1000, fine, pen\WObj:=platform;
    MoveL [ [-4.625, -7.149, -0.010], [0.045, -0.913, -0.405, 0.000], [0, 0, 0, 0], [ 9E9, 9E9, 9E9, 9E9, 9E9, 9E9] ], v30, fine, pen\WObj:=platform;
    MoveL [ [-2.796, -11.273, 49.786], [0.045, -0.913, -0.405, 0.000], [0, 0, 0, 0], [ 9E9, 9E9, 9E9, 9E9, 9E9, 9E9] ], v1000, fine, pen\WObj:=platform;
    
    !!-4.683465383666245, -7.250100000000003;
    MoveL [ [-2.792, -11.212, 49.797], [0.044, -0.902, -0.431, 0.000], [0, 0, 0, 0], [ 9E9, 9E9, 9E9, 9E9, 9E9, 9E9] ], v1000, fine, pen\WObj:=platform;
    MoveL [ [-4.683, -7.250, -0.010], [0.044, -0.902, -0.431, 0.000], [0, 0, 0, 0], [ 9E9, 9E9, 9E9, 9E9, 9E9, 9E9] ], v30, fine, pen\WObj:=platform;
    MoveL [ [-2.792, -11.212, 49.797], [0.044, -0.902, -0.431, 0.000], [0, 0, 0, 0], [ 9E9, 9E9, 9E9, 9E9, 9E9, 9E9] ], v1000, fine, pen\WObj:=platform;
    
    !!-4.624922066370417, -7.3515000000000015;
    MoveL [ [0.650, -12.276, 49.467], [0.072, -0.681, -0.729, 0.000], [0, 0, 0, 0], [ 9E9, 9E9, 9E9, 9E9, 9E9, 9E9] ], v1000, fine, pen\WObj:=platform;
    MoveL [ [-4.625, -7.352, -0.010], [0.072, -0.681, -0.729, 0.000], [0, 0, 0, 0], [ 9E9, 9E9, 9E9, 9E9, 9E9, 9E9] ], v30, fine, pen\WObj:=platform;
    MoveL [ [0.650, -12.276, 49.467], [0.072, -0.681, -0.729, 0.000], [0, 0, 0, 0], [ 9E9, 9E9, 9E9, 9E9, 9E9, 9E9] ], v1000, fine, pen\WObj:=platform;
    
    !!-4.683465383666245, -7.452900000000002;
    MoveL [ [-2.767, -11.104, 49.820], [0.041, -0.885, -0.464, 0.000], [0, 0, 0, 0], [ 9E9, 9E9, 9E9, 9E9, 9E9, 9E9] ], v1000, fine, pen\WObj:=platform;
    MoveL [ [-4.683, -7.453, -0.010], [0.041, -0.885, -0.464, 0.000], [0, 0, 0, 0], [ 9E9, 9E9, 9E9, 9E9, 9E9, 9E9] ], v30, fine, pen\WObj:=platform;
    MoveL [ [-2.767, -11.104, 49.820], [0.041, -0.885, -0.464, 0.000], [0, 0, 0, 0], [ 9E9, 9E9, 9E9, 9E9, 9E9, 9E9] ], v1000, fine, pen\WObj:=platform;
    
    !!-4.624922066370417, -7.554300000000004;
    MoveL [ [0.686, -12.129, 49.496], [0.070, -0.651, -0.756, 0.000], [0, 0, 0, 0], [ 9E9, 9E9, 9E9, 9E9, 9E9, 9E9] ], v1000, fine, pen\WObj:=platform;
    MoveL [ [-4.625, -7.554, -0.010], [0.070, -0.651, -0.756, 0.000], [0, 0, 0, 0], [ 9E9, 9E9, 9E9, 9E9, 9E9, 9E9] ], v30, fine, pen\WObj:=platform;
    MoveL [ [0.686, -12.129, 49.496], [0.070, -0.651, -0.756, 0.000], [0, 0, 0, 0], [ 9E9, 9E9, 9E9, 9E9, 9E9, 9E9] ], v1000, fine, pen\WObj:=platform;
    
    !!-4.683465383666245, -7.655700000000003;
    MoveL [ [-2.741, -10.997, 49.840], [0.039, -0.864, -0.502, 0.000], [0, 0, 0, 0], [ 9E9, 9E9, 9E9, 9E9, 9E9, 9E9] ], v1000, fine, pen\WObj:=platform;
    MoveL [ [-4.683, -7.656, -0.010], [0.039, -0.864, -0.502, 0.000], [0, 0, 0, 0], [ 9E9, 9E9, 9E9, 9E9, 9E9, 9E9] ], v30, fine, pen\WObj:=platform;
    MoveL [ [-2.741, -10.997, 49.840], [0.039, -0.864, -0.502, 0.000], [0, 0, 0, 0], [ 9E9, 9E9, 9E9, 9E9, 9E9, 9E9] ], v1000, fine, pen\WObj:=platform;
    
    !!-4.624922066370417, -7.757100000000002;
    MoveL [ [-2.720, -10.950, 49.852], [0.037, -0.858, -0.512, 0.000], [0, 0, 0, 0], [ 9E9, 9E9, 9E9, 9E9, 9E9, 9E9] ], v1000, fine, pen\WObj:=platform;
    MoveL [ [-4.625, -7.757, -0.010], [0.037, -0.858, -0.512, 0.000], [0, 0, 0, 0], [ 9E9, 9E9, 9E9, 9E9, 9E9, 9E9] ], v30, fine, pen\WObj:=platform;
    MoveL [ [-2.720, -10.950, 49.852], [0.037, -0.858, -0.512, 0.000], [0, 0, 0, 0], [ 9E9, 9E9, 9E9, 9E9, 9E9, 9E9] ], v1000, fine, pen\WObj:=platform;
    
    !!-4.683465383666245, -7.858500000000004;
    MoveL [ [-2.716, -10.889, 49.859], [0.036, -0.838, -0.544, 0.000], [0, 0, 0, 0], [ 9E9, 9E9, 9E9, 9E9, 9E9, 9E9] ], v1000, fine, pen\WObj:=platform;
    MoveL [ [-4.683, -7.859, -0.010], [0.036, -0.838, -0.544, 0.000], [0, 0, 0, 0], [ 9E9, 9E9, 9E9, 9E9, 9E9, 9E9] ], v30, fine, pen\WObj:=platform;
    MoveL [ [-2.716, -10.889, 49.859], [0.036, -0.838, -0.544, 0.000], [0, 0, 0, 0], [ 9E9, 9E9, 9E9, 9E9, 9E9, 9E9] ], v1000, fine, pen\WObj:=platform;
    
    !!-4.624922066370417, -7.959900000000003;
    MoveL [ [0.759, -11.833, 49.548], [0.066, -0.583, -0.810, 0.000], [0, 0, 0, 0], [ 9E9, 9E9, 9E9, 9E9, 9E9, 9E9] ], v1000, fine, pen\WObj:=platform;
    MoveL [ [-4.625, -7.960, -0.010], [0.066, -0.583, -0.810, 0.000], [0, 0, 0, 0], [ 9E9, 9E9, 9E9, 9E9, 9E9, 9E9] ], v30, fine, pen\WObj:=platform;
    MoveL [ [0.759, -11.833, 49.548], [0.066, -0.583, -0.810, 0.000], [0, 0, 0, 0], [ 9E9, 9E9, 9E9, 9E9, 9E9, 9E9] ], v1000, fine, pen\WObj:=platform;
    
    !!-4.683465383666245, -8.061300000000003;
    MoveL [ [-2.690, -10.780, 49.876], [0.034, -0.806, -0.591, 0.000], [0, 0, 0, 0], [ 9E9, 9E9, 9E9, 9E9, 9E9, 9E9] ], v1000, fine, pen\WObj:=platform;
    MoveL [ [-4.683, -8.061, -0.010], [0.034, -0.806, -0.591, 0.000], [0, 0, 0, 0], [ 9E9, 9E9, 9E9, 9E9, 9E9, 9E9] ], v30, fine, pen\WObj:=platform;
    MoveL [ [-2.690, -10.780, 49.876], [0.034, -0.806, -0.591, 0.000], [0, 0, 0, 0], [ 9E9, 9E9, 9E9, 9E9, 9E9, 9E9] ], v1000, fine, pen\WObj:=platform;
    
    !!-4.624922066370417, -8.162700000000001;
    MoveL [ [-2.669, -10.734, 49.886], [0.032, -0.796, -0.605, 0.000], [0, 0, 0, 0], [ 9E9, 9E9, 9E9, 9E9, 9E9, 9E9] ], v1000, fine, pen\WObj:=platform;
    MoveL [ [-4.625, -8.163, -0.010], [0.032, -0.796, -0.605, 0.000], [0, 0, 0, 0], [ 9E9, 9E9, 9E9, 9E9, 9E9, 9E9] ], v30, fine, pen\WObj:=platform;
    MoveL [ [-2.669, -10.734, 49.886], [0.032, -0.796, -0.605, 0.000], [0, 0, 0, 0], [ 9E9, 9E9, 9E9, 9E9, 9E9, 9E9] ], v1000, fine, pen\WObj:=platform;
    
    !!-4.683465383666245, -8.264100000000003;
    MoveL [ [-2.665, -10.672, 49.891], [0.031, -0.766, -0.642, 0.000], [0, 0, 0, 0], [ 9E9, 9E9, 9E9, 9E9, 9E9, 9E9] ], v1000, fine, pen\WObj:=platform;
    MoveL [ [-4.683, -8.264, -0.010], [0.031, -0.766, -0.642, 0.000], [0, 0, 0, 0], [ 9E9, 9E9, 9E9, 9E9, 9E9, 9E9] ], v30, fine, pen\WObj:=platform;
    MoveL [ [-2.665, -10.672, 49.891], [0.031, -0.766, -0.642, 0.000], [0, 0, 0, 0], [ 9E9, 9E9, 9E9, 9E9, 9E9, 9E9] ], v1000, fine, pen\WObj:=platform;
    
    !!-4.624922066370417, -8.365500000000004;
    MoveL [ [0.832, -11.535, 49.590], [0.063, -0.501, -0.863, 0.000], [0, 0, 0, 0], [ 9E9, 9E9, 9E9, 9E9, 9E9, 9E9] ], v1000, fine, pen\WObj:=platform;
    MoveL [ [-4.625, -8.366, -0.010], [0.063, -0.501, -0.863, 0.000], [0, 0, 0, 0], [ 9E9, 9E9, 9E9, 9E9, 9E9, 9E9] ], v30, fine, pen\WObj:=platform;
    MoveL [ [0.832, -11.535, 49.590], [0.063, -0.501, -0.863, 0.000], [0, 0, 0, 0], [ 9E9, 9E9, 9E9, 9E9, 9E9, 9E9] ], v1000, fine, pen\WObj:=platform;
    
    !!-4.683465383666245, -8.466900000000003;
    MoveL [ [-2.639, -10.563, 49.904], [0.029, -0.716, -0.698, 0.000], [0, 0, 0, 0], [ 9E9, 9E9, 9E9, 9E9, 9E9, 9E9] ], v1000, fine, pen\WObj:=platform;
    MoveL [ [-4.683, -8.467, -0.010], [0.029, -0.716, -0.698, 0.000], [0, 0, 0, 0], [ 9E9, 9E9, 9E9, 9E9, 9E9, 9E9] ], v30, fine, pen\WObj:=platform;
    MoveL [ [-2.639, -10.563, 49.904], [0.029, -0.716, -0.698, 0.000], [0, 0, 0, 0], [ 9E9, 9E9, 9E9, 9E9, 9E9, 9E9] ], v1000, fine, pen\WObj:=platform;
    
    !!-4.624922066370417, -8.568300000000002;
    MoveL [ [-2.617, -10.516, 49.912], [0.028, -0.696, -0.717, 0.000], [0, 0, 0, 0], [ 9E9, 9E9, 9E9, 9E9, 9E9, 9E9] ], v1000, fine, pen\WObj:=platform;
    MoveL [ [-4.625, -8.568, -0.010], [0.028, -0.696, -0.717, 0.000], [0, 0, 0, 0], [ 9E9, 9E9, 9E9, 9E9, 9E9, 9E9] ], v30, fine, pen\WObj:=platform;
    MoveL [ [-2.617, -10.516, 49.912], [0.028, -0.696, -0.717, 0.000], [0, 0, 0, 0], [ 9E9, 9E9, 9E9, 9E9, 9E9, 9E9] ], v1000, fine, pen\WObj:=platform;
    
    !!-4.683465383666245, -8.669700000000004;
    MoveL [ [-2.613, -10.454, 49.915], [0.027, -0.653, -0.757, 0.000], [0, 0, 0, 0], [ 9E9, 9E9, 9E9, 9E9, 9E9, 9E9] ], v1000, fine, pen\WObj:=platform;
    MoveL [ [-4.683, -8.670, -0.010], [0.027, -0.653, -0.757, 0.000], [0, 0, 0, 0], [ 9E9, 9E9, 9E9, 9E9, 9E9, 9E9] ], v30, fine, pen\WObj:=platform;
    MoveL [ [-2.613, -10.454, 49.915], [0.027, -0.653, -0.757, 0.000], [0, 0, 0, 0], [ 9E9, 9E9, 9E9, 9E9, 9E9, 9E9] ], v1000, fine, pen\WObj:=platform;
    
    !!-4.624922066370417, -8.771100000000002;
    MoveL [ [0.904, -11.235, 49.622], [0.061, -0.406, -0.912, 0.000], [0, 0, 0, 0], [ 9E9, 9E9, 9E9, 9E9, 9E9, 9E9] ], v1000, fine, pen\WObj:=platform;
    MoveL [ [-4.625, -8.771, -0.010], [0.061, -0.406, -0.912, 0.000], [0, 0, 0, 0], [ 9E9, 9E9, 9E9, 9E9, 9E9, 9E9] ], v30, fine, pen\WObj:=platform;
    MoveL [ [0.904, -11.235, 49.622], [0.061, -0.406, -0.912, 0.000], [0, 0, 0, 0], [ 9E9, 9E9, 9E9, 9E9, 9E9, 9E9] ], v1000, fine, pen\WObj:=platform;
    
    !!-4.683465383666245, -8.872500000000002;
    MoveL [ [-2.586, -10.345, 49.924], [0.026, -0.575, -0.818, 0.000], [0, 0, 0, 0], [ 9E9, 9E9, 9E9, 9E9, 9E9, 9E9] ], v1000, fine, pen\WObj:=platform;
    MoveL [ [-4.683, -8.873, -0.010], [0.026, -0.575, -0.818, 0.000], [0, 0, 0, 0], [ 9E9, 9E9, 9E9, 9E9, 9E9, 9E9] ], v30, fine, pen\WObj:=platform;
    MoveL [ [-2.586, -10.345, 49.924], [0.026, -0.575, -0.818, 0.000], [0, 0, 0, 0], [ 9E9, 9E9, 9E9, 9E9, 9E9, 9E9] ], v1000, fine, pen\WObj:=platform;
    
    !!-4.624922066370417, -8.973900000000004;
    MoveL [ [-2.565, -10.298, 49.930], [0.024, -0.541, -0.841, 0.000], [0, 0, 0, 0], [ 9E9, 9E9, 9E9, 9E9, 9E9, 9E9] ], v1000, fine, pen\WObj:=platform;
    MoveL [ [-4.625, -8.974, -0.010], [0.024, -0.541, -0.841, 0.000], [0, 0, 0, 0], [ 9E9, 9E9, 9E9, 9E9, 9E9, 9E9] ], v30, fine, pen\WObj:=platform;
    MoveL [ [-2.565, -10.298, 49.930], [0.024, -0.541, -0.841, 0.000], [0, 0, 0, 0], [ 9E9, 9E9, 9E9, 9E9, 9E9, 9E9] ], v1000, fine, pen\WObj:=platform;
    
    !!-4.683465383666245, -9.075300000000004;
    MoveL [ [-2.560, -10.236, 49.931], [0.024, -0.480, -0.877, 0.000], [0, 0, 0, 0], [ 9E9, 9E9, 9E9, 9E9, 9E9, 9E9] ], v1000, fine, pen\WObj:=platform;
    MoveL [ [-4.683, -9.075, -0.010], [0.024, -0.480, -0.877, 0.000], [0, 0, 0, 0], [ 9E9, 9E9, 9E9, 9E9, 9E9, 9E9] ], v30, fine, pen\WObj:=platform;
    MoveL [ [-2.560, -10.236, 49.931], [0.024, -0.480, -0.877, 0.000], [0, 0, 0, 0], [ 9E9, 9E9, 9E9, 9E9, 9E9, 9E9] ], v1000, fine, pen\WObj:=platform;
    
    !!-4.624922066370417, -9.176700000000002;
    MoveL [ [0.976, -10.934, 49.644], [0.059, -0.299, -0.952, 0.000], [0, 0, 0, 0], [ 9E9, 9E9, 9E9, 9E9, 9E9, 9E9] ], v1000, fine, pen\WObj:=platform;
    MoveL [ [-4.625, -9.177, -0.010], [0.059, -0.299, -0.952, 0.000], [0, 0, 0, 0], [ 9E9, 9E9, 9E9, 9E9, 9E9, 9E9] ], v30, fine, pen\WObj:=platform;
    MoveL [ [0.976, -10.934, 49.644], [0.059, -0.299, -0.952, 0.000], [0, 0, 0, 0], [ 9E9, 9E9, 9E9, 9E9, 9E9, 9E9] ], v1000, fine, pen\WObj:=platform;
    
    !!-4.683465383666245, -9.278100000000006;
    MoveL [ [-2.533, -10.127, 49.937], [0.023, -0.367, -0.930, 0.000], [0, 0, 0, 0], [ 9E9, 9E9, 9E9, 9E9, 9E9, 9E9] ], v1000, fine, pen\WObj:=platform;
    MoveL [ [-4.683, -9.278, -0.010], [0.023, -0.367, -0.930, 0.000], [0, 0, 0, 0], [ 9E9, 9E9, 9E9, 9E9, 9E9, 9E9] ], v30, fine, pen\WObj:=platform;
    MoveL [ [-2.533, -10.127, 49.937], [0.023, -0.367, -0.930, 0.000], [0, 0, 0, 0], [ 9E9, 9E9, 9E9, 9E9, 9E9, 9E9] ], v1000, fine, pen\WObj:=platform;
    
    !!-4.624922066370417, -9.379500000000004;
    MoveL [ [-2.512, -10.080, 49.940], [0.022, -0.315, -0.949, 0.000], [0, 0, 0, 0], [ 9E9, 9E9, 9E9, 9E9, 9E9, 9E9] ], v1000, fine, pen\WObj:=platform;
    MoveL [ [-4.625, -9.380, -0.010], [0.022, -0.315, -0.949, 0.000], [0, 0, 0, 0], [ 9E9, 9E9, 9E9, 9E9, 9E9, 9E9] ], v30, fine, pen\WObj:=platform;
    MoveL [ [-2.512, -10.080, 49.940], [0.022, -0.315, -0.949, 0.000], [0, 0, 0, 0], [ 9E9, 9E9, 9E9, 9E9, 9E9, 9E9] ], v1000, fine, pen\WObj:=platform;
    
    !!-4.683465383666245, -9.480900000000004;
    MoveL [ [-2.507, -10.018, 49.940], [0.022, -0.239, -0.971, 0.000], [0, 0, 0, 0], [ 9E9, 9E9, 9E9, 9E9, 9E9, 9E9] ], v1000, fine, pen\WObj:=platform;
    MoveL [ [-4.683, -9.481, -0.010], [0.022, -0.239, -0.971, 0.000], [0, 0, 0, 0], [ 9E9, 9E9, 9E9, 9E9, 9E9, 9E9] ], v30, fine, pen\WObj:=platform;
    MoveL [ [-2.507, -10.018, 49.940], [0.022, -0.239, -0.971, 0.000], [0, 0, 0, 0], [ 9E9, 9E9, 9E9, 9E9, 9E9, 9E9] ], v1000, fine, pen\WObj:=platform;
    
    !!-4.624922066370417, -9.582300000000005;
    MoveL [ [-2.485, -9.971, 49.943], [0.022, -0.179, -0.984, 0.000], [0, 0, 0, 0], [ 9E9, 9E9, 9E9, 9E9, 9E9, 9E9] ], v1000, fine, pen\WObj:=platform;
    MoveL [ [-4.625, -9.582, -0.010], [0.022, -0.179, -0.984, 0.000], [0, 0, 0, 0], [ 9E9, 9E9, 9E9, 9E9, 9E9, 9E9] ], v30, fine, pen\WObj:=platform;
    MoveL [ [-2.485, -9.971, 49.943], [0.022, -0.179, -0.984, 0.000], [0, 0, 0, 0], [ 9E9, 9E9, 9E9, 9E9, 9E9, 9E9] ], v1000, fine, pen\WObj:=platform;
    
    !!-4.566378749074589, 0.050699999999998524;
    MoveL [ [-3.511, -14.579, 47.790], [0.148, -0.986, -0.071, 0.000], [0, 0, 0, 0], [ 9E9, 9E9, 9E9, 9E9, 9E9, 9E9] ], v1000, fine, pen\WObj:=platform;
    MoveL [ [-4.566, 0.051, -0.010], [0.148, -0.986, -0.071, 0.000], [0, 0, 0, 0], [ 9E9, 9E9, 9E9, 9E9, 9E9, 9E9] ], v30, fine, pen\WObj:=platform;
    MoveL [ [-3.511, -14.579, 47.790], [0.148, -0.986, -0.071, 0.000], [0, 0, 0, 0], [ 9E9, 9E9, 9E9, 9E9, 9E9, 9E9] ], v1000, fine, pen\WObj:=platform;
    
    !!-4.50783543177876, -0.0507000000000013;
    MoveL [ [-0.599, -16.800, 46.939], [0.175, -0.959, -0.224, 0.000], [0, 0, 0, 0], [ 9E9, 9E9, 9E9, 9E9, 9E9, 9E9] ], v1000, fine, pen\WObj:=platform;
    MoveL [ [-4.508, -0.051, -0.010], [0.175, -0.959, -0.224, 0.000], [0, 0, 0, 0], [ 9E9, 9E9, 9E9, 9E9, 9E9, 9E9] ], v30, fine, pen\WObj:=platform;
    MoveL [ [-0.599, -16.800, 46.939], [0.175, -0.959, -0.224, 0.000], [0, 0, 0, 0], [ 9E9, 9E9, 9E9, 9E9, 9E9, 9E9] ], v1000, fine, pen\WObj:=platform;
    
    !!-4.566378749074589, -0.15210000000000168;
    MoveL [ [-3.496, -14.505, 47.874], [0.145, -0.987, -0.074, 0.000], [0, 0, 0, 0], [ 9E9, 9E9, 9E9, 9E9, 9E9, 9E9] ], v1000, fine, pen\WObj:=platform;
    MoveL [ [-4.566, -0.152, -0.010], [0.145, -0.987, -0.074, 0.000], [0, 0, 0, 0], [ 9E9, 9E9, 9E9, 9E9, 9E9, 9E9] ], v30, fine, pen\WObj:=platform;
    MoveL [ [-3.496, -14.505, 47.874], [0.145, -0.987, -0.074, 0.000], [0, 0, 0, 0], [ 9E9, 9E9, 9E9, 9E9, 9E9, 9E9] ], v1000, fine, pen\WObj:=platform;
    
    !!-4.50783543177876, -0.2535000000000015;
    MoveL [ [-3.479, -14.474, 47.914], [0.144, -0.987, -0.071, 0.000], [0, 0, 0, 0], [ 9E9, 9E9, 9E9, 9E9, 9E9, 9E9] ], v1000, fine, pen\WObj:=platform;
    MoveL [ [-4.508, -0.254, -0.010], [0.144, -0.987, -0.071, 0.000], [0, 0, 0, 0], [ 9E9, 9E9, 9E9, 9E9, 9E9, 9E9] ], v30, fine, pen\WObj:=platform;
    MoveL [ [-3.479, -14.474, 47.914], [0.144, -0.987, -0.071, 0.000], [0, 0, 0, 0], [ 9E9, 9E9, 9E9, 9E9, 9E9, 9E9] ], v1000, fine, pen\WObj:=platform;
    
    !!-4.566378749074589, -0.3549000000000019;
    MoveL [ [-3.480, -14.430, 47.956], [0.143, -0.987, -0.076, 0.000], [0, 0, 0, 0], [ 9E9, 9E9, 9E9, 9E9, 9E9, 9E9] ], v1000, fine, pen\WObj:=platform;
    MoveL [ [-4.566, -0.355, -0.010], [0.143, -0.987, -0.076, 0.000], [0, 0, 0, 0], [ 9E9, 9E9, 9E9, 9E9, 9E9, 9E9] ], v30, fine, pen\WObj:=platform;
    MoveL [ [-3.480, -14.430, 47.956], [0.143, -0.987, -0.076, 0.000], [0, 0, 0, 0], [ 9E9, 9E9, 9E9, 9E9, 9E9, 9E9] ], v1000, fine, pen\WObj:=platform;
    
    !!-4.50783543177876, -0.45630000000000115;
    MoveL [ [-3.463, -14.398, 47.996], [0.141, -0.987, -0.074, 0.000], [0, 0, 0, 0], [ 9E9, 9E9, 9E9, 9E9, 9E9, 9E9] ], v1000, fine, pen\WObj:=platform;
    MoveL [ [-4.508, -0.456, -0.010], [0.141, -0.987, -0.074, 0.000], [0, 0, 0, 0], [ 9E9, 9E9, 9E9, 9E9, 9E9, 9E9] ], v30, fine, pen\WObj:=platform;
    MoveL [ [-3.463, -14.398, 47.996], [0.141, -0.987, -0.074, 0.000], [0, 0, 0, 0], [ 9E9, 9E9, 9E9, 9E9, 9E9, 9E9] ], v1000, fine, pen\WObj:=platform;
    
    !!-4.566378749074589, -0.5577000000000021;
    MoveL [ [-3.464, -14.354, 48.036], [0.140, -0.987, -0.079, 0.000], [0, 0, 0, 0], [ 9E9, 9E9, 9E9, 9E9, 9E9, 9E9] ], v1000, fine, pen\WObj:=platform;
    MoveL [ [-4.566, -0.558, -0.010], [0.140, -0.987, -0.079, 0.000], [0, 0, 0, 0], [ 9E9, 9E9, 9E9, 9E9, 9E9, 9E9] ], v30, fine, pen\WObj:=platform;
    MoveL [ [-3.464, -14.354, 48.036], [0.140, -0.987, -0.079, 0.000], [0, 0, 0, 0], [ 9E9, 9E9, 9E9, 9E9, 9E9, 9E9] ], v1000, fine, pen\WObj:=platform;
    
    !!-4.50783543177876, -0.6591000000000019;
    MoveL [ [-3.447, -14.321, 48.076], [0.138, -0.987, -0.077, 0.000], [0, 0, 0, 0], [ 9E9, 9E9, 9E9, 9E9, 9E9, 9E9] ], v1000, fine, pen\WObj:=platform;
    MoveL [ [-4.508, -0.659, -0.010], [0.138, -0.987, -0.077, 0.000], [0, 0, 0, 0], [ 9E9, 9E9, 9E9, 9E9, 9E9, 9E9] ], v30, fine, pen\WObj:=platform;
    MoveL [ [-3.447, -14.321, 48.076], [0.138, -0.987, -0.077, 0.000], [0, 0, 0, 0], [ 9E9, 9E9, 9E9, 9E9, 9E9, 9E9] ], v1000, fine, pen\WObj:=platform;
    
    !!-4.566378749074589, -0.7605000000000017;
    MoveL [ [-3.448, -14.276, 48.116], [0.137, -0.987, -0.082, 0.000], [0, 0, 0, 0], [ 9E9, 9E9, 9E9, 9E9, 9E9, 9E9] ], v1000, fine, pen\WObj:=platform;
    MoveL [ [-4.566, -0.761, -0.010], [0.137, -0.987, -0.082, 0.000], [0, 0, 0, 0], [ 9E9, 9E9, 9E9, 9E9, 9E9, 9E9] ], v30, fine, pen\WObj:=platform;
    MoveL [ [-3.448, -14.276, 48.116], [0.137, -0.987, -0.082, 0.000], [0, 0, 0, 0], [ 9E9, 9E9, 9E9, 9E9, 9E9, 9E9] ], v1000, fine, pen\WObj:=platform;
    
    !!-4.50783543177876, -0.8619000000000016;
    MoveL [ [-0.469, -16.402, 47.342], [0.163, -0.955, -0.248, 0.000], [0, 0, 0, 0], [ 9E9, 9E9, 9E9, 9E9, 9E9, 9E9] ], v1000, fine, pen\WObj:=platform;
    MoveL [ [-4.508, -0.862, -0.010], [0.163, -0.955, -0.248, 0.000], [0, 0, 0, 0], [ 9E9, 9E9, 9E9, 9E9, 9E9, 9E9] ], v30, fine, pen\WObj:=platform;
    MoveL [ [-0.469, -16.402, 47.342], [0.163, -0.955, -0.248, 0.000], [0, 0, 0, 0], [ 9E9, 9E9, 9E9, 9E9, 9E9, 9E9] ], v1000, fine, pen\WObj:=platform;
    
    !!-4.566378749074589, -0.9633000000000014;
    MoveL [ [-3.431, -14.197, 48.194], [0.134, -0.987, -0.085, 0.000], [0, 0, 0, 0], [ 9E9, 9E9, 9E9, 9E9, 9E9, 9E9] ], v1000, fine, pen\WObj:=platform;
    MoveL [ [-4.566, -0.963, -0.010], [0.134, -0.987, -0.085, 0.000], [0, 0, 0, 0], [ 9E9, 9E9, 9E9, 9E9, 9E9, 9E9] ], v30, fine, pen\WObj:=platform;
    MoveL [ [-3.431, -14.197, 48.194], [0.134, -0.987, -0.085, 0.000], [0, 0, 0, 0], [ 9E9, 9E9, 9E9, 9E9, 9E9, 9E9] ], v1000, fine, pen\WObj:=platform;
    
    !!-4.50783543177876, -1.0647000000000018;
    MoveL [ [-3.414, -14.163, 48.231], [0.133, -0.988, -0.082, 0.000], [0, 0, 0, 0], [ 9E9, 9E9, 9E9, 9E9, 9E9, 9E9] ], v1000, fine, pen\WObj:=platform;
    MoveL [ [-4.508, -1.065, -0.010], [0.133, -0.988, -0.082, 0.000], [0, 0, 0, 0], [ 9E9, 9E9, 9E9, 9E9, 9E9, 9E9] ], v30, fine, pen\WObj:=platform;
    MoveL [ [-3.414, -14.163, 48.231], [0.133, -0.988, -0.082, 0.000], [0, 0, 0, 0], [ 9E9, 9E9, 9E9, 9E9, 9E9, 9E9] ], v1000, fine, pen\WObj:=platform;
    
    !!-4.566378749074589, -1.1661000000000015;
    MoveL [ [-3.414, -14.116, 48.270], [0.131, -0.987, -0.088, 0.000], [0, 0, 0, 0], [ 9E9, 9E9, 9E9, 9E9, 9E9, 9E9] ], v1000, fine, pen\WObj:=platform;
    MoveL [ [-4.566, -1.166, -0.010], [0.131, -0.987, -0.088, 0.000], [0, 0, 0, 0], [ 9E9, 9E9, 9E9, 9E9, 9E9, 9E9] ], v30, fine, pen\WObj:=platform;
    MoveL [ [-3.414, -14.116, 48.270], [0.131, -0.987, -0.088, 0.000], [0, 0, 0, 0], [ 9E9, 9E9, 9E9, 9E9, 9E9, 9E9] ], v1000, fine, pen\WObj:=platform;
    
    !!-4.50783543177876, -1.2675000000000018;
    MoveL [ [-3.397, -14.082, 48.307], [0.130, -0.988, -0.086, 0.000], [0, 0, 0, 0], [ 9E9, 9E9, 9E9, 9E9, 9E9, 9E9] ], v1000, fine, pen\WObj:=platform;
    MoveL [ [-4.508, -1.268, -0.010], [0.130, -0.988, -0.086, 0.000], [0, 0, 0, 0], [ 9E9, 9E9, 9E9, 9E9, 9E9, 9E9] ], v30, fine, pen\WObj:=platform;
    MoveL [ [-3.397, -14.082, 48.307], [0.130, -0.988, -0.086, 0.000], [0, 0, 0, 0], [ 9E9, 9E9, 9E9, 9E9, 9E9, 9E9] ], v1000, fine, pen\WObj:=platform;
    
    !!-4.566378749074589, -1.3689000000000018;
    MoveL [ [-3.397, -14.035, 48.345], [0.128, -0.988, -0.091, 0.000], [0, 0, 0, 0], [ 9E9, 9E9, 9E9, 9E9, 9E9, 9E9] ], v1000, fine, pen\WObj:=platform;
    MoveL [ [-4.566, -1.369, -0.010], [0.128, -0.988, -0.091, 0.000], [0, 0, 0, 0], [ 9E9, 9E9, 9E9, 9E9, 9E9, 9E9] ], v30, fine, pen\WObj:=platform;
    MoveL [ [-3.397, -14.035, 48.345], [0.128, -0.988, -0.091, 0.000], [0, 0, 0, 0], [ 9E9, 9E9, 9E9, 9E9, 9E9, 9E9] ], v1000, fine, pen\WObj:=platform;
    
    !!-4.50783543177876, -1.4703000000000022;
    MoveL [ [-3.379, -14.000, 48.381], [0.127, -0.988, -0.089, 0.000], [0, 0, 0, 0], [ 9E9, 9E9, 9E9, 9E9, 9E9, 9E9] ], v1000, fine, pen\WObj:=platform;
    MoveL [ [-4.508, -1.470, -0.010], [0.127, -0.988, -0.089, 0.000], [0, 0, 0, 0], [ 9E9, 9E9, 9E9, 9E9, 9E9, 9E9] ], v30, fine, pen\WObj:=platform;
    MoveL [ [-3.379, -14.000, 48.381], [0.127, -0.988, -0.089, 0.000], [0, 0, 0, 0], [ 9E9, 9E9, 9E9, 9E9, 9E9, 9E9] ], v1000, fine, pen\WObj:=platform;
    
    !!-4.566378749074589, -1.571700000000002;
    MoveL [ [-0.361, -16.019, 47.672], [0.152, -0.949, -0.276, 0.000], [0, 0, 0, 0], [ 9E9, 9E9, 9E9, 9E9, 9E9, 9E9] ], v1000, fine, pen\WObj:=platform;
    MoveL [ [-4.566, -1.572, -0.010], [0.152, -0.949, -0.276, 0.000], [0, 0, 0, 0], [ 9E9, 9E9, 9E9, 9E9, 9E9, 9E9] ], v30, fine, pen\WObj:=platform;
    MoveL [ [-0.361, -16.019, 47.672], [0.152, -0.949, -0.276, 0.000], [0, 0, 0, 0], [ 9E9, 9E9, 9E9, 9E9, 9E9, 9E9] ], v1000, fine, pen\WObj:=platform;
    
    !!-4.50783543177876, -1.6731000000000018;
    MoveL [ [-3.362, -13.916, 48.454], [0.124, -0.988, -0.093, 0.000], [0, 0, 0, 0], [ 9E9, 9E9, 9E9, 9E9, 9E9, 9E9] ], v1000, fine, pen\WObj:=platform;
    MoveL [ [-4.508, -1.673, -0.010], [0.124, -0.988, -0.093, 0.000], [0, 0, 0, 0], [ 9E9, 9E9, 9E9, 9E9, 9E9, 9E9] ], v30, fine, pen\WObj:=platform;
    MoveL [ [-3.362, -13.916, 48.454], [0.124, -0.988, -0.093, 0.000], [0, 0, 0, 0], [ 9E9, 9E9, 9E9, 9E9, 9E9, 9E9] ], v1000, fine, pen\WObj:=platform;
    
    !!-4.566378749074589, -1.7745000000000022;
    MoveL [ [-3.361, -13.868, 48.491], [0.122, -0.988, -0.098, 0.000], [0, 0, 0, 0], [ 9E9, 9E9, 9E9, 9E9, 9E9, 9E9] ], v1000, fine, pen\WObj:=platform;
    MoveL [ [-4.566, -1.775, -0.010], [0.122, -0.988, -0.098, 0.000], [0, 0, 0, 0], [ 9E9, 9E9, 9E9, 9E9, 9E9, 9E9] ], v30, fine, pen\WObj:=platform;
    MoveL [ [-3.361, -13.868, 48.491], [0.122, -0.988, -0.098, 0.000], [0, 0, 0, 0], [ 9E9, 9E9, 9E9, 9E9, 9E9, 9E9] ], v1000, fine, pen\WObj:=platform;
    
    !!-4.50783543177876, -1.8759000000000015;
    MoveL [ [-0.301, -15.863, 47.809], [0.148, -0.947, -0.285, 0.000], [0, 0, 0, 0], [ 9E9, 9E9, 9E9, 9E9, 9E9, 9E9] ], v1000, fine, pen\WObj:=platform;
    MoveL [ [-4.508, -1.876, -0.010], [0.148, -0.947, -0.285, 0.000], [0, 0, 0, 0], [ 9E9, 9E9, 9E9, 9E9, 9E9, 9E9] ], v30, fine, pen\WObj:=platform;
    MoveL [ [-0.301, -15.863, 47.809], [0.148, -0.947, -0.285, 0.000], [0, 0, 0, 0], [ 9E9, 9E9, 9E9, 9E9, 9E9, 9E9] ], v1000, fine, pen\WObj:=platform;
    
    !!-4.566378749074589, -1.9773000000000023;
    MoveL [ [-3.343, -13.782, 48.561], [0.120, -0.988, -0.102, 0.000], [0, 0, 0, 0], [ 9E9, 9E9, 9E9, 9E9, 9E9, 9E9] ], v1000, fine, pen\WObj:=platform;
    MoveL [ [-4.566, -1.977, -0.010], [0.120, -0.988, -0.102, 0.000], [0, 0, 0, 0], [ 9E9, 9E9, 9E9, 9E9, 9E9, 9E9] ], v30, fine, pen\WObj:=platform;
    MoveL [ [-3.343, -13.782, 48.561], [0.120, -0.988, -0.102, 0.000], [0, 0, 0, 0], [ 9E9, 9E9, 9E9, 9E9, 9E9, 9E9] ], v1000, fine, pen\WObj:=platform;
    
    !!-4.50783543177876, -2.0787000000000018;
    MoveL [ [-3.325, -13.746, 48.595], [0.118, -0.988, -0.100, 0.000], [0, 0, 0, 0], [ 9E9, 9E9, 9E9, 9E9, 9E9, 9E9] ], v1000, fine, pen\WObj:=platform;
    MoveL [ [-4.508, -2.079, -0.010], [0.118, -0.988, -0.100, 0.000], [0, 0, 0, 0], [ 9E9, 9E9, 9E9, 9E9, 9E9, 9E9] ], v30, fine, pen\WObj:=platform;
    MoveL [ [-3.325, -13.746, 48.595], [0.118, -0.988, -0.100, 0.000], [0, 0, 0, 0], [ 9E9, 9E9, 9E9, 9E9, 9E9, 9E9] ], v1000, fine, pen\WObj:=platform;
    
    !!-4.566378749074589, -2.180100000000002;
    MoveL [ [-3.324, -13.696, 48.630], [0.117, -0.987, -0.106, 0.000], [0, 0, 0, 0], [ 9E9, 9E9, 9E9, 9E9, 9E9, 9E9] ], v1000, fine, pen\WObj:=platform;
    MoveL [ [-4.566, -2.180, -0.010], [0.117, -0.987, -0.106, 0.000], [0, 0, 0, 0], [ 9E9, 9E9, 9E9, 9E9, 9E9, 9E9] ], v30, fine, pen\WObj:=platform;
    MoveL [ [-3.324, -13.696, 48.630], [0.117, -0.987, -0.106, 0.000], [0, 0, 0, 0], [ 9E9, 9E9, 9E9, 9E9, 9E9, 9E9] ], v1000, fine, pen\WObj:=platform;
    
    !!-4.50783543177876, -2.281500000000002;
    MoveL [ [-3.307, -13.659, 48.664], [0.115, -0.988, -0.104, 0.000], [0, 0, 0, 0], [ 9E9, 9E9, 9E9, 9E9, 9E9, 9E9] ], v1000, fine, pen\WObj:=platform;
    MoveL [ [-4.508, -2.282, -0.010], [0.115, -0.988, -0.104, 0.000], [0, 0, 0, 0], [ 9E9, 9E9, 9E9, 9E9, 9E9, 9E9] ], v30, fine, pen\WObj:=platform;
    MoveL [ [-3.307, -13.659, 48.664], [0.115, -0.988, -0.104, 0.000], [0, 0, 0, 0], [ 9E9, 9E9, 9E9, 9E9, 9E9, 9E9] ], v1000, fine, pen\WObj:=platform;
    
    !!-4.566378749074589, -2.382900000000002;
    MoveL [ [-3.306, -13.608, 48.697], [0.114, -0.987, -0.111, 0.000], [0, 0, 0, 0], [ 9E9, 9E9, 9E9, 9E9, 9E9, 9E9] ], v1000, fine, pen\WObj:=platform;
    MoveL [ [-4.566, -2.383, -0.010], [0.114, -0.987, -0.111, 0.000], [0, 0, 0, 0], [ 9E9, 9E9, 9E9, 9E9, 9E9, 9E9] ], v30, fine, pen\WObj:=platform;
    MoveL [ [-3.306, -13.608, 48.697], [0.114, -0.987, -0.111, 0.000], [0, 0, 0, 0], [ 9E9, 9E9, 9E9, 9E9, 9E9, 9E9] ], v1000, fine, pen\WObj:=platform;
    
    !!-4.50783543177876, -2.484300000000002;
    MoveL [ [-0.198, -15.518, 48.069], [0.139, -0.940, -0.311, 0.000], [0, 0, 0, 0], [ 9E9, 9E9, 9E9, 9E9, 9E9, 9E9] ], v1000, fine, pen\WObj:=platform;
    MoveL [ [-4.508, -2.484, -0.010], [0.139, -0.940, -0.311, 0.000], [0, 0, 0, 0], [ 9E9, 9E9, 9E9, 9E9, 9E9, 9E9] ], v30, fine, pen\WObj:=platform;
    MoveL [ [-0.198, -15.518, 48.069], [0.139, -0.940, -0.311, 0.000], [0, 0, 0, 0], [ 9E9, 9E9, 9E9, 9E9, 9E9, 9E9] ], v1000, fine, pen\WObj:=platform;
    
    !!-4.566378749074589, -2.585700000000002;
    MoveL [ [-3.287, -13.519, 48.763], [0.111, -0.987, -0.116, 0.000], [0, 0, 0, 0], [ 9E9, 9E9, 9E9, 9E9, 9E9, 9E9] ], v1000, fine, pen\WObj:=platform;
    MoveL [ [-4.566, -2.586, -0.010], [0.111, -0.987, -0.116, 0.000], [0, 0, 0, 0], [ 9E9, 9E9, 9E9, 9E9, 9E9, 9E9] ], v30, fine, pen\WObj:=platform;
    MoveL [ [-3.287, -13.519, 48.763], [0.111, -0.987, -0.116, 0.000], [0, 0, 0, 0], [ 9E9, 9E9, 9E9, 9E9, 9E9, 9E9] ], v1000, fine, pen\WObj:=platform;
    
    !!-4.50783543177876, -2.6871000000000023;
    MoveL [ [-3.268, -13.481, 48.795], [0.109, -0.988, -0.113, 0.000], [0, 0, 0, 0], [ 9E9, 9E9, 9E9, 9E9, 9E9, 9E9] ], v1000, fine, pen\WObj:=platform;
    MoveL [ [-4.508, -2.687, -0.010], [0.109, -0.988, -0.113, 0.000], [0, 0, 0, 0], [ 9E9, 9E9, 9E9, 9E9, 9E9, 9E9] ], v30, fine, pen\WObj:=platform;
    MoveL [ [-3.268, -13.481, 48.795], [0.109, -0.988, -0.113, 0.000], [0, 0, 0, 0], [ 9E9, 9E9, 9E9, 9E9, 9E9, 9E9] ], v1000, fine, pen\WObj:=platform;
    
    !!-4.566378749074589, -2.7885000000000018;
    MoveL [ [-3.267, -13.429, 48.827], [0.108, -0.987, -0.120, 0.000], [0, 0, 0, 0], [ 9E9, 9E9, 9E9, 9E9, 9E9, 9E9] ], v1000, fine, pen\WObj:=platform;
    MoveL [ [-4.566, -2.789, -0.010], [0.108, -0.987, -0.120, 0.000], [0, 0, 0, 0], [ 9E9, 9E9, 9E9, 9E9, 9E9, 9E9] ], v30, fine, pen\WObj:=platform;
    MoveL [ [-3.267, -13.429, 48.827], [0.108, -0.987, -0.120, 0.000], [0, 0, 0, 0], [ 9E9, 9E9, 9E9, 9E9, 9E9, 9E9] ], v1000, fine, pen\WObj:=platform;
    
    !!-4.50783543177876, -2.8899000000000026;
    MoveL [ [-3.249, -13.390, 48.859], [0.106, -0.987, -0.118, 0.000], [0, 0, 0, 0], [ 9E9, 9E9, 9E9, 9E9, 9E9, 9E9] ], v1000, fine, pen\WObj:=platform;
    MoveL [ [-4.508, -2.890, -0.010], [0.106, -0.987, -0.118, 0.000], [0, 0, 0, 0], [ 9E9, 9E9, 9E9, 9E9, 9E9, 9E9] ], v30, fine, pen\WObj:=platform;
    MoveL [ [-3.249, -13.390, 48.859], [0.106, -0.987, -0.118, 0.000], [0, 0, 0, 0], [ 9E9, 9E9, 9E9, 9E9, 9E9, 9E9] ], v1000, fine, pen\WObj:=platform;
    
    !!-4.566378749074589, -2.9913000000000025;
    MoveL [ [-3.248, -13.338, 48.890], [0.105, -0.987, -0.126, 0.000], [0, 0, 0, 0], [ 9E9, 9E9, 9E9, 9E9, 9E9, 9E9] ], v1000, fine, pen\WObj:=platform;
    MoveL [ [-4.566, -2.991, -0.010], [0.105, -0.987, -0.126, 0.000], [0, 0, 0, 0], [ 9E9, 9E9, 9E9, 9E9, 9E9, 9E9] ], v30, fine, pen\WObj:=platform;
    MoveL [ [-3.248, -13.338, 48.890], [0.105, -0.987, -0.126, 0.000], [0, 0, 0, 0], [ 9E9, 9E9, 9E9, 9E9, 9E9, 9E9] ], v1000, fine, pen\WObj:=platform;
    
    !!-4.50783543177876, -3.0927000000000024;
    MoveL [ [-3.229, -13.299, 48.921], [0.103, -0.987, -0.124, 0.000], [0, 0, 0, 0], [ 9E9, 9E9, 9E9, 9E9, 9E9, 9E9] ], v1000, fine, pen\WObj:=platform;
    MoveL [ [-4.508, -3.093, -0.010], [0.103, -0.987, -0.124, 0.000], [0, 0, 0, 0], [ 9E9, 9E9, 9E9, 9E9, 9E9, 9E9] ], v30, fine, pen\WObj:=platform;
    MoveL [ [-3.229, -13.299, 48.921], [0.103, -0.987, -0.124, 0.000], [0, 0, 0, 0], [ 9E9, 9E9, 9E9, 9E9, 9E9, 9E9] ], v1000, fine, pen\WObj:=platform;
    
    !!-4.566378749074589, -3.194100000000002;
    MoveL [ [-0.084, -15.086, 48.348], [0.128, -0.928, -0.350, 0.000], [0, 0, 0, 0], [ 9E9, 9E9, 9E9, 9E9, 9E9, 9E9] ], v1000, fine, pen\WObj:=platform;
    MoveL [ [-4.566, -3.194, -0.010], [0.128, -0.928, -0.350, 0.000], [0, 0, 0, 0], [ 9E9, 9E9, 9E9, 9E9, 9E9, 9E9] ], v30, fine, pen\WObj:=platform;
    MoveL [ [-0.084, -15.086, 48.348], [0.128, -0.928, -0.350, 0.000], [0, 0, 0, 0], [ 9E9, 9E9, 9E9, 9E9, 9E9, 9E9] ], v1000, fine, pen\WObj:=platform;
    
    !!-4.50783543177876, -3.2955000000000023;
    MoveL [ [-3.209, -13.206, 48.981], [0.100, -0.987, -0.129, 0.000], [0, 0, 0, 0], [ 9E9, 9E9, 9E9, 9E9, 9E9, 9E9] ], v1000, fine, pen\WObj:=platform;
    MoveL [ [-4.508, -3.296, -0.010], [0.100, -0.987, -0.129, 0.000], [0, 0, 0, 0], [ 9E9, 9E9, 9E9, 9E9, 9E9, 9E9] ], v30, fine, pen\WObj:=platform;
    MoveL [ [-3.209, -13.206, 48.981], [0.100, -0.987, -0.129, 0.000], [0, 0, 0, 0], [ 9E9, 9E9, 9E9, 9E9, 9E9, 9E9] ], v1000, fine, pen\WObj:=platform;
    
    !!-4.566378749074589, -3.3969000000000023;
    MoveL [ [-3.208, -13.153, 49.010], [0.099, -0.986, -0.137, 0.000], [0, 0, 0, 0], [ 9E9, 9E9, 9E9, 9E9, 9E9, 9E9] ], v1000, fine, pen\WObj:=platform;
    MoveL [ [-4.566, -3.397, -0.010], [0.099, -0.986, -0.137, 0.000], [0, 0, 0, 0], [ 9E9, 9E9, 9E9, 9E9, 9E9, 9E9] ], v30, fine, pen\WObj:=platform;
    MoveL [ [-3.208, -13.153, 49.010], [0.099, -0.986, -0.137, 0.000], [0, 0, 0, 0], [ 9E9, 9E9, 9E9, 9E9, 9E9, 9E9] ], v1000, fine, pen\WObj:=platform;
    
    !!-4.50783543177876, -3.498300000000002;
    MoveL [ [-3.189, -13.113, 49.039], [0.098, -0.986, -0.135, 0.000], [0, 0, 0, 0], [ 9E9, 9E9, 9E9, 9E9, 9E9, 9E9] ], v1000, fine, pen\WObj:=platform;
    MoveL [ [-4.508, -3.498, -0.010], [0.098, -0.986, -0.135, 0.000], [0, 0, 0, 0], [ 9E9, 9E9, 9E9, 9E9, 9E9, 9E9] ], v30, fine, pen\WObj:=platform;
    MoveL [ [-3.189, -13.113, 49.039], [0.098, -0.986, -0.135, 0.000], [0, 0, 0, 0], [ 9E9, 9E9, 9E9, 9E9, 9E9, 9E9] ], v1000, fine, pen\WObj:=platform;
    
    !!-4.566378749074589, -3.599700000000002;
    MoveL [ [-0.014, -14.836, 48.498], [0.122, -0.920, -0.373, 0.000], [0, 0, 0, 0], [ 9E9, 9E9, 9E9, 9E9, 9E9, 9E9] ], v1000, fine, pen\WObj:=platform;
    MoveL [ [-4.566, -3.600, -0.010], [0.122, -0.920, -0.373, 0.000], [0, 0, 0, 0], [ 9E9, 9E9, 9E9, 9E9, 9E9, 9E9] ], v30, fine, pen\WObj:=platform;
    MoveL [ [-0.014, -14.836, 48.498], [0.122, -0.920, -0.373, 0.000], [0, 0, 0, 0], [ 9E9, 9E9, 9E9, 9E9, 9E9, 9E9] ], v1000, fine, pen\WObj:=platform;
    
    !!-4.50783543177876, -3.7011000000000016;
    MoveL [ [-3.168, -13.018, 49.096], [0.095, -0.985, -0.142, 0.000], [0, 0, 0, 0], [ 9E9, 9E9, 9E9, 9E9, 9E9, 9E9] ], v1000, fine, pen\WObj:=platform;
    MoveL [ [-4.508, -3.701, -0.010], [0.095, -0.985, -0.142, 0.000], [0, 0, 0, 0], [ 9E9, 9E9, 9E9, 9E9, 9E9, 9E9] ], v30, fine, pen\WObj:=platform;
    MoveL [ [-3.168, -13.018, 49.096], [0.095, -0.985, -0.142, 0.000], [0, 0, 0, 0], [ 9E9, 9E9, 9E9, 9E9, 9E9, 9E9] ], v1000, fine, pen\WObj:=platform;
    
    !!-4.566378749074589, -3.8025000000000024;
    MoveL [ [-3.166, -12.963, 49.124], [0.093, -0.984, -0.150, 0.000], [0, 0, 0, 0], [ 9E9, 9E9, 9E9, 9E9, 9E9, 9E9] ], v1000, fine, pen\WObj:=platform;
    MoveL [ [-4.566, -3.803, -0.010], [0.093, -0.984, -0.150, 0.000], [0, 0, 0, 0], [ 9E9, 9E9, 9E9, 9E9, 9E9, 9E9] ], v30, fine, pen\WObj:=platform;
    MoveL [ [-3.166, -12.963, 49.124], [0.093, -0.984, -0.150, 0.000], [0, 0, 0, 0], [ 9E9, 9E9, 9E9, 9E9, 9E9, 9E9] ], v1000, fine, pen\WObj:=platform;
    
    !!-4.50783543177876, -3.9039000000000024;
    MoveL [ [-3.147, -12.922, 49.151], [0.092, -0.985, -0.149, 0.000], [0, 0, 0, 0], [ 9E9, 9E9, 9E9, 9E9, 9E9, 9E9] ], v1000, fine, pen\WObj:=platform;
    MoveL [ [-4.508, -3.904, -0.010], [0.092, -0.985, -0.149, 0.000], [0, 0, 0, 0], [ 9E9, 9E9, 9E9, 9E9, 9E9, 9E9] ], v30, fine, pen\WObj:=platform;
    MoveL [ [-3.147, -12.922, 49.151], [0.092, -0.985, -0.149, 0.000], [0, 0, 0, 0], [ 9E9, 9E9, 9E9, 9E9, 9E9, 9E9] ], v1000, fine, pen\WObj:=platform;
    
    !!-4.566378749074589, -4.005300000000003;
    MoveL [ [-3.145, -12.867, 49.178], [0.090, -0.983, -0.158, 0.000], [0, 0, 0, 0], [ 9E9, 9E9, 9E9, 9E9, 9E9, 9E9] ], v1000, fine, pen\WObj:=platform;
    MoveL [ [-4.566, -4.005, -0.010], [0.090, -0.983, -0.158, 0.000], [0, 0, 0, 0], [ 9E9, 9E9, 9E9, 9E9, 9E9, 9E9] ], v30, fine, pen\WObj:=platform;
    MoveL [ [-3.145, -12.867, 49.178], [0.090, -0.983, -0.158, 0.000], [0, 0, 0, 0], [ 9E9, 9E9, 9E9, 9E9, 9E9, 9E9] ], v1000, fine, pen\WObj:=platform;
    
    !!-4.50783543177876, -4.106700000000002;
    MoveL [ [0.084, -14.527, 48.676], [0.115, -0.909, -0.401, 0.000], [0, 0, 0, 0], [ 9E9, 9E9, 9E9, 9E9, 9E9, 9E9] ], v1000, fine, pen\WObj:=platform;
    MoveL [ [-4.508, -4.107, -0.010], [0.115, -0.909, -0.401, 0.000], [0, 0, 0, 0], [ 9E9, 9E9, 9E9, 9E9, 9E9, 9E9] ], v30, fine, pen\WObj:=platform;
    MoveL [ [0.084, -14.527, 48.676], [0.115, -0.909, -0.401, 0.000], [0, 0, 0, 0], [ 9E9, 9E9, 9E9, 9E9, 9E9, 9E9] ], v1000, fine, pen\WObj:=platform;
    
    !!-4.566378749074589, -4.208100000000003;
    MoveL [ [-3.124, -12.770, 49.230], [0.087, -0.982, -0.165, 0.000], [0, 0, 0, 0], [ 9E9, 9E9, 9E9, 9E9, 9E9, 9E9] ], v1000, fine, pen\WObj:=platform;
    MoveL [ [-4.566, -4.208, -0.010], [0.087, -0.982, -0.165, 0.000], [0, 0, 0, 0], [ 9E9, 9E9, 9E9, 9E9, 9E9, 9E9] ], v30, fine, pen\WObj:=platform;
    MoveL [ [-3.124, -12.770, 49.230], [0.087, -0.982, -0.165, 0.000], [0, 0, 0, 0], [ 9E9, 9E9, 9E9, 9E9, 9E9, 9E9] ], v1000, fine, pen\WObj:=platform;
    
    !!-4.50783543177876, -4.3095000000000026;
    MoveL [ [-3.105, -12.728, 49.256], [0.086, -0.983, -0.164, 0.000], [0, 0, 0, 0], [ 9E9, 9E9, 9E9, 9E9, 9E9, 9E9] ], v1000, fine, pen\WObj:=platform;
    MoveL [ [-4.508, -4.310, -0.010], [0.086, -0.983, -0.164, 0.000], [0, 0, 0, 0], [ 9E9, 9E9, 9E9, 9E9, 9E9, 9E9] ], v30, fine, pen\WObj:=platform;
    MoveL [ [-3.105, -12.728, 49.256], [0.086, -0.983, -0.164, 0.000], [0, 0, 0, 0], [ 9E9, 9E9, 9E9, 9E9, 9E9, 9E9] ], v1000, fine, pen\WObj:=platform;
    
    !!-4.566378749074589, -4.410900000000002;
    MoveL [ [0.130, -14.320, 48.773], [0.110, -0.898, -0.426, 0.000], [0, 0, 0, 0], [ 9E9, 9E9, 9E9, 9E9, 9E9, 9E9] ], v1000, fine, pen\WObj:=platform;
    MoveL [ [-4.566, -4.411, -0.010], [0.110, -0.898, -0.426, 0.000], [0, 0, 0, 0], [ 9E9, 9E9, 9E9, 9E9, 9E9, 9E9] ], v30, fine, pen\WObj:=platform;
    MoveL [ [0.130, -14.320, 48.773], [0.110, -0.898, -0.426, 0.000], [0, 0, 0, 0], [ 9E9, 9E9, 9E9, 9E9, 9E9, 9E9] ], v1000, fine, pen\WObj:=platform;
    
    !!-4.50783543177876, -4.512300000000003;
    MoveL [ [-3.083, -12.630, 49.306], [0.083, -0.982, -0.172, 0.000], [0, 0, 0, 0], [ 9E9, 9E9, 9E9, 9E9, 9E9, 9E9] ], v1000, fine, pen\WObj:=platform;
    MoveL [ [-4.508, -4.512, -0.010], [0.083, -0.982, -0.172, 0.000], [0, 0, 0, 0], [ 9E9, 9E9, 9E9, 9E9, 9E9, 9E9] ], v30, fine, pen\WObj:=platform;
    MoveL [ [-3.083, -12.630, 49.306], [0.083, -0.982, -0.172, 0.000], [0, 0, 0, 0], [ 9E9, 9E9, 9E9, 9E9, 9E9, 9E9] ], v1000, fine, pen\WObj:=platform;
    
    !!-4.566378749074589, -4.613700000000003;
    MoveL [ [-3.081, -12.574, 49.330], [0.081, -0.980, -0.183, 0.000], [0, 0, 0, 0], [ 9E9, 9E9, 9E9, 9E9, 9E9, 9E9] ], v1000, fine, pen\WObj:=platform;
    MoveL [ [-4.566, -4.614, -0.010], [0.081, -0.980, -0.183, 0.000], [0, 0, 0, 0], [ 9E9, 9E9, 9E9, 9E9, 9E9, 9E9] ], v30, fine, pen\WObj:=platform;
    MoveL [ [-3.081, -12.574, 49.330], [0.081, -0.980, -0.183, 0.000], [0, 0, 0, 0], [ 9E9, 9E9, 9E9, 9E9, 9E9, 9E9] ], v1000, fine, pen\WObj:=platform;
    
    !!-4.50783543177876, -4.715100000000002;
    MoveL [ [-3.061, -12.531, 49.354], [0.080, -0.980, -0.181, 0.000], [0, 0, 0, 0], [ 9E9, 9E9, 9E9, 9E9, 9E9, 9E9] ], v1000, fine, pen\WObj:=platform;
    MoveL [ [-4.508, -4.715, -0.010], [0.080, -0.980, -0.181, 0.000], [0, 0, 0, 0], [ 9E9, 9E9, 9E9, 9E9, 9E9, 9E9] ], v30, fine, pen\WObj:=platform;
    MoveL [ [-3.061, -12.531, 49.354], [0.080, -0.980, -0.181, 0.000], [0, 0, 0, 0], [ 9E9, 9E9, 9E9, 9E9, 9E9, 9E9] ], v1000, fine, pen\WObj:=platform;
    
    !!-4.566378749074589, -4.816500000000002;
    MoveL [ [0.202, -14.053, 48.898], [0.105, -0.884, -0.456, 0.000], [0, 0, 0, 0], [ 9E9, 9E9, 9E9, 9E9, 9E9, 9E9] ], v1000, fine, pen\WObj:=platform;
    MoveL [ [-4.566, -4.817, -0.010], [0.105, -0.884, -0.456, 0.000], [0, 0, 0, 0], [ 9E9, 9E9, 9E9, 9E9, 9E9, 9E9] ], v30, fine, pen\WObj:=platform;
    MoveL [ [0.202, -14.053, 48.898], [0.105, -0.884, -0.456, 0.000], [0, 0, 0, 0], [ 9E9, 9E9, 9E9, 9E9, 9E9, 9E9] ], v1000, fine, pen\WObj:=platform;
    
    !!-4.50783543177876, -4.917900000000002;
    MoveL [ [-3.039, -12.431, 49.400], [0.077, -0.979, -0.191, 0.000], [0, 0, 0, 0], [ 9E9, 9E9, 9E9, 9E9, 9E9, 9E9] ], v1000, fine, pen\WObj:=platform;
    MoveL [ [-4.508, -4.918, -0.010], [0.077, -0.979, -0.191, 0.000], [0, 0, 0, 0], [ 9E9, 9E9, 9E9, 9E9, 9E9, 9E9] ], v30, fine, pen\WObj:=platform;
    MoveL [ [-3.039, -12.431, 49.400], [0.077, -0.979, -0.191, 0.000], [0, 0, 0, 0], [ 9E9, 9E9, 9E9, 9E9, 9E9, 9E9] ], v1000, fine, pen\WObj:=platform;
    
    !!-4.566378749074589, -5.019300000000003;
    MoveL [ [-3.036, -12.374, 49.423], [0.075, -0.976, -0.203, 0.000], [0, 0, 0, 0], [ 9E9, 9E9, 9E9, 9E9, 9E9, 9E9] ], v1000, fine, pen\WObj:=platform;
    MoveL [ [-4.566, -5.019, -0.010], [0.075, -0.976, -0.203, 0.000], [0, 0, 0, 0], [ 9E9, 9E9, 9E9, 9E9, 9E9, 9E9] ], v30, fine, pen\WObj:=platform;
    MoveL [ [-3.036, -12.374, 49.423], [0.075, -0.976, -0.203, 0.000], [0, 0, 0, 0], [ 9E9, 9E9, 9E9, 9E9, 9E9, 9E9] ], v1000, fine, pen\WObj:=platform;
    
    !!-4.50783543177876, -5.120700000000003;
    MoveL [ [-3.017, -12.330, 49.445], [0.074, -0.977, -0.202, 0.000], [0, 0, 0, 0], [ 9E9, 9E9, 9E9, 9E9, 9E9, 9E9] ], v1000, fine, pen\WObj:=platform;
    MoveL [ [-4.508, -5.121, -0.010], [0.074, -0.977, -0.202, 0.000], [0, 0, 0, 0], [ 9E9, 9E9, 9E9, 9E9, 9E9, 9E9] ], v30, fine, pen\WObj:=platform;
    MoveL [ [-3.017, -12.330, 49.445], [0.074, -0.977, -0.202, 0.000], [0, 0, 0, 0], [ 9E9, 9E9, 9E9, 9E9, 9E9, 9E9] ], v1000, fine, pen\WObj:=platform;
    
    !!-4.566378749074589, -5.222100000000003;
    MoveL [ [-3.014, -12.272, 49.466], [0.072, -0.974, -0.215, 0.000], [0, 0, 0, 0], [ 9E9, 9E9, 9E9, 9E9, 9E9, 9E9] ], v1000, fine, pen\WObj:=platform;
    MoveL [ [-4.566, -5.222, -0.010], [0.072, -0.974, -0.215, 0.000], [0, 0, 0, 0], [ 9E9, 9E9, 9E9, 9E9, 9E9, 9E9] ], v30, fine, pen\WObj:=platform;
    MoveL [ [-3.014, -12.272, 49.466], [0.072, -0.974, -0.215, 0.000], [0, 0, 0, 0], [ 9E9, 9E9, 9E9, 9E9, 9E9, 9E9] ], v1000, fine, pen\WObj:=platform;
    
    !!-4.50783543177876, -5.323500000000003;
    MoveL [ [-2.994, -12.229, 49.488], [0.071, -0.974, -0.214, 0.000], [0, 0, 0, 0], [ 9E9, 9E9, 9E9, 9E9, 9E9, 9E9] ], v1000, fine, pen\WObj:=platform;
    MoveL [ [-4.508, -5.324, -0.010], [0.071, -0.974, -0.214, 0.000], [0, 0, 0, 0], [ 9E9, 9E9, 9E9, 9E9, 9E9, 9E9] ], v30, fine, pen\WObj:=platform;
    MoveL [ [-2.994, -12.229, 49.488], [0.071, -0.974, -0.214, 0.000], [0, 0, 0, 0], [ 9E9, 9E9, 9E9, 9E9, 9E9, 9E9] ], v1000, fine, pen\WObj:=platform;
    
    !!-4.566378749074589, -5.424900000000003;
    MoveL [ [-2.991, -12.171, 49.508], [0.069, -0.971, -0.227, 0.000], [0, 0, 0, 0], [ 9E9, 9E9, 9E9, 9E9, 9E9, 9E9] ], v1000, fine, pen\WObj:=platform;
    MoveL [ [-4.566, -5.425, -0.010], [0.069, -0.971, -0.227, 0.000], [0, 0, 0, 0], [ 9E9, 9E9, 9E9, 9E9, 9E9, 9E9] ], v30, fine, pen\WObj:=platform;
    MoveL [ [-2.991, -12.171, 49.508], [0.069, -0.971, -0.227, 0.000], [0, 0, 0, 0], [ 9E9, 9E9, 9E9, 9E9, 9E9, 9E9] ], v1000, fine, pen\WObj:=platform;
    
    !!-4.50783543177876, -5.526300000000002;
    MoveL [ [-2.971, -12.127, 49.529], [0.068, -0.972, -0.226, 0.000], [0, 0, 0, 0], [ 9E9, 9E9, 9E9, 9E9, 9E9, 9E9] ], v1000, fine, pen\WObj:=platform;
    MoveL [ [-4.508, -5.526, -0.010], [0.068, -0.972, -0.226, 0.000], [0, 0, 0, 0], [ 9E9, 9E9, 9E9, 9E9, 9E9, 9E9] ], v30, fine, pen\WObj:=platform;
    MoveL [ [-2.971, -12.127, 49.529], [0.068, -0.972, -0.226, 0.000], [0, 0, 0, 0], [ 9E9, 9E9, 9E9, 9E9, 9E9, 9E9] ], v1000, fine, pen\WObj:=platform;
    
    !!-4.566378749074589, -5.627700000000003;
    MoveL [ [-2.968, -12.068, 49.548], [0.067, -0.968, -0.240, 0.000], [0, 0, 0, 0], [ 9E9, 9E9, 9E9, 9E9, 9E9, 9E9] ], v1000, fine, pen\WObj:=platform;
    MoveL [ [-4.566, -5.628, -0.010], [0.067, -0.968, -0.240, 0.000], [0, 0, 0, 0], [ 9E9, 9E9, 9E9, 9E9, 9E9, 9E9] ], v30, fine, pen\WObj:=platform;
    MoveL [ [-2.968, -12.068, 49.548], [0.067, -0.968, -0.240, 0.000], [0, 0, 0, 0], [ 9E9, 9E9, 9E9, 9E9, 9E9, 9E9] ], v1000, fine, pen\WObj:=platform;
    
    !!-4.50783543177876, -5.729100000000003;
    MoveL [ [0.374, -13.446, 49.149], [0.092, -0.842, -0.532, 0.000], [0, 0, 0, 0], [ 9E9, 9E9, 9E9, 9E9, 9E9, 9E9] ], v1000, fine, pen\WObj:=platform;
    MoveL [ [-4.508, -5.729, -0.010], [0.092, -0.842, -0.532, 0.000], [0, 0, 0, 0], [ 9E9, 9E9, 9E9, 9E9, 9E9, 9E9] ], v30, fine, pen\WObj:=platform;
    MoveL [ [0.374, -13.446, 49.149], [0.092, -0.842, -0.532, 0.000], [0, 0, 0, 0], [ 9E9, 9E9, 9E9, 9E9, 9E9, 9E9] ], v1000, fine, pen\WObj:=platform;
    
    !!-4.566378749074589, -5.8305000000000025;
    MoveL [ [-2.944, -11.965, 49.586], [0.064, -0.965, -0.255, 0.000], [0, 0, 0, 0], [ 9E9, 9E9, 9E9, 9E9, 9E9, 9E9] ], v1000, fine, pen\WObj:=platform;
    MoveL [ [-4.566, -5.831, -0.010], [0.064, -0.965, -0.255, 0.000], [0, 0, 0, 0], [ 9E9, 9E9, 9E9, 9E9, 9E9, 9E9] ], v30, fine, pen\WObj:=platform;
    MoveL [ [-2.944, -11.965, 49.586], [0.064, -0.965, -0.255, 0.000], [0, 0, 0, 0], [ 9E9, 9E9, 9E9, 9E9, 9E9, 9E9] ], v1000, fine, pen\WObj:=platform;
    
    !!-4.50783543177876, -5.931900000000003;
    MoveL [ [-2.924, -11.920, 49.605], [0.062, -0.965, -0.255, 0.000], [0, 0, 0, 0], [ 9E9, 9E9, 9E9, 9E9, 9E9, 9E9] ], v1000, fine, pen\WObj:=platform;
    MoveL [ [-4.508, -5.932, -0.010], [0.062, -0.965, -0.255, 0.000], [0, 0, 0, 0], [ 9E9, 9E9, 9E9, 9E9, 9E9, 9E9] ], v30, fine, pen\WObj:=platform;
    MoveL [ [-2.924, -11.920, 49.605], [0.062, -0.965, -0.255, 0.000], [0, 0, 0, 0], [ 9E9, 9E9, 9E9, 9E9, 9E9, 9E9] ], v1000, fine, pen\WObj:=platform;
    
    !!-4.566378749074589, -6.033300000000004;
    MoveL [ [-2.921, -11.861, 49.622], [0.061, -0.961, -0.271, 0.000], [0, 0, 0, 0], [ 9E9, 9E9, 9E9, 9E9, 9E9, 9E9] ], v1000, fine, pen\WObj:=platform;
    MoveL [ [-4.566, -6.033, -0.010], [0.061, -0.961, -0.271, 0.000], [0, 0, 0, 0], [ 9E9, 9E9, 9E9, 9E9, 9E9, 9E9] ], v30, fine, pen\WObj:=platform;
    MoveL [ [-2.921, -11.861, 49.622], [0.061, -0.961, -0.271, 0.000], [0, 0, 0, 0], [ 9E9, 9E9, 9E9, 9E9, 9E9, 9E9] ], v1000, fine, pen\WObj:=platform;
    
    !!-4.50783543177876, -6.134700000000003;
    MoveL [ [0.448, -13.165, 49.245], [0.086, -0.814, -0.574, 0.000], [0, 0, 0, 0], [ 9E9, 9E9, 9E9, 9E9, 9E9, 9E9] ], v1000, fine, pen\WObj:=platform;
    MoveL [ [-4.508, -6.135, -0.010], [0.086, -0.814, -0.574, 0.000], [0, 0, 0, 0], [ 9E9, 9E9, 9E9, 9E9, 9E9, 9E9] ], v30, fine, pen\WObj:=platform;
    MoveL [ [0.448, -13.165, 49.245], [0.086, -0.814, -0.574, 0.000], [0, 0, 0, 0], [ 9E9, 9E9, 9E9, 9E9, 9E9, 9E9] ], v1000, fine, pen\WObj:=platform;
    
    !!-4.566378749074589, -6.236100000000002;
    MoveL [ [-2.897, -11.757, 49.656], [0.058, -0.956, -0.289, 0.000], [0, 0, 0, 0], [ 9E9, 9E9, 9E9, 9E9, 9E9, 9E9] ], v1000, fine, pen\WObj:=platform;
    MoveL [ [-4.566, -6.236, -0.010], [0.058, -0.956, -0.289, 0.000], [0, 0, 0, 0], [ 9E9, 9E9, 9E9, 9E9, 9E9, 9E9] ], v30, fine, pen\WObj:=platform;
    MoveL [ [-2.897, -11.757, 49.656], [0.058, -0.956, -0.289, 0.000], [0, 0, 0, 0], [ 9E9, 9E9, 9E9, 9E9, 9E9, 9E9] ], v1000, fine, pen\WObj:=platform;
    
    !!-4.50783543177876, -6.337500000000001;
    MoveL [ [-2.877, -11.712, 49.674], [0.056, -0.955, -0.290, 0.000], [0, 0, 0, 0], [ 9E9, 9E9, 9E9, 9E9, 9E9, 9E9] ], v1000, fine, pen\WObj:=platform;
    MoveL [ [-4.508, -6.338, -0.010], [0.056, -0.955, -0.290, 0.000], [0, 0, 0, 0], [ 9E9, 9E9, 9E9, 9E9, 9E9, 9E9] ], v30, fine, pen\WObj:=platform;
    MoveL [ [-2.877, -11.712, 49.674], [0.056, -0.955, -0.290, 0.000], [0, 0, 0, 0], [ 9E9, 9E9, 9E9, 9E9, 9E9, 9E9] ], v1000, fine, pen\WObj:=platform;
    
    !!-4.566378749074589, -6.438900000000003;
    MoveL [ [-2.873, -11.652, 49.689], [0.055, -0.950, -0.308, 0.000], [0, 0, 0, 0], [ 9E9, 9E9, 9E9, 9E9, 9E9, 9E9] ], v1000, fine, pen\WObj:=platform;
    MoveL [ [-4.566, -6.439, -0.010], [0.055, -0.950, -0.308, 0.000], [0, 0, 0, 0], [ 9E9, 9E9, 9E9, 9E9, 9E9, 9E9] ], v30, fine, pen\WObj:=platform;
    MoveL [ [-2.873, -11.652, 49.689], [0.055, -0.950, -0.308, 0.000], [0, 0, 0, 0], [ 9E9, 9E9, 9E9, 9E9, 9E9, 9E9] ], v1000, fine, pen\WObj:=platform;
    
    !!-4.50783543177876, -6.540300000000004;
    MoveL [ [-2.853, -11.606, 49.705], [0.053, -0.949, -0.310, 0.000], [0, 0, 0, 0], [ 9E9, 9E9, 9E9, 9E9, 9E9, 9E9] ], v1000, fine, pen\WObj:=platform;
    MoveL [ [-4.508, -6.540, -0.010], [0.053, -0.949, -0.310, 0.000], [0, 0, 0, 0], [ 9E9, 9E9, 9E9, 9E9, 9E9, 9E9] ], v30, fine, pen\WObj:=platform;
    MoveL [ [-2.853, -11.606, 49.705], [0.053, -0.949, -0.310, 0.000], [0, 0, 0, 0], [ 9E9, 9E9, 9E9, 9E9, 9E9, 9E9] ], v1000, fine, pen\WObj:=platform;
    
    !!-4.566378749074589, -6.641700000000002;
    MoveL [ [-2.849, -11.546, 49.719], [0.052, -0.943, -0.330, 0.000], [0, 0, 0, 0], [ 9E9, 9E9, 9E9, 9E9, 9E9, 9E9] ], v1000, fine, pen\WObj:=platform;
    MoveL [ [-4.566, -6.642, -0.010], [0.052, -0.943, -0.330, 0.000], [0, 0, 0, 0], [ 9E9, 9E9, 9E9, 9E9, 9E9, 9E9] ], v30, fine, pen\WObj:=platform;
    MoveL [ [-2.849, -11.546, 49.719], [0.052, -0.943, -0.330, 0.000], [0, 0, 0, 0], [ 9E9, 9E9, 9E9, 9E9, 9E9, 9E9] ], v1000, fine, pen\WObj:=platform;
    
    !!-4.50783543177876, -6.743100000000004;
    MoveL [ [-2.828, -11.501, 49.735], [0.051, -0.942, -0.332, 0.000], [0, 0, 0, 0], [ 9E9, 9E9, 9E9, 9E9, 9E9, 9E9] ], v1000, fine, pen\WObj:=platform;
    MoveL [ [-4.508, -6.743, -0.010], [0.051, -0.942, -0.332, 0.000], [0, 0, 0, 0], [ 9E9, 9E9, 9E9, 9E9, 9E9, 9E9] ], v30, fine, pen\WObj:=platform;
    MoveL [ [-2.828, -11.501, 49.735], [0.051, -0.942, -0.332, 0.000], [0, 0, 0, 0], [ 9E9, 9E9, 9E9, 9E9, 9E9, 9E9] ], v1000, fine, pen\WObj:=platform;
    
    !!-4.566378749074589, -6.844500000000004;
    MoveL [ [0.567, -12.652, 49.386], [0.078, -0.747, -0.660, 0.000], [0, 0, 0, 0], [ 9E9, 9E9, 9E9, 9E9, 9E9, 9E9] ], v1000, fine, pen\WObj:=platform;
    MoveL [ [-4.566, -6.845, -0.010], [0.078, -0.747, -0.660, 0.000], [0, 0, 0, 0], [ 9E9, 9E9, 9E9, 9E9, 9E9, 9E9] ], v30, fine, pen\WObj:=platform;
    MoveL [ [0.567, -12.652, 49.386], [0.078, -0.747, -0.660, 0.000], [0, 0, 0, 0], [ 9E9, 9E9, 9E9, 9E9, 9E9, 9E9] ], v1000, fine, pen\WObj:=platform;
    
    !!-4.50783543177876, -6.945900000000003;
    MoveL [ [-2.804, -11.394, 49.763], [0.048, -0.933, -0.357, 0.000], [0, 0, 0, 0], [ 9E9, 9E9, 9E9, 9E9, 9E9, 9E9] ], v1000, fine, pen\WObj:=platform;
    MoveL [ [-4.508, -6.946, -0.010], [0.048, -0.933, -0.357, 0.000], [0, 0, 0, 0], [ 9E9, 9E9, 9E9, 9E9, 9E9, 9E9] ], v30, fine, pen\WObj:=platform;
    MoveL [ [-2.804, -11.394, 49.763], [0.048, -0.933, -0.357, 0.000], [0, 0, 0, 0], [ 9E9, 9E9, 9E9, 9E9, 9E9, 9E9] ], v1000, fine, pen\WObj:=platform;
    
    !!-4.566378749074589, -7.047300000000002;
    MoveL [ [-2.800, -11.334, 49.775], [0.046, -0.924, -0.381, 0.000], [0, 0, 0, 0], [ 9E9, 9E9, 9E9, 9E9, 9E9, 9E9] ], v1000, fine, pen\WObj:=platform;
    MoveL [ [-4.566, -7.047, -0.010], [0.046, -0.924, -0.381, 0.000], [0, 0, 0, 0], [ 9E9, 9E9, 9E9, 9E9, 9E9, 9E9] ], v30, fine, pen\WObj:=platform;
    MoveL [ [-2.800, -11.334, 49.775], [0.046, -0.924, -0.381, 0.000], [0, 0, 0, 0], [ 9E9, 9E9, 9E9, 9E9, 9E9, 9E9] ], v1000, fine, pen\WObj:=platform;
    
    !!-4.50783543177876, -7.148700000000003;
    MoveL [ [-2.779, -11.288, 49.788], [0.045, -0.922, -0.385, 0.000], [0, 0, 0, 0], [ 9E9, 9E9, 9E9, 9E9, 9E9, 9E9] ], v1000, fine, pen\WObj:=platform;
    MoveL [ [-4.508, -7.149, -0.010], [0.045, -0.922, -0.385, 0.000], [0, 0, 0, 0], [ 9E9, 9E9, 9E9, 9E9, 9E9, 9E9] ], v30, fine, pen\WObj:=platform;
    MoveL [ [-2.779, -11.288, 49.788], [0.045, -0.922, -0.385, 0.000], [0, 0, 0, 0], [ 9E9, 9E9, 9E9, 9E9, 9E9, 9E9] ], v1000, fine, pen\WObj:=platform;
    
    !!-4.566378749074589, -7.250100000000003;
    MoveL [ [-2.775, -11.227, 49.799], [0.044, -0.911, -0.410, 0.000], [0, 0, 0, 0], [ 9E9, 9E9, 9E9, 9E9, 9E9, 9E9] ], v1000, fine, pen\WObj:=platform;
    MoveL [ [-4.566, -7.250, -0.010], [0.044, -0.911, -0.410, 0.000], [0, 0, 0, 0], [ 9E9, 9E9, 9E9, 9E9, 9E9, 9E9] ], v30, fine, pen\WObj:=platform;
    MoveL [ [-2.775, -11.227, 49.799], [0.044, -0.911, -0.410, 0.000], [0, 0, 0, 0], [ 9E9, 9E9, 9E9, 9E9, 9E9, 9E9] ], v1000, fine, pen\WObj:=platform;
    
    !!-4.50783543177876, -7.3515000000000015;
    MoveL [ [-2.754, -11.181, 49.812], [0.042, -0.908, -0.416, 0.000], [0, 0, 0, 0], [ 9E9, 9E9, 9E9, 9E9, 9E9, 9E9] ], v1000, fine, pen\WObj:=platform;
    MoveL [ [-4.508, -7.352, -0.010], [0.042, -0.908, -0.416, 0.000], [0, 0, 0, 0], [ 9E9, 9E9, 9E9, 9E9, 9E9, 9E9] ], v30, fine, pen\WObj:=platform;
    MoveL [ [-2.754, -11.181, 49.812], [0.042, -0.908, -0.416, 0.000], [0, 0, 0, 0], [ 9E9, 9E9, 9E9, 9E9, 9E9, 9E9] ], v1000, fine, pen\WObj:=platform;
    
    !!-4.566378749074589, -7.452900000000002;
    MoveL [ [-2.750, -11.119, 49.822], [0.041, -0.895, -0.444, 0.000], [0, 0, 0, 0], [ 9E9, 9E9, 9E9, 9E9, 9E9, 9E9] ], v1000, fine, pen\WObj:=platform;
    MoveL [ [-4.566, -7.453, -0.010], [0.041, -0.895, -0.444, 0.000], [0, 0, 0, 0], [ 9E9, 9E9, 9E9, 9E9, 9E9, 9E9] ], v30, fine, pen\WObj:=platform;
    MoveL [ [-2.750, -11.119, 49.822], [0.041, -0.895, -0.444, 0.000], [0, 0, 0, 0], [ 9E9, 9E9, 9E9, 9E9, 9E9, 9E9] ], v1000, fine, pen\WObj:=platform;
    
    !!-4.50783543177876, -7.554300000000004;
    MoveL [ [-2.729, -11.073, 49.834], [0.039, -0.892, -0.451, 0.000], [0, 0, 0, 0], [ 9E9, 9E9, 9E9, 9E9, 9E9, 9E9] ], v1000, fine, pen\WObj:=platform;
    MoveL [ [-4.508, -7.554, -0.010], [0.039, -0.892, -0.451, 0.000], [0, 0, 0, 0], [ 9E9, 9E9, 9E9, 9E9, 9E9, 9E9] ], v30, fine, pen\WObj:=platform;
    MoveL [ [-2.729, -11.073, 49.834], [0.039, -0.892, -0.451, 0.000], [0, 0, 0, 0], [ 9E9, 9E9, 9E9, 9E9, 9E9, 9E9] ], v1000, fine, pen\WObj:=platform;
    
    !!-4.566378749074589, -7.655700000000003;
    MoveL [ [-2.725, -11.012, 49.843], [0.038, -0.876, -0.481, 0.000], [0, 0, 0, 0], [ 9E9, 9E9, 9E9, 9E9, 9E9, 9E9] ], v1000, fine, pen\WObj:=platform;
    MoveL [ [-4.566, -7.656, -0.010], [0.038, -0.876, -0.481, 0.000], [0, 0, 0, 0], [ 9E9, 9E9, 9E9, 9E9, 9E9, 9E9] ], v30, fine, pen\WObj:=platform;
    MoveL [ [-2.725, -11.012, 49.843], [0.038, -0.876, -0.481, 0.000], [0, 0, 0, 0], [ 9E9, 9E9, 9E9, 9E9, 9E9, 9E9] ], v1000, fine, pen\WObj:=platform;
    
    !!-4.50783543177876, -7.757100000000002;
    MoveL [ [0.740, -12.003, 49.532], [0.068, -0.628, -0.776, 0.000], [0, 0, 0, 0], [ 9E9, 9E9, 9E9, 9E9, 9E9, 9E9] ], v1000, fine, pen\WObj:=platform;
    MoveL [ [-4.508, -7.757, -0.010], [0.068, -0.628, -0.776, 0.000], [0, 0, 0, 0], [ 9E9, 9E9, 9E9, 9E9, 9E9, 9E9] ], v30, fine, pen\WObj:=platform;
    MoveL [ [0.740, -12.003, 49.532], [0.068, -0.628, -0.776, 0.000], [0, 0, 0, 0], [ 9E9, 9E9, 9E9, 9E9, 9E9, 9E9] ], v1000, fine, pen\WObj:=platform;
    
    !!-4.566378749074589, -7.858500000000004;
    MoveL [ [-2.699, -10.904, 49.862], [0.036, -0.852, -0.522, 0.000], [0, 0, 0, 0], [ 9E9, 9E9, 9E9, 9E9, 9E9, 9E9] ], v1000, fine, pen\WObj:=platform;
    MoveL [ [-4.566, -7.859, -0.010], [0.036, -0.852, -0.522, 0.000], [0, 0, 0, 0], [ 9E9, 9E9, 9E9, 9E9, 9E9, 9E9] ], v30, fine, pen\WObj:=platform;
    MoveL [ [-2.699, -10.904, 49.862], [0.036, -0.852, -0.522, 0.000], [0, 0, 0, 0], [ 9E9, 9E9, 9E9, 9E9, 9E9, 9E9] ], v1000, fine, pen\WObj:=platform;
    
    !!-4.50783543177876, -7.959900000000003;
    MoveL [ [-2.678, -10.857, 49.872], [0.034, -0.845, -0.534, 0.000], [0, 0, 0, 0], [ 9E9, 9E9, 9E9, 9E9, 9E9, 9E9] ], v1000, fine, pen\WObj:=platform;
    MoveL [ [-4.508, -7.960, -0.010], [0.034, -0.845, -0.534, 0.000], [0, 0, 0, 0], [ 9E9, 9E9, 9E9, 9E9, 9E9, 9E9] ], v30, fine, pen\WObj:=platform;
    MoveL [ [-2.678, -10.857, 49.872], [0.034, -0.845, -0.534, 0.000], [0, 0, 0, 0], [ 9E9, 9E9, 9E9, 9E9, 9E9, 9E9] ], v1000, fine, pen\WObj:=platform;
    
    !!-4.566378749074589, -8.061300000000003;
    MoveL [ [-2.674, -10.796, 49.879], [0.033, -0.822, -0.569, 0.000], [0, 0, 0, 0], [ 9E9, 9E9, 9E9, 9E9, 9E9, 9E9] ], v1000, fine, pen\WObj:=platform;
    MoveL [ [-4.566, -8.061, -0.010], [0.033, -0.822, -0.569, 0.000], [0, 0, 0, 0], [ 9E9, 9E9, 9E9, 9E9, 9E9, 9E9] ], v30, fine, pen\WObj:=platform;
    MoveL [ [-2.674, -10.796, 49.879], [0.033, -0.822, -0.569, 0.000], [0, 0, 0, 0], [ 9E9, 9E9, 9E9, 9E9, 9E9, 9E9] ], v1000, fine, pen\WObj:=platform;
    
    !!-4.50783543177876, -8.162700000000001;
    MoveL [ [0.813, -11.705, 49.580], [0.064, -0.553, -0.831, 0.000], [0, 0, 0, 0], [ 9E9, 9E9, 9E9, 9E9, 9E9, 9E9] ], v1000, fine, pen\WObj:=platform;
    MoveL [ [-4.508, -8.163, -0.010], [0.064, -0.553, -0.831, 0.000], [0, 0, 0, 0], [ 9E9, 9E9, 9E9, 9E9, 9E9, 9E9] ], v30, fine, pen\WObj:=platform;
    MoveL [ [0.813, -11.705, 49.580], [0.064, -0.553, -0.831, 0.000], [0, 0, 0, 0], [ 9E9, 9E9, 9E9, 9E9, 9E9, 9E9] ], v1000, fine, pen\WObj:=platform;
    
    !!-4.566378749074589, -8.264100000000003;
    MoveL [ [-2.648, -10.687, 49.894], [0.031, -0.784, -0.620, 0.000], [0, 0, 0, 0], [ 9E9, 9E9, 9E9, 9E9, 9E9, 9E9] ], v1000, fine, pen\WObj:=platform;
    MoveL [ [-4.566, -8.264, -0.010], [0.031, -0.784, -0.620, 0.000], [0, 0, 0, 0], [ 9E9, 9E9, 9E9, 9E9, 9E9, 9E9] ], v30, fine, pen\WObj:=platform;
    MoveL [ [-2.648, -10.687, 49.894], [0.031, -0.784, -0.620, 0.000], [0, 0, 0, 0], [ 9E9, 9E9, 9E9, 9E9, 9E9, 9E9] ], v1000, fine, pen\WObj:=platform;
    
    !!-4.50783543177876, -8.365500000000004;
    MoveL [ [-2.627, -10.641, 49.903], [0.030, -0.770, -0.637, 0.000], [0, 0, 0, 0], [ 9E9, 9E9, 9E9, 9E9, 9E9, 9E9] ], v1000, fine, pen\WObj:=platform;
    MoveL [ [-4.508, -8.366, -0.010], [0.030, -0.770, -0.637, 0.000], [0, 0, 0, 0], [ 9E9, 9E9, 9E9, 9E9, 9E9, 9E9] ], v30, fine, pen\WObj:=platform;
    MoveL [ [-2.627, -10.641, 49.903], [0.030, -0.770, -0.637, 0.000], [0, 0, 0, 0], [ 9E9, 9E9, 9E9, 9E9, 9E9, 9E9] ], v1000, fine, pen\WObj:=platform;
    
    !!-4.566378749074589, -8.466900000000003;
    MoveL [ [-2.622, -10.579, 49.908], [0.029, -0.735, -0.677, 0.000], [0, 0, 0, 0], [ 9E9, 9E9, 9E9, 9E9, 9E9, 9E9] ], v1000, fine, pen\WObj:=platform;
    MoveL [ [-4.566, -8.467, -0.010], [0.029, -0.735, -0.677, 0.000], [0, 0, 0, 0], [ 9E9, 9E9, 9E9, 9E9, 9E9, 9E9] ], v30, fine, pen\WObj:=platform;
    MoveL [ [-2.622, -10.579, 49.908], [0.029, -0.735, -0.677, 0.000], [0, 0, 0, 0], [ 9E9, 9E9, 9E9, 9E9, 9E9, 9E9] ], v1000, fine, pen\WObj:=platform;
    
    !!-4.50783543177876, -8.568300000000002;
    MoveL [ [0.886, -11.406, 49.617], [0.061, -0.465, -0.883, 0.000], [0, 0, 0, 0], [ 9E9, 9E9, 9E9, 9E9, 9E9, 9E9] ], v1000, fine, pen\WObj:=platform;
    MoveL [ [-4.508, -8.568, -0.010], [0.061, -0.465, -0.883, 0.000], [0, 0, 0, 0], [ 9E9, 9E9, 9E9, 9E9, 9E9, 9E9] ], v30, fine, pen\WObj:=platform;
    MoveL [ [0.886, -11.406, 49.617], [0.061, -0.465, -0.883, 0.000], [0, 0, 0, 0], [ 9E9, 9E9, 9E9, 9E9, 9E9, 9E9] ], v1000, fine, pen\WObj:=platform;
    
    !!-4.566378749074589, -8.669700000000004;
    MoveL [ [-2.596, -10.470, 49.919], [0.027, -0.674, -0.738, 0.000], [0, 0, 0, 0], [ 9E9, 9E9, 9E9, 9E9, 9E9, 9E9] ], v1000, fine, pen\WObj:=platform;
    MoveL [ [-4.566, -8.670, -0.010], [0.027, -0.674, -0.738, 0.000], [0, 0, 0, 0], [ 9E9, 9E9, 9E9, 9E9, 9E9, 9E9] ], v30, fine, pen\WObj:=platform;
    MoveL [ [-2.596, -10.470, 49.919], [0.027, -0.674, -0.738, 0.000], [0, 0, 0, 0], [ 9E9, 9E9, 9E9, 9E9, 9E9, 9E9] ], v1000, fine, pen\WObj:=platform;
    
    !!-4.50783543177876, -8.771100000000002;
    MoveL [ [-2.574, -10.423, 49.925], [0.025, -0.649, -0.760, 0.000], [0, 0, 0, 0], [ 9E9, 9E9, 9E9, 9E9, 9E9, 9E9] ], v1000, fine, pen\WObj:=platform;
    MoveL [ [-4.508, -8.771, -0.010], [0.025, -0.649, -0.760, 0.000], [0, 0, 0, 0], [ 9E9, 9E9, 9E9, 9E9, 9E9, 9E9] ], v30, fine, pen\WObj:=platform;
    MoveL [ [-2.574, -10.423, 49.925], [0.025, -0.649, -0.760, 0.000], [0, 0, 0, 0], [ 9E9, 9E9, 9E9, 9E9, 9E9, 9E9] ], v1000, fine, pen\WObj:=platform;
    
    !!-4.566378749074589, -8.872500000000002;
    MoveL [ [-2.570, -10.361, 49.928], [0.025, -0.597, -0.802, 0.000], [0, 0, 0, 0], [ 9E9, 9E9, 9E9, 9E9, 9E9, 9E9] ], v1000, fine, pen\WObj:=platform;
    MoveL [ [-4.566, -8.873, -0.010], [0.025, -0.597, -0.802, 0.000], [0, 0, 0, 0], [ 9E9, 9E9, 9E9, 9E9, 9E9, 9E9] ], v30, fine, pen\WObj:=platform;
    MoveL [ [-2.570, -10.361, 49.928], [0.025, -0.597, -0.802, 0.000], [0, 0, 0, 0], [ 9E9, 9E9, 9E9, 9E9, 9E9, 9E9] ], v1000, fine, pen\WObj:=platform;
    
    !!-4.50783543177876, -8.973900000000004;
    MoveL [ [0.958, -11.105, 49.645], [0.059, -0.363, -0.930, 0.000], [0, 0, 0, 0], [ 9E9, 9E9, 9E9, 9E9, 9E9, 9E9] ], v1000, fine, pen\WObj:=platform;
    MoveL [ [-4.508, -8.974, -0.010], [0.059, -0.363, -0.930, 0.000], [0, 0, 0, 0], [ 9E9, 9E9, 9E9, 9E9, 9E9, 9E9] ], v30, fine, pen\WObj:=platform;
    MoveL [ [0.958, -11.105, 49.645], [0.059, -0.363, -0.930, 0.000], [0, 0, 0, 0], [ 9E9, 9E9, 9E9, 9E9, 9E9, 9E9] ], v1000, fine, pen\WObj:=platform;
    
    !!-4.566378749074589, -9.075300000000004;
    MoveL [ [-2.543, -10.252, 49.935], [0.023, -0.503, -0.864, 0.000], [0, 0, 0, 0], [ 9E9, 9E9, 9E9, 9E9, 9E9, 9E9] ], v1000, fine, pen\WObj:=platform;
    MoveL [ [-4.566, -9.075, -0.010], [0.023, -0.503, -0.864, 0.000], [0, 0, 0, 0], [ 9E9, 9E9, 9E9, 9E9, 9E9, 9E9] ], v30, fine, pen\WObj:=platform;
    MoveL [ [-2.543, -10.252, 49.935], [0.023, -0.503, -0.864, 0.000], [0, 0, 0, 0], [ 9E9, 9E9, 9E9, 9E9, 9E9, 9E9] ], v1000, fine, pen\WObj:=platform;
    
    !!-4.50783543177876, -9.176700000000002;
    MoveL [ [-2.522, -10.205, 49.940], [0.022, -0.460, -0.888, 0.000], [0, 0, 0, 0], [ 9E9, 9E9, 9E9, 9E9, 9E9, 9E9] ], v1000, fine, pen\WObj:=platform;
    MoveL [ [-4.508, -9.177, -0.010], [0.022, -0.460, -0.888, 0.000], [0, 0, 0, 0], [ 9E9, 9E9, 9E9, 9E9, 9E9, 9E9] ], v30, fine, pen\WObj:=platform;
    MoveL [ [-2.522, -10.205, 49.940], [0.022, -0.460, -0.888, 0.000], [0, 0, 0, 0], [ 9E9, 9E9, 9E9, 9E9, 9E9, 9E9] ], v1000, fine, pen\WObj:=platform;
    
    !!-4.566378749074589, -9.278100000000006;
    MoveL [ [-2.517, -10.143, 49.940], [0.022, -0.389, -0.921, 0.000], [0, 0, 0, 0], [ 9E9, 9E9, 9E9, 9E9, 9E9, 9E9] ], v1000, fine, pen\WObj:=platform;
    MoveL [ [-4.566, -9.278, -0.010], [0.022, -0.389, -0.921, 0.000], [0, 0, 0, 0], [ 9E9, 9E9, 9E9, 9E9, 9E9, 9E9] ], v30, fine, pen\WObj:=platform;
    MoveL [ [-2.517, -10.143, 49.940], [0.022, -0.389, -0.921, 0.000], [0, 0, 0, 0], [ 9E9, 9E9, 9E9, 9E9, 9E9, 9E9] ], v1000, fine, pen\WObj:=platform;
    
    !!-4.50783543177876, -9.379500000000004;
    MoveL [ [-2.495, -10.096, 49.944], [0.021, -0.335, -0.942, 0.000], [0, 0, 0, 0], [ 9E9, 9E9, 9E9, 9E9, 9E9, 9E9] ], v1000, fine, pen\WObj:=platform;
    MoveL [ [-4.508, -9.380, -0.010], [0.021, -0.335, -0.942, 0.000], [0, 0, 0, 0], [ 9E9, 9E9, 9E9, 9E9, 9E9, 9E9] ], v30, fine, pen\WObj:=platform;
    MoveL [ [-2.495, -10.096, 49.944], [0.021, -0.335, -0.942, 0.000], [0, 0, 0, 0], [ 9E9, 9E9, 9E9, 9E9, 9E9, 9E9] ], v1000, fine, pen\WObj:=platform;
    
    !!-4.566378749074589, -9.480900000000004;
    MoveL [ [-2.490, -10.033, 49.944], [0.021, -0.257, -0.966, 0.000], [0, 0, 0, 0], [ 9E9, 9E9, 9E9, 9E9, 9E9, 9E9] ], v1000, fine, pen\WObj:=platform;
    MoveL [ [-4.566, -9.481, -0.010], [0.021, -0.257, -0.966, 0.000], [0, 0, 0, 0], [ 9E9, 9E9, 9E9, 9E9, 9E9, 9E9] ], v30, fine, pen\WObj:=platform;
    MoveL [ [-2.490, -10.033, 49.944], [0.021, -0.257, -0.966, 0.000], [0, 0, 0, 0], [ 9E9, 9E9, 9E9, 9E9, 9E9, 9E9] ], v1000, fine, pen\WObj:=platform;
    
    !!-4.50783543177876, -9.582300000000005;
    MoveL [ [1.065, -10.652, 49.667], [0.057, -0.188, -0.980, 0.000], [0, 0, 0, 0], [ 9E9, 9E9, 9E9, 9E9, 9E9, 9E9] ], v1000, fine, pen\WObj:=platform;
    MoveL [ [-4.508, -9.582, -0.010], [0.057, -0.188, -0.980, 0.000], [0, 0, 0, 0], [ 9E9, 9E9, 9E9, 9E9, 9E9, 9E9] ], v30, fine, pen\WObj:=platform;
    MoveL [ [1.065, -10.652, 49.667], [0.057, -0.188, -0.980, 0.000], [0, 0, 0, 0], [ 9E9, 9E9, 9E9, 9E9, 9E9, 9E9] ], v1000, fine, pen\WObj:=platform;
    
    !!-4.449292114482933, 0.050699999999998524;
    MoveL [ [-3.494, -14.591, 47.789], [0.148, -0.987, -0.064, 0.000], [0, 0, 0, 0], [ 9E9, 9E9, 9E9, 9E9, 9E9, 9E9] ], v1000, fine, pen\WObj:=platform;
    MoveL [ [-4.449, 0.051, -0.010], [0.148, -0.987, -0.064, 0.000], [0, 0, 0, 0], [ 9E9, 9E9, 9E9, 9E9, 9E9, 9E9] ], v30, fine, pen\WObj:=platform;
    MoveL [ [-3.494, -14.591, 47.789], [0.148, -0.987, -0.064, 0.000], [0, 0, 0, 0], [ 9E9, 9E9, 9E9, 9E9, 9E9, 9E9] ], v1000, fine, pen\WObj:=platform;
    
    !!-4.390748797187104, -0.0507000000000013;
    MoveL [ [-3.478, -14.560, 47.830], [0.147, -0.987, -0.062, 0.000], [0, 0, 0, 0], [ 9E9, 9E9, 9E9, 9E9, 9E9, 9E9] ], v1000, fine, pen\WObj:=platform;
    MoveL [ [-4.391, -0.051, -0.010], [0.147, -0.987, -0.062, 0.000], [0, 0, 0, 0], [ 9E9, 9E9, 9E9, 9E9, 9E9, 9E9] ], v30, fine, pen\WObj:=platform;
    MoveL [ [-3.478, -14.560, 47.830], [0.147, -0.987, -0.062, 0.000], [0, 0, 0, 0], [ 9E9, 9E9, 9E9, 9E9, 9E9, 9E9] ], v1000, fine, pen\WObj:=platform;
    
    !!-4.449292114482933, -0.15210000000000168;
    MoveL [ [-3.479, -14.517, 47.872], [0.146, -0.987, -0.067, 0.000], [0, 0, 0, 0], [ 9E9, 9E9, 9E9, 9E9, 9E9, 9E9] ], v1000, fine, pen\WObj:=platform;
    MoveL [ [-4.449, -0.152, -0.010], [0.146, -0.987, -0.067, 0.000], [0, 0, 0, 0], [ 9E9, 9E9, 9E9, 9E9, 9E9, 9E9] ], v30, fine, pen\WObj:=platform;
    MoveL [ [-3.479, -14.517, 47.872], [0.146, -0.987, -0.067, 0.000], [0, 0, 0, 0], [ 9E9, 9E9, 9E9, 9E9, 9E9, 9E9] ], v1000, fine, pen\WObj:=platform;
    
    !!-4.390748797187104, -0.2535000000000015;
    MoveL [ [-0.550, -16.724, 47.043], [0.172, -0.959, -0.224, 0.000], [0, 0, 0, 0], [ 9E9, 9E9, 9E9, 9E9, 9E9, 9E9] ], v1000, fine, pen\WObj:=platform;
    MoveL [ [-4.391, -0.254, -0.010], [0.172, -0.959, -0.224, 0.000], [0, 0, 0, 0], [ 9E9, 9E9, 9E9, 9E9, 9E9, 9E9] ], v30, fine, pen\WObj:=platform;
    MoveL [ [-0.550, -16.724, 47.043], [0.172, -0.959, -0.224, 0.000], [0, 0, 0, 0], [ 9E9, 9E9, 9E9, 9E9, 9E9, 9E9] ], v1000, fine, pen\WObj:=platform;
    
    !!-4.449292114482933, -0.3549000000000019;
    MoveL [ [-3.463, -14.442, 47.954], [0.143, -0.987, -0.069, 0.000], [0, 0, 0, 0], [ 9E9, 9E9, 9E9, 9E9, 9E9, 9E9] ], v1000, fine, pen\WObj:=platform;
    MoveL [ [-4.449, -0.355, -0.010], [0.143, -0.987, -0.069, 0.000], [0, 0, 0, 0], [ 9E9, 9E9, 9E9, 9E9, 9E9, 9E9] ], v30, fine, pen\WObj:=platform;
