MODULE MainModule
  PERS wobjdata platform := [ FALSE, TRUE, "", [ [800, 0, 600], [1, 0, 0 ,0] ], [ [0, 0, 0], [1, 0, 0 ,0] ] ];
  PERS tooldata pen := [ TRUE, [[0, 0, 100], [1, 0, 0 ,0]], [0.8,[0, 0, 30], [1, 0, 0, 0], 0, 0, 0]];
  PROC main()
    ConfL\Off;
    ConfJ\Off;
    SingArea\Wrist;
    !!0.06025831390311481, -6.604136366969273;
    MoveL [ [-11.017, -3.270, 48.623], [0.116, 0.286, 0.951, 0.000], [0, 0, 0, 0], [ 9E9, 9E9, 9E9, 9E9, 9E9, 9E9] ], v1000, fine, pen\WObj:=platform;
    MoveL [ [0.060, -6.604, -0.020], [0.116, 0.286, 0.951, 0.000], [0, 0, 0, 0], [ 9E9, 9E9, 9E9, 9E9, 9E9, 9E9] ], v30, fine, pen\WObj:=platform;
    MoveL [ [-11.017, -3.270, 48.623], [0.116, 0.286, 0.951, 0.000], [0, 0, 0, 0], [ 9E9, 9E9, 9E9, 9E9, 9E9, 9E9] ], v1000, fine, pen\WObj:=platform;
    
    !!-0.13987760585588432, -6.589603071594306;
    MoveL [ [-1.710, -5.191, 49.936], [0.021, 0.665, 0.747, 0.000], [0, 0, 0, 0], [ 9E9, 9E9, 9E9, 9E9, 9E9, 9E9] ], v1000, fine, pen\WObj:=platform;
    MoveL [ [-0.140, -6.590, -0.020], [0.021, 0.665, 0.747, 0.000], [0, 0, 0, 0], [ 9E9, 9E9, 9E9, 9E9, 9E9, 9E9] ], v30, fine, pen\WObj:=platform;
    MoveL [ [-1.710, -5.191, 49.936], [0.021, 0.665, 0.747, 0.000], [0, 0, 0, 0], [ 9E9, 9E9, 9E9, 9E9, 9E9, 9E9] ], v1000, fine, pen\WObj:=platform;
    
    !!-0.2436963627640776, -6.419180910663678;
    MoveL [ [-3.763, -5.805, 49.852], [0.036, 0.172, 0.984, 0.000], [0, 0, 0, 0], [ 9E9, 9E9, 9E9, 9E9, 9E9, 9E9] ], v1000, fine, pen\WObj:=platform;
    MoveL [ [-0.244, -6.419, -0.020], [0.036, 0.172, 0.984, 0.000], [0, 0, 0, 0], [ 9E9, 9E9, 9E9, 9E9, 9E9, 9E9] ], v30, fine, pen\WObj:=platform;
    MoveL [ [-3.763, -5.805, 49.852], [0.036, 0.172, 0.984, 0.000], [0, 0, 0, 0], [ 9E9, 9E9, 9E9, 9E9, 9E9, 9E9] ], v1000, fine, pen\WObj:=platform;
    
    !!-0.18455952789362184, -6.2293640458141875;
    MoveL [ [0.032, -22.858, 47.133], [0.169, -0.986, -0.013, 0.000], [0, 0, 0, 0], [ 9E9, 9E9, 9E9, 9E9, 9E9, 9E9] ], v1000, fine, pen\WObj:=platform;
    MoveL [ [-0.185, -6.229, -0.020], [0.169, -0.986, -0.013, 0.000], [0, 0, 0, 0], [ 9E9, 9E9, 9E9, 9E9, 9E9, 9E9] ], v30, fine, pen\WObj:=platform;
    MoveL [ [0.032, -22.858, 47.133], [0.169, -0.986, -0.013, 0.000], [0, 0, 0, 0], [ 9E9, 9E9, 9E9, 9E9, 9E9, 9E9] ], v1000, fine, pen\WObj:=platform;
    
    !!-0.009957100506990314, -6.135388922853138;
    MoveL [ [-10.941, -1.792, 48.577], [0.118, 0.367, 0.923, 0.000], [0, 0, 0, 0], [ 9E9, 9E9, 9E9, 9E9, 9E9, 9E9] ], v1000, fine, pen\WObj:=platform;
    MoveL [ [-0.010, -6.135, -0.020], [0.118, 0.367, 0.923, 0.000], [0, 0, 0, 0], [ 9E9, 9E9, 9E9, 9E9, 9E9, 9E9] ], v30, fine, pen\WObj:=platform;
    MoveL [ [-10.941, -1.792, 48.577], [0.118, 0.367, 0.923, 0.000], [0, 0, 0, 0], [ 9E9, 9E9, 9E9, 9E9, 9E9, 9E9] ], v1000, fine, pen\WObj:=platform;
    
    !!0.1829827548931009, -6.17936160666687;
    MoveL [ [-1.200, -5.833, 49.960], [0.014, 0.243, 0.970, 0.000], [0, 0, 0, 0], [ 9E9, 9E9, 9E9, 9E9, 9E9, 9E9] ], v1000, fine, pen\WObj:=platform;
    MoveL [ [0.183, -6.179, -0.020], [0.014, 0.243, 0.970, 0.000], [0, 0, 0, 0], [ 9E9, 9E9, 9E9, 9E9, 9E9, 9E9] ], v30, fine, pen\WObj:=platform;
    MoveL [ [-1.200, -5.833, 49.960], [0.014, 0.243, 0.970, 0.000], [0, 0, 0, 0], [ 9E9, 9E9, 9E9, 9E9, 9E9, 9E9] ], v1000, fine, pen\WObj:=platform;
    
    !!0.30641530920303856, -6.333636257688545;
    MoveL [ [-7.916, -7.924, 49.274], [0.084, -0.189, 0.978, 0.000], [0, 0, 0, 0], [ 9E9, 9E9, 9E9, 9E9, 9E9, 9E9] ], v1000, fine, pen\WObj:=platform;
    MoveL [ [0.306, -6.334, -0.020], [0.084, -0.189, 0.978, 0.000], [0, 0, 0, 0], [ 9E9, 9E9, 9E9, 9E9, 9E9, 9E9] ], v30, fine, pen\WObj:=platform;
    MoveL [ [-7.916, -7.924, 49.274], [0.084, -0.189, 0.978, 0.000], [0, 0, 0, 0], [ 9E9, 9E9, 9E9, 9E9, 9E9, 9E9] ], v1000, fine, pen\WObj:=platform;
    
    !!0.3144685693180849, -6.5307977799476475;
    MoveL [ [-1.547, -4.185, 49.890], [0.030, 0.783, 0.621, 0.000], [0, 0, 0, 0], [ 9E9, 9E9, 9E9, 9E9, 9E9, 9E9] ], v1000, fine, pen\WObj:=platform;
    MoveL [ [0.314, -6.531, -0.020], [0.030, 0.783, 0.621, 0.000], [0, 0, 0, 0], [ 9E9, 9E9, 9E9, 9E9, 9E9, 9E9] ], v30, fine, pen\WObj:=platform;
    MoveL [ [-1.547, -4.185, 49.890], [0.030, 0.783, 0.621, 0.000], [0, 0, 0, 0], [ 9E9, 9E9, 9E9, 9E9, 9E9, 9E9] ], v1000, fine, pen\WObj:=platform;
    
    !!0.20958271728967612, -6.697697402780904;
    MoveL [ [2.343, -20.122, 48.097], [0.137, -0.978, -0.155, 0.000], [0, 0, 0, 0], [ 9E9, 9E9, 9E9, 9E9, 9E9, 9E9] ], v1000, fine, pen\WObj:=platform;
    MoveL [ [0.210, -6.698, -0.020], [0.137, -0.978, -0.155, 0.000], [0, 0, 0, 0], [ 9E9, 9E9, 9E9, 9E9, 9E9, 9E9] ], v30, fine, pen\WObj:=platform;
    MoveL [ [2.343, -20.122, 48.097], [0.137, -0.978, -0.155, 0.000], [0, 0, 0, 0], [ 9E9, 9E9, 9E9, 9E9, 9E9, 9E9] ], v1000, fine, pen\WObj:=platform;
    
    !!0.03101122674426755, -6.780770172354992;
    MoveL [ [-10.962, -11.476, 48.530], [0.120, -0.390, 0.913, 0.000], [0, 0, 0, 0], [ 9E9, 9E9, 9E9, 9E9, 9E9, 9E9] ], v1000, fine, pen\WObj:=platform;
    MoveL [ [0.031, -6.781, -0.020], [0.120, -0.390, 0.913, 0.000], [0, 0, 0, 0], [ 9E9, 9E9, 9E9, 9E9, 9E9, 9E9] ], v30, fine, pen\WObj:=platform;
    MoveL [ [-10.962, -11.476, 48.530], [0.120, -0.390, 0.913, 0.000], [0, 0, 0, 0], [ 9E9, 9E9, 9E9, 9E9, 9E9, 9E9] ], v1000, fine, pen\WObj:=platform;
    
    !!-0.16449630999001905, -6.7582252271896746;
    MoveL [ [-10.270, -5.328, 48.927], [0.103, 0.139, 0.985, 0.000], [0, 0, 0, 0], [ 9E9, 9E9, 9E9, 9E9, 9E9, 9E9] ], v1000, fine, pen\WObj:=platform;
    MoveL [ [-0.164, -6.758, -0.020], [0.103, 0.139, 0.985, 0.000], [0, 0, 0, 0], [ 9E9, 9E9, 9E9, 9E9, 9E9, 9E9] ], v30, fine, pen\WObj:=platform;
    MoveL [ [-10.270, -5.328, 48.927], [0.103, 0.139, 0.985, 0.000], [0, 0, 0, 0], [ 9E9, 9E9, 9E9, 9E9, 9E9, 9E9] ], v1000, fine, pen\WObj:=platform;
    
    !!-0.3218026334536719, -6.640170628218019;
    MoveL [ [-4.529, -2.097, 49.595], [0.062, 0.732, 0.678, 0.000], [0, 0, 0, 0], [ 9E9, 9E9, 9E9, 9E9, 9E9, 9E9] ], v1000, fine, pen\WObj:=platform;
    MoveL [ [-0.322, -6.640, -0.020], [0.062, 0.732, 0.678, 0.000], [0, 0, 0, 0], [ 9E9, 9E9, 9E9, 9E9, 9E9, 9E9] ], v30, fine, pen\WObj:=platform;
    MoveL [ [-4.529, -2.097, 49.595], [0.062, 0.732, 0.678, 0.000], [0, 0, 0, 0], [ 9E9, 9E9, 9E9, 9E9, 9E9, 9E9] ], v1000, fine, pen\WObj:=platform;
    
    !!-0.40140270170660464, -6.460439786497524;
    MoveL [ [-11.005, -13.914, 48.271], [0.131, -0.570, 0.811, 0.000], [0, 0, 0, 0], [ 9E9, 9E9, 9E9, 9E9, 9E9, 9E9] ], v1000, fine, pen\WObj:=platform;
    MoveL [ [-0.401, -6.460, -0.020], [0.131, -0.570, 0.811, 0.000], [0, 0, 0, 0], [ 9E9, 9E9, 9E9, 9E9, 9E9, 9E9] ], v30, fine, pen\WObj:=platform;
    MoveL [ [-11.005, -13.914, 48.271], [0.131, -0.570, 0.811, 0.000], [0, 0, 0, 0], [ 9E9, 9E9, 9E9, 9E9, 9E9, 9E9] ], v1000, fine, pen\WObj:=platform;
    
    !!-0.38645824300059667, -6.2645355618553005;
    MoveL [ [-11.163, -13.648, 48.243], [0.132, -0.560, 0.818, 0.000], [0, 0, 0, 0], [ 9E9, 9E9, 9E9, 9E9, 9E9, 9E9] ], v1000, fine, pen\WObj:=platform;
    MoveL [ [-0.386, -6.265, -0.020], [0.132, -0.560, 0.818, 0.000], [0, 0, 0, 0], [ 9E9, 9E9, 9E9, 9E9, 9E9, 9E9] ], v30, fine, pen\WObj:=platform;
    MoveL [ [-11.163, -13.648, 48.243], [0.132, -0.560, 0.818, 0.000], [0, 0, 0, 0], [ 9E9, 9E9, 9E9, 9E9, 9E9, 9E9] ], v1000, fine, pen\WObj:=platform;
    
    !!-0.28317341733535667, -6.0975000661819125;
    MoveL [ [-10.235, -1.826, 48.793], [0.109, 0.392, 0.913, 0.000], [0, 0, 0, 0], [ 9E9, 9E9, 9E9, 9E9, 9E9, 9E9] ], v1000, fine, pen\WObj:=platform;
    MoveL [ [-0.283, -6.098, -0.020], [0.109, 0.392, 0.913, 0.000], [0, 0, 0, 0], [ 9E9, 9E9, 9E9, 9E9, 9E9, 9E9] ], v30, fine, pen\WObj:=platform;
    MoveL [ [-10.235, -1.826, 48.793], [0.109, 0.392, 0.913, 0.000], [0, 0, 0, 0], [ 9E9, 9E9, 9E9, 9E9, 9E9, 9E9] ], v1000, fine, pen\WObj:=platform;
    
    !!-0.11615784527174364, -5.994326155216805;
    MoveL [ [-10.060, -10.014, 48.816], [0.108, -0.373, 0.922, 0.000], [0, 0, 0, 0], [ 9E9, 9E9, 9E9, 9E9, 9E9, 9E9] ], v1000, fine, pen\WObj:=platform;
    MoveL [ [-0.116, -5.994, -0.020], [0.108, -0.373, 0.922, 0.000], [0, 0, 0, 0], [ 9E9, 9E9, 9E9, 9E9, 9E9, 9E9] ], v30, fine, pen\WObj:=platform;
    MoveL [ [-10.060, -10.014, 48.816], [0.108, -0.373, 0.922, 0.000], [0, 0, 0, 0], [ 9E9, 9E9, 9E9, 9E9, 9E9, 9E9] ], v1000, fine, pen\WObj:=platform;
    
    !!0.07905658170270705, -5.97422897516128;
    MoveL [ [-10.187, -9.242, 48.805], [0.108, -0.302, 0.947, 0.000], [0, 0, 0, 0], [ 9E9, 9E9, 9E9, 9E9, 9E9, 9E9] ], v1000, fine, pen\WObj:=platform;
    MoveL [ [0.079, -5.974, -0.020], [0.108, -0.302, 0.947, 0.000], [0, 0, 0, 0], [ 9E9, 9E9, 9E9, 9E9, 9E9, 9E9] ], v30, fine, pen\WObj:=platform;
    MoveL [ [-10.187, -9.242, 48.805], [0.108, -0.302, 0.947, 0.000], [0, 0, 0, 0], [ 9E9, 9E9, 9E9, 9E9, 9E9, 9E9] ], v1000, fine, pen\WObj:=platform;
    
    !!0.2642478715961586, -6.038981414852229;
    MoveL [ [-10.049, -1.963, 48.735], [0.112, 0.365, 0.924, 0.000], [0, 0, 0, 0], [ 9E9, 9E9, 9E9, 9E9, 9E9, 9E9] ], v1000, fine, pen\WObj:=platform;
    MoveL [ [0.264, -6.039, -0.020], [0.112, 0.365, 0.924, 0.000], [0, 0, 0, 0], [ 9E9, 9E9, 9E9, 9E9, 9E9, 9E9] ], v30, fine, pen\WObj:=platform;
    MoveL [ [-10.049, -1.963, 48.735], [0.112, 0.365, 0.924, 0.000], [0, 0, 0, 0], [ 9E9, 9E9, 9E9, 9E9, 9E9, 9E9] ], v1000, fine, pen\WObj:=platform;
    
    !!0.4058169394835475, -6.174721078773285;
    MoveL [ [-5.341, 1.838, 48.998], [0.099, 0.809, 0.580, 0.000], [0, 0, 0, 0], [ 9E9, 9E9, 9E9, 9E9, 9E9, 9E9] ], v1000, fine, pen\WObj:=platform;
    MoveL [ [0.406, -6.175, -0.020], [0.099, 0.809, 0.580, 0.000], [0, 0, 0, 0], [ 9E9, 9E9, 9E9, 9E9, 9E9, 9E9] ], v30, fine, pen\WObj:=platform;
    MoveL [ [-5.341, 1.838, 48.998], [0.099, 0.809, 0.580, 0.000], [0, 0, 0, 0], [ 9E9, 9E9, 9E9, 9E9, 9E9, 9E9] ], v1000, fine, pen\WObj:=platform;
    
    !!0.4801017810614574, -6.356184915245748;
    MoveL [ [-5.264, -11.850, 49.344], [0.080, -0.689, 0.720, 0.000], [0, 0, 0, 0], [ 9E9, 9E9, 9E9, 9E9, 9E9, 9E9] ], v1000, fine, pen\WObj:=platform;
    MoveL [ [0.480, -6.356, -0.020], [0.080, -0.689, 0.720, 0.000], [0, 0, 0, 0], [ 9E9, 9E9, 9E9, 9E9, 9E9, 9E9] ], v30, fine, pen\WObj:=platform;
    MoveL [ [-5.264, -11.850, 49.344], [0.080, -0.689, 0.720, 0.000], [0, 0, 0, 0], [ 9E9, 9E9, 9E9, 9E9, 9E9, 9E9] ], v1000, fine, pen\WObj:=platform;
    
    !!0.47621014122235267, -6.552180348670381;
    MoveL [ [-6.213, -5.552, 49.520], [0.068, 0.148, 0.987, 0.000], [0, 0, 0, 0], [ 9E9, 9E9, 9E9, 9E9, 9E9, 9E9] ], v1000, fine, pen\WObj:=platform;
    MoveL [ [0.476, -6.552, -0.020], [0.068, 0.148, 0.987, 0.000], [0, 0, 0, 0], [ 9E9, 9E9, 9E9, 9E9, 9E9, 9E9] ], v30, fine, pen\WObj:=platform;
    MoveL [ [-6.213, -5.552, 49.520], [0.068, 0.148, 0.987, 0.000], [0, 0, 0, 0], [ 9E9, 9E9, 9E9, 9E9, 9E9, 9E9] ], v1000, fine, pen\WObj:=platform;
    
    !!0.3963960599787677, -6.731184651020666;
    MoveL [ [-5.231, 5.612, 48.105], [0.137, 0.901, 0.411, 0.000], [0, 0, 0, 0], [ 9E9, 9E9, 9E9, 9E9, 9E9, 9E9] ], v1000, fine, pen\WObj:=platform;
    MoveL [ [0.396, -6.731, -0.020], [0.137, 0.901, 0.411, 0.000], [0, 0, 0, 0], [ 9E9, 9E9, 9E9, 9E9, 9E9, 9E9] ], v30, fine, pen\WObj:=platform;
    MoveL [ [-5.231, 5.612, 48.105], [0.137, 0.901, 0.411, 0.000], [0, 0, 0, 0], [ 9E9, 9E9, 9E9, 9E9, 9E9, 9E9] ], v1000, fine, pen\WObj:=platform;
    
    !!0.2543747282708934, -6.866194081495181;
    MoveL [ [-9.965, 1.145, 48.264], [0.131, 0.612, 0.780, 0.000], [0, 0, 0, 0], [ 9E9, 9E9, 9E9, 9E9, 9E9, 9E9] ], v1000, fine, pen\WObj:=platform;
    MoveL [ [0.254, -6.866, -0.020], [0.131, 0.612, 0.780, 0.000], [0, 0, 0, 0], [ 9E9, 9E9, 9E9, 9E9, 9E9, 9E9] ], v30, fine, pen\WObj:=platform;
    MoveL [ [-9.965, 1.145, 48.264], [0.131, 0.612, 0.780, 0.000], [0, 0, 0, 0], [ 9E9, 9E9, 9E9, 9E9, 9E9, 9E9] ], v1000, fine, pen\WObj:=platform;
    
    !!0.07218710128314015, -6.938244104886602;
    MoveL [ [-5.129, -6.567, 49.707], [0.052, 0.071, 0.996, 0.000], [0, 0, 0, 0], [ 9E9, 9E9, 9E9, 9E9, 9E9, 9E9] ], v1000, fine, pen\WObj:=platform;
    MoveL [ [0.072, -6.938, -0.020], [0.052, 0.071, 0.996, 0.000], [0, 0, 0, 0], [ 9E9, 9E9, 9E9, 9E9, 9E9, 9E9] ], v30, fine, pen\WObj:=platform;
    MoveL [ [-5.129, -6.567, 49.707], [0.052, 0.071, 0.996, 0.000], [0, 0, 0, 0], [ 9E9, 9E9, 9E9, 9E9, 9E9, 9E9] ], v1000, fine, pen\WObj:=platform;
    
    !!-0.12369676842355945, -6.938329714142386;
    MoveL [ [-11.941, -10.756, 48.413], [0.125, -0.305, 0.944, 0.000], [0, 0, 0, 0], [ 9E9, 9E9, 9E9, 9E9, 9E9, 9E9] ], v1000, fine, pen\WObj:=platform;
    MoveL [ [-0.124, -6.938, -0.020], [0.125, -0.305, 0.944, 0.000], [0, 0, 0, 0], [ 9E9, 9E9, 9E9, 9E9, 9E9, 9E9] ], v30, fine, pen\WObj:=platform;
    MoveL [ [-11.941, -10.756, 48.413], [0.125, -0.305, 0.944, 0.000], [0, 0, 0, 0], [ 9E9, 9E9, 9E9, 9E9, 9E9, 9E9] ], v1000, fine, pen\WObj:=platform;
    
    !!-0.30638113442208925, -6.867726600300113;
    MoveL [ [-2.073, 6.474, 48.135], [0.136, 0.982, 0.130, 0.000], [0, 0, 0, 0], [ 9E9, 9E9, 9E9, 9E9, 9E9, 9E9] ], v1000, fine, pen\WObj:=platform;
    MoveL [ [-0.306, -6.868, -0.020], [0.136, 0.982, 0.130, 0.000], [0, 0, 0, 0], [ 9E9, 9E9, 9E9, 9E9, 9E9, 9E9] ], v30, fine, pen\WObj:=platform;
    MoveL [ [-2.073, 6.474, 48.135], [0.136, 0.982, 0.130, 0.000], [0, 0, 0, 0], [ 9E9, 9E9, 9E9, 9E9, 9E9, 9E9] ], v1000, fine, pen\WObj:=platform;
    
    !!-0.452112519921975, -6.736923522986973;
    MoveL [ [-5.912, -11.100, 49.489], [0.070, -0.623, 0.779, 0.000], [0, 0, 0, 0], [ 9E9, 9E9, 9E9, 9E9, 9E9, 9E9] ], v1000, fine, pen\WObj:=platform;
    MoveL [ [-0.452, -6.737, -0.020], [0.070, -0.623, 0.779, 0.000], [0, 0, 0, 0], [ 9E9, 9E9, 9E9, 9E9, 9E9, 9E9] ], v30, fine, pen\WObj:=platform;
    MoveL [ [-5.912, -11.100, 49.489], [0.070, -0.623, 0.779, 0.000], [0, 0, 0, 0], [ 9E9, 9E9, 9E9, 9E9, 9E9, 9E9] ], v1000, fine, pen\WObj:=platform;
    
    !!-0.5430263341377348, -6.563513004482911;
    MoveL [ [-7.064, 6.331, 47.847], [0.146, 0.883, 0.446, 0.000], [0, 0, 0, 0], [ 9E9, 9E9, 9E9, 9E9, 9E9, 9E9] ], v1000, fine, pen\WObj:=platform;
    MoveL [ [-0.543, -6.564, -0.020], [0.146, 0.883, 0.446, 0.000], [0, 0, 0, 0], [ 9E9, 9E9, 9E9, 9E9, 9E9, 9E9] ], v30, fine, pen\WObj:=platform;
    MoveL [ [-7.064, 6.331, 47.847], [0.146, 0.883, 0.446, 0.000], [0, 0, 0, 0], [ 9E9, 9E9, 9E9, 9E9, 9E9, 9E9] ], v1000, fine, pen\WObj:=platform;
    
    !!-0.5688564789198607, -6.369452567918853;
    MoveL [ [-6.782, -4.261, 49.548], [0.066, 0.321, 0.945, 0.000], [0, 0, 0, 0], [ 9E9, 9E9, 9E9, 9E9, 9E9, 9E9] ], v1000, fine, pen\WObj:=platform;
    MoveL [ [-0.569, -6.369, -0.020], [0.066, 0.321, 0.945, 0.000], [0, 0, 0, 0], [ 9E9, 9E9, 9E9, 9E9, 9E9, 9E9] ], v30, fine, pen\WObj:=platform;
    MoveL [ [-6.782, -4.261, 49.548], [0.066, 0.321, 0.945, 0.000], [0, 0, 0, 0], [ 9E9, 9E9, 9E9, 9E9, 9E9, 9E9] ], v1000, fine, pen\WObj:=platform;
    
    !!-0.5275529927865361, -6.178111508462062;
    MoveL [ [-9.437, -8.880, 49.106], [0.094, -0.289, 0.953, 0.000], [0, 0, 0, 0], [ 9E9, 9E9, 9E9, 9E9, 9E9, 9E9] ], v1000, fine, pen\WObj:=platform;
    MoveL [ [-0.528, -6.178, -0.020], [0.094, -0.289, 0.953, 0.000], [0, 0, 0, 0], [ 9E9, 9E9, 9E9, 9E9, 9E9, 9E9] ], v30, fine, pen\WObj:=platform;
    MoveL [ [-9.437, -8.880, 49.106], [0.094, -0.289, 0.953, 0.000], [0, 0, 0, 0], [ 9E9, 9E9, 9E9, 9E9, 9E9, 9E9] ], v1000, fine, pen\WObj:=platform;
    
    !!-0.42488768490437, -6.01147268355339;
    MoveL [ [-7.496, -9.192, 49.375], [0.078, -0.409, 0.909, 0.000], [0, 0, 0, 0], [ 9E9, 9E9, 9E9, 9E9, 9E9, 9E9] ], v1000, fine, pen\WObj:=platform;
    MoveL [ [-0.425, -6.011, -0.020], [0.078, -0.409, 0.909, 0.000], [0, 0, 0, 0], [ 9E9, 9E9, 9E9, 9E9, 9E9, 9E9] ], v30, fine, pen\WObj:=platform;
    MoveL [ [-7.496, -9.192, 49.375], [0.078, -0.409, 0.909, 0.000], [0, 0, 0, 0], [ 9E9, 9E9, 9E9, 9E9, 9E9, 9E9] ], v1000, fine, pen\WObj:=platform;
    
    !!-0.27322754321878484, -5.887780906968243;
    MoveL [ [-0.801, -5.192, 49.972], [0.009, 0.797, 0.604, 0.000], [0, 0, 0, 0], [ 9E9, 9E9, 9E9, 9E9, 9E9, 9E9] ], v1000, fine, pen\WObj:=platform;
    MoveL [ [-0.273, -5.888, -0.020], [0.009, 0.797, 0.604, 0.000], [0, 0, 0, 0], [ 9E9, 9E9, 9E9, 9E9, 9E9, 9E9] ], v30, fine, pen\WObj:=platform;
    MoveL [ [-0.801, -5.192, 49.972], [0.009, 0.797, 0.604, 0.000], [0, 0, 0, 0], [ 9E9, 9E9, 9E9, 9E9, 9E9, 9E9] ], v1000, fine, pen\WObj:=platform;
    
    !!-0.08971726633404607, -5.819834703359806;
    MoveL [ [-2.560, -12.634, 49.452], [0.073, -0.938, 0.340, 0.000], [0, 0, 0, 0], [ 9E9, 9E9, 9E9, 9E9, 9E9, 9E9] ], v1000, fine, pen\WObj:=platform;
    MoveL [ [-0.090, -5.820, -0.020], [0.073, -0.938, 0.340, 0.000], [0, 0, 0, 0], [ 9E9, 9E9, 9E9, 9E9, 9E9, 9E9] ], v30, fine, pen\WObj:=platform;
    MoveL [ [-2.560, -12.634, 49.452], [0.073, -0.938, 0.340, 0.000], [0, 0, 0, 0], [ 9E9, 9E9, 9E9, 9E9, 9E9, 9E9] ], v1000, fine, pen\WObj:=platform;
    
    !!0.10586283626876863, -5.814019976898534;
    MoveL [ [-10.005, -1.316, 48.740], [0.111, 0.404, 0.908, 0.000], [0, 0, 0, 0], [ 9E9, 9E9, 9E9, 9E9, 9E9, 9E9] ], v1000, fine, pen\WObj:=platform;
    MoveL [ [0.106, -5.814, -0.020], [0.111, 0.404, 0.908, 0.000], [0, 0, 0, 0], [ 9E9, 9E9, 9E9, 9E9, 9E9, 9E9] ], v30, fine, pen\WObj:=platform;
    MoveL [ [-10.005, -1.316, 48.740], [0.111, 0.404, 0.908, 0.000], [0, 0, 0, 0], [ 9E9, 9E9, 9E9, 9E9, 9E9, 9E9] ], v1000, fine, pen\WObj:=platform;
    
    !!0.29330412996520877, -5.87009331514521;
    MoveL [ [5.772, -17.998, 48.176], [0.134, -0.903, -0.408, 0.000], [0, 0, 0, 0], [ 9E9, 9E9, 9E9, 9E9, 9E9, 9E9] ], v1000, fine, pen\WObj:=platform;
    MoveL [ [0.293, -5.870, -0.020], [0.134, -0.903, -0.408, 0.000], [0, 0, 0, 0], [ 9E9, 9E9, 9E9, 9E9, 9E9, 9E9] ], v30, fine, pen\WObj:=platform;
    MoveL [ [5.772, -17.998, 48.176], [0.134, -0.903, -0.408, 0.000], [0, 0, 0, 0], [ 9E9, 9E9, 9E9, 9E9, 9E9, 9E9] ], v1000, fine, pen\WObj:=platform;
    
    !!0.4540141668613077, -5.98164676679505;
    MoveL [ [-6.757, 0.519, 49.028], [0.098, 0.666, 0.739, 0.000], [0, 0, 0, 0], [ 9E9, 9E9, 9E9, 9E9, 9E9, 9E9] ], v1000, fine, pen\WObj:=platform;
    MoveL [ [0.454, -5.982, -0.020], [0.098, 0.666, 0.739, 0.000], [0, 0, 0, 0], [ 9E9, 9E9, 9E9, 9E9, 9E9, 9E9] ], v30, fine, pen\WObj:=platform;
    MoveL [ [-6.757, 0.519, 49.028], [0.098, 0.666, 0.739, 0.000], [0, 0, 0, 0], [ 9E9, 9E9, 9E9, 9E9, 9E9, 9E9] ], v1000, fine, pen\WObj:=platform;
    
    !!0.5727187793015969, -6.13712945769511;
    MoveL [ [-9.817, 0.122, 48.486], [0.122, 0.512, 0.850, 0.000], [0, 0, 0, 0], [ 9E9, 9E9, 9E9, 9E9, 9E9, 9E9] ], v1000, fine, pen\WObj:=platform;
    MoveL [ [0.573, -6.137, -0.020], [0.122, 0.512, 0.850, 0.000], [0, 0, 0, 0], [ 9E9, 9E9, 9E9, 9E9, 9E9, 9E9] ], v30, fine, pen\WObj:=platform;
    MoveL [ [-9.817, 0.122, 48.486], [0.122, 0.512, 0.850, 0.000], [0, 0, 0, 0], [ 9E9, 9E9, 9E9, 9E9, 9E9, 9E9] ], v1000, fine, pen\WObj:=platform;
    
    !!0.638699493795491, -6.321266008581413;
    MoveL [ [-7.386, -1.860, 49.130], [0.092, 0.484, 0.870, 0.000], [0, 0, 0, 0], [ 9E9, 9E9, 9E9, 9E9, 9E9, 9E9] ], v1000, fine, pen\WObj:=platform;
    MoveL [ [0.639, -6.321, -0.020], [0.092, 0.484, 0.870, 0.000], [0, 0, 0, 0], [ 9E9, 9E9, 9E9, 9E9, 9E9, 9E9] ], v30, fine, pen\WObj:=platform;
    MoveL [ [-7.386, -1.860, 49.130], [0.092, 0.484, 0.870, 0.000], [0, 0, 0, 0], [ 9E9, 9E9, 9E9, 9E9, 9E9, 9E9] ], v1000, fine, pen\WObj:=platform;
    
    !!0.6465034833145524, -6.516696762453699;
    MoveL [ [-7.470, -18.163, 47.922], [0.143, -0.812, 0.566, 0.000], [0, 0, 0, 0], [ 9E9, 9E9, 9E9, 9E9, 9E9, 9E9] ], v1000, fine, pen\WObj:=platform;
    MoveL [ [0.647, -6.517, -0.020], [0.143, -0.812, 0.566, 0.000], [0, 0, 0, 0], [ 9E9, 9E9, 9E9, 9E9, 9E9, 9E9] ], v30, fine, pen\WObj:=platform;
    MoveL [ [-7.470, -18.163, 47.922], [0.143, -0.812, 0.566, 0.000], [0, 0, 0, 0], [ 9E9, 9E9, 9E9, 9E9, 9E9, 9E9] ], v1000, fine, pen\WObj:=platform;
    
    !!0.5961191153062463, -6.705667978980551;
    MoveL [ [-2.862, 1.744, 49.139], [0.092, 0.922, 0.377, 0.000], [0, 0, 0, 0], [ 9E9, 9E9, 9E9, 9E9, 9E9, 9E9] ], v1000, fine, pen\WObj:=platform;
    MoveL [ [0.596, -6.706, -0.020], [0.092, 0.922, 0.377, 0.000], [0, 0, 0, 0], [ 9E9, 9E9, 9E9, 9E9, 9E9, 9E9] ], v30, fine, pen\WObj:=platform;
    MoveL [ [-2.862, 1.744, 49.139], [0.092, 0.922, 0.377, 0.000], [0, 0, 0, 0], [ 9E9, 9E9, 9E9, 9E9, 9E9, 9E9] ], v1000, fine, pen\WObj:=platform;
    
    !!0.49265808150644297, -6.871617942493971;
    MoveL [ [-2.728, -21.578, 47.660], [0.152, -0.965, 0.211, 0.000], [0, 0, 0, 0], [ 9E9, 9E9, 9E9, 9E9, 9E9, 9E9] ], v1000, fine, pen\WObj:=platform;
    MoveL [ [0.493, -6.872, -0.020], [0.152, -0.965, 0.211, 0.000], [0, 0, 0, 0], [ 9E9, 9E9, 9E9, 9E9, 9E9, 9E9] ], v30, fine, pen\WObj:=platform;
    MoveL [ [-2.728, -21.578, 47.660], [0.152, -0.965, 0.211, 0.000], [0, 0, 0, 0], [ 9E9, 9E9, 9E9, 9E9, 9E9, 9E9] ], v1000, fine, pen\WObj:=platform;
    
    !!0.3456223552136273, -7.000533311505998;
    MoveL [ [-9.429, 3.854, 47.799], [0.148, 0.735, 0.662, 0.000], [0, 0, 0, 0], [ 9E9, 9E9, 9E9, 9E9, 9E9, 9E9] ], v1000, fine, pen\WObj:=platform;
    MoveL [ [0.346, -7.001, -0.020], [0.148, 0.735, 0.662, 0.000], [0, 0, 0, 0], [ 9E9, 9E9, 9E9, 9E9, 9E9, 9E9] ], v30, fine, pen\WObj:=platform;
    MoveL [ [-9.429, 3.854, 47.799], [0.148, 0.735, 0.662, 0.000], [0, 0, 0, 0], [ 9E9, 9E9, 9E9, 9E9, 9E9, 9E9] ], v1000, fine, pen\WObj:=platform;
    
    !!0.16785947548296237, -7.081984845431051;
    MoveL [ [-5.511, -3.983, 49.560], [0.065, 0.478, 0.876, 0.000], [0, 0, 0, 0], [ 9E9, 9E9, 9E9, 9E9, 9E9, 9E9] ], v1000, fine, pen\WObj:=platform;
    MoveL [ [0.168, -7.082, -0.020], [0.065, 0.478, 0.876, 0.000], [0, 0, 0, 0], [ 9E9, 9E9, 9E9, 9E9, 9E9, 9E9] ], v30, fine, pen\WObj:=platform;
    MoveL [ [-5.511, -3.983, 49.560], [0.065, 0.478, 0.876, 0.000], [0, 0, 0, 0], [ 9E9, 9E9, 9E9, 9E9, 9E9, 9E9] ], v1000, fine, pen\WObj:=platform;
    
    !!-0.025677195442970063, -7.109788960920701;
    MoveL [ [1.655, -4.848, 49.901], [0.028, 0.802, -0.596, 0.000], [0, 0, 0, 0], [ 9E9, 9E9, 9E9, 9E9, 9E9, 9E9] ], v1000, fine, pen\WObj:=platform;
    MoveL [ [-0.026, -7.110, -0.020], [0.028, 0.802, -0.596, 0.000], [0, 0, 0, 0], [ 9E9, 9E9, 9E9, 9E9, 9E9, 9E9] ], v30, fine, pen\WObj:=platform;
    MoveL [ [1.655, -4.848, 49.901], [0.028, 0.802, -0.596, 0.000], [0, 0, 0, 0], [ 9E9, 9E9, 9E9, 9E9, 9E9, 9E9] ], v1000, fine, pen\WObj:=platform;
    
    !!-0.2192446645585453, -7.082277991137938;
    MoveL [ [-0.142, -9.112, 49.939], [0.020, -0.999, -0.038, 0.000], [0, 0, 0, 0], [ 9E9, 9E9, 9E9, 9E9, 9E9, 9E9] ], v1000, fine, pen\WObj:=platform;
    MoveL [ [-0.219, -7.082, -0.020], [0.020, -0.999, -0.038, 0.000], [0, 0, 0, 0], [ 9E9, 9E9, 9E9, 9E9, 9E9, 9E9] ], v30, fine, pen\WObj:=platform;
    MoveL [ [-0.142, -9.112, 49.939], [0.020, -0.999, -0.038, 0.000], [0, 0, 0, 0], [ 9E9, 9E9, 9E9, 9E9, 9E9, 9E9] ], v1000, fine, pen\WObj:=platform;
    
    !!-0.39759204459783615, -7.002194819909988;
    MoveL [ [-2.595, -7.097, 49.932], [0.022, -0.043, 0.999, 0.000], [0, 0, 0, 0], [ 9E9, 9E9, 9E9, 9E9, 9E9, 9E9] ], v1000, fine, pen\WObj:=platform;
    MoveL [ [-0.398, -7.002, -0.020], [0.022, -0.043, 0.999, 0.000], [0, 0, 0, 0], [ 9E9, 9E9, 9E9, 9E9, 9E9, 9E9] ], v30, fine, pen\WObj:=platform;
    MoveL [ [-2.595, -7.097, 49.932], [0.022, -0.043, 0.999, 0.000], [0, 0, 0, 0], [ 9E9, 9E9, 9E9, 9E9, 9E9, 9E9] ], v1000, fine, pen\WObj:=platform;
    
    !!-0.5471121291312733, -6.876254768383903;
    MoveL [ [-2.654, -18.260, 48.621], [0.117, -0.977, 0.181, 0.000], [0, 0, 0, 0], [ 9E9, 9E9, 9E9, 9E9, 9E9, 9E9] ], v1000, fine, pen\WObj:=platform;
    MoveL [ [-0.547, -6.876, -0.020], [0.117, -0.977, 0.181, 0.000], [0, 0, 0, 0], [ 9E9, 9E9, 9E9, 9E9, 9E9, 9E9] ], v30, fine, pen\WObj:=platform;
    MoveL [ [-2.654, -18.260, 48.621], [0.117, -0.977, 0.181, 0.000], [0, 0, 0, 0], [ 9E9, 9E9, 9E9, 9E9, 9E9, 9E9] ], v1000, fine, pen\WObj:=platform;
    
    !!-0.6567875438379688, -6.714438013974044;
    MoveL [ [-8.738, -17.853, 48.049], [0.139, -0.802, 0.582, 0.000], [0, 0, 0, 0], [ 9E9, 9E9, 9E9, 9E9, 9E9, 9E9] ], v1000, fine, pen\WObj:=platform;
    MoveL [ [-0.657, -6.714, -0.020], [0.139, -0.802, 0.582, 0.000], [0, 0, 0, 0], [ 9E9, 9E9, 9E9, 9E9, 9E9, 9E9] ], v30, fine, pen\WObj:=platform;
    MoveL [ [-8.738, -17.853, 48.049], [0.139, -0.802, 0.582, 0.000], [0, 0, 0, 0], [ 9E9, 9E9, 9E9, 9E9, 9E9, 9E9] ], v1000, fine, pen\WObj:=platform;
    
    !!-0.7188796065480567, -6.529088916498615;
    MoveL [ [-5.985, -17.174, 48.549], [0.120, -0.890, 0.440, 0.000], [0, 0, 0, 0], [ 9E9, 9E9, 9E9, 9E9, 9E9, 9E9] ], v1000, fine, pen\WObj:=platform;
    MoveL [ [-0.719, -6.529, -0.020], [0.120, -0.890, 0.440, 0.000], [0, 0, 0, 0], [ 9E9, 9E9, 9E9, 9E9, 9E9, 9E9] ], v30, fine, pen\WObj:=platform;
    MoveL [ [-5.985, -17.174, 48.549], [0.120, -0.890, 0.440, 0.000], [0, 0, 0, 0], [ 9E9, 9E9, 9E9, 9E9, 9E9, 9E9] ], v1000, fine, pen\WObj:=platform;
    
    !!-0.7293322474761567, -6.333904524459909;
    MoveL [ [-5.192, -2.153, 49.605], [0.061, 0.682, 0.728, 0.000], [0, 0, 0, 0], [ 9E9, 9E9, 9E9, 9E9, 9E9, 9E9] ], v1000, fine, pen\WObj:=platform;
    MoveL [ [-0.729, -6.334, -0.020], [0.061, 0.682, 0.728, 0.000], [0, 0, 0, 0], [ 9E9, 9E9, 9E9, 9E9, 9E9, 9E9] ], v30, fine, pen\WObj:=platform;
    MoveL [ [-5.192, -2.153, 49.605], [0.061, 0.682, 0.728, 0.000], [0, 0, 0, 0], [ 9E9, 9E9, 9E9, 9E9, 9E9, 9E9] ], v1000, fine, pen\WObj:=platform;
    
    !!-0.687886540489801, -6.142893840429531;
    MoveL [ [-7.084, -9.199, 49.475], [0.071, -0.430, 0.900, 0.000], [0, 0, 0, 0], [ 9E9, 9E9, 9E9, 9E9, 9E9, 9E9] ], v1000, fine, pen\WObj:=platform;
    MoveL [ [-0.688, -6.143, -0.020], [0.071, -0.430, 0.900, 0.000], [0, 0, 0, 0], [ 9E9, 9E9, 9E9, 9E9, 9E9, 9E9] ], v30, fine, pen\WObj:=platform;
    MoveL [ [-7.084, -9.199, 49.475], [0.071, -0.430, 0.900, 0.000], [0, 0, 0, 0], [ 9E9, 9E9, 9E9, 9E9, 9E9, 9E9] ], v1000, fine, pen\WObj:=platform;
    
    !!-0.5979220963631975, -5.969383108509532;
    MoveL [ [0.549, -23.652, 46.735], [0.180, -0.982, -0.064, 0.000], [0, 0, 0, 0], [ 9E9, 9E9, 9E9, 9E9, 9E9, 9E9] ], v1000, fine, pen\WObj:=platform;
    MoveL [ [-0.598, -5.969, -0.020], [0.180, -0.982, -0.064, 0.000], [0, 0, 0, 0], [ 9E9, 9E9, 9E9, 9E9, 9E9, 9E9] ], v30, fine, pen\WObj:=platform;
    MoveL [ [0.549, -23.652, 46.735], [0.180, -0.982, -0.064, 0.000], [0, 0, 0, 0], [ 9E9, 9E9, 9E9, 9E9, 9E9, 9E9] ], v1000, fine, pen\WObj:=platform;
    
    !!-0.4660586915592072, -5.825131653940367;
    MoveL [ [-4.696, -19.591, 47.861], [0.146, -0.946, 0.291, 0.000], [0, 0, 0, 0], [ 9E9, 9E9, 9E9, 9E9, 9E9, 9E9] ], v1000, fine, pen\WObj:=platform;
    MoveL [ [-0.466, -5.825, -0.020], [0.146, -0.946, 0.291, 0.000], [0, 0, 0, 0], [ 9E9, 9E9, 9E9, 9E9, 9E9, 9E9] ], v30, fine, pen\WObj:=platform;
    MoveL [ [-4.696, -19.591, 47.861], [0.146, -0.946, 0.291, 0.000], [0, 0, 0, 0], [ 9E9, 9E9, 9E9, 9E9, 9E9, 9E9] ], v1000, fine, pen\WObj:=platform;
    
    !!-0.3015643787758513, -5.7196089739082066;
    MoveL [ [-9.269, -12.750, 48.664], [0.115, -0.613, 0.782, 0.000], [0, 0, 0, 0], [ 9E9, 9E9, 9E9, 9E9, 9E9, 9E9] ], v1000, fine, pen\WObj:=platform;
    MoveL [ [-0.302, -5.720, -0.020], [0.115, -0.613, 0.782, 0.000], [0, 0, 0, 0], [ 9E9, 9E9, 9E9, 9E9, 9E9, 9E9] ], v30, fine, pen\WObj:=platform;
    MoveL [ [-9.269, -12.750, 48.664], [0.115, -0.613, 0.782, 0.000], [0, 0, 0, 0], [ 9E9, 9E9, 9E9, 9E9, 9E9, 9E9] ], v1000, fine, pen\WObj:=platform;
    
    !!-0.11562465819567544, -5.659468175588778;
    MoveL [ [-10.287, -9.333, 48.796], [0.109, -0.338, 0.935, 0.000], [0, 0, 0, 0], [ 9E9, 9E9, 9E9, 9E9, 9E9, 9E9] ], v1000, fine, pen\WObj:=platform;
    MoveL [ [-0.116, -5.659, -0.020], [0.109, -0.338, 0.935, 0.000], [0, 0, 0, 0], [ 9E9, 9E9, 9E9, 9E9, 9E9, 9E9] ], v30, fine, pen\WObj:=platform;
    MoveL [ [-10.287, -9.333, 48.796], [0.109, -0.338, 0.935, 0.000], [0, 0, 0, 0], [ 9E9, 9E9, 9E9, 9E9, 9E9, 9E9] ], v1000, fine, pen\WObj:=platform;
    
    !!0.07946887081619948, -5.6482347284208245;
    MoveL [ [-0.868, -15.115, 49.066], [0.096, -0.990, 0.099, 0.000], [0, 0, 0, 0], [ 9E9, 9E9, 9E9, 9E9, 9E9, 9E9] ], v1000, fine, pen\WObj:=platform;
    MoveL [ [0.079, -5.648, -0.020], [0.096, -0.990, 0.099, 0.000], [0, 0, 0, 0], [ 9E9, 9E9, 9E9, 9E9, 9E9, 9E9] ], v30, fine, pen\WObj:=platform;
    MoveL [ [-0.868, -15.115, 49.066], [0.096, -0.990, 0.099, 0.000], [0, 0, 0, 0], [ 9E9, 9E9, 9E9, 9E9, 9E9, 9E9] ], v1000, fine, pen\WObj:=platform;
    
    !!0.2711522804532821, -5.686213941640709;
    MoveL [ [-10.678, -7.849, 48.718], [0.112, -0.193, 0.975, 0.000], [0, 0, 0, 0], [ 9E9, 9E9, 9E9, 9E9, 9E9, 9E9] ], v1000, fine, pen\WObj:=platform;
    MoveL [ [0.271, -5.686, -0.020], [0.112, -0.193, 0.975, 0.000], [0, 0, 0, 0], [ 9E9, 9E9, 9E9, 9E9, 9E9, 9E9] ], v30, fine, pen\WObj:=platform;
    MoveL [ [-10.678, -7.849, 48.718], [0.112, -0.193, 0.975, 0.000], [0, 0, 0, 0], [ 9E9, 9E9, 9E9, 9E9, 9E9, 9E9] ], v1000, fine, pen\WObj:=platform;
    
    !!0.4473913530846273, -5.770606501748775;
    MoveL [ [-5.736, -7.429, 49.568], [0.064, -0.259, 0.964, 0.000], [0, 0, 0, 0], [ 9E9, 9E9, 9E9, 9E9, 9E9, 9E9] ], v1000, fine, pen\WObj:=platform;
    MoveL [ [0.447, -5.771, -0.020], [0.064, -0.259, 0.964, 0.000], [0, 0, 0, 0], [ 9E9, 9E9, 9E9, 9E9, 9E9, 9E9] ], v30, fine, pen\WObj:=platform;
    MoveL [ [-5.736, -7.429, 49.568], [0.064, -0.259, 0.964, 0.000], [0, 0, 0, 0], [ 9E9, 9E9, 9E9, 9E9, 9E9, 9E9] ], v1000, fine, pen\WObj:=platform;
    
    !!0.597404604333205, -5.895809495829884;
    MoveL [ [-9.595, -13.145, 48.390], [0.126, -0.575, 0.808, 0.000], [0, 0, 0, 0], [ 9E9, 9E9, 9E9, 9E9, 9E9, 9E9] ], v1000, fine, pen\WObj:=platform;
    MoveL [ [0.597, -5.896, -0.020], [0.126, -0.575, 0.808, 0.000], [0, 0, 0, 0], [ 9E9, 9E9, 9E9, 9E9, 9E9, 9E9] ], v30, fine, pen\WObj:=platform;
    MoveL [ [-9.595, -13.145, 48.390], [0.126, -0.575, 0.808, 0.000], [0, 0, 0, 0], [ 9E9, 9E9, 9E9, 9E9, 9E9, 9E9] ], v1000, fine, pen\WObj:=platform;
    
    !!0.7122690326727478, -6.053871066809141;
    MoveL [ [-5.415, -16.976, 48.386], [0.126, -0.865, 0.485, 0.000], [0, 0, 0, 0], [ 9E9, 9E9, 9E9, 9E9, 9E9, 9E9] ], v1000, fine, pen\WObj:=platform;
    MoveL [ [0.712, -6.054, -0.020], [0.126, -0.865, 0.485, 0.000], [0, 0, 0, 0], [ 9E9, 9E9, 9E9, 9E9, 9E9, 9E9] ], v30, fine, pen\WObj:=platform;
    MoveL [ [-5.415, -16.976, 48.386], [0.126, -0.865, 0.485, 0.000], [0, 0, 0, 0], [ 9E9, 9E9, 9E9, 9E9, 9E9, 9E9] ], v1000, fine, pen\WObj:=platform;
    
    !!0.785380719083344, -6.235060437102135;
    MoveL [ [-9.336, -3.517, 48.869], [0.105, 0.258, 0.960, 0.000], [0, 0, 0, 0], [ 9E9, 9E9, 9E9, 9E9, 9E9, 9E9] ], v1000, fine, pen\WObj:=platform;
    MoveL [ [0.785, -6.235, -0.020], [0.105, 0.258, 0.960, 0.000], [0, 0, 0, 0], [ 9E9, 9E9, 9E9, 9E9, 9E9, 9E9] ], v30, fine, pen\WObj:=platform;
    MoveL [ [-9.336, -3.517, 48.869], [0.105, 0.258, 0.960, 0.000], [0, 0, 0, 0], [ 9E9, 9E9, 9E9, 9E9, 9E9, 9E9] ], v1000, fine, pen\WObj:=platform;
    
    !!0.8127533660927757, -6.428511537636627;
    MoveL [ [-10.147, -12.646, 48.366], [0.127, -0.489, 0.863, 0.000], [0, 0, 0, 0], [ 9E9, 9E9, 9E9, 9E9, 9E9, 9E9] ], v1000, fine, pen\WObj:=platform;
    MoveL [ [0.813, -6.429, -0.020], [0.127, -0.489, 0.863, 0.000], [0, 0, 0, 0], [ 9E9, 9E9, 9E9, 9E9, 9E9, 9E9] ], v30, fine, pen\WObj:=platform;
    MoveL [ [-10.147, -12.646, 48.366], [0.127, -0.489, 0.863, 0.000], [0, 0, 0, 0], [ 9E9, 9E9, 9E9, 9E9, 9E9, 9E9] ], v1000, fine, pen\WObj:=platform;
    
    !!0.7931487113886042, -6.622897755661001;
    MoveL [ [-10.373, -6.971, 48.716], [0.112, -0.031, 0.993, 0.000], [0, 0, 0, 0], [ 9E9, 9E9, 9E9, 9E9, 9E9, 9E9] ], v1000, fine, pen\WObj:=platform;
    MoveL [ [0.793, -6.623, -0.020], [0.112, -0.031, 0.993, 0.000], [0, 0, 0, 0], [ 9E9, 9E9, 9E9, 9E9, 9E9, 9E9] ], v30, fine, pen\WObj:=platform;
    MoveL [ [-10.373, -6.971, 48.716], [0.112, -0.031, 0.993, 0.000], [0, 0, 0, 0], [ 9E9, 9E9, 9E9, 9E9, 9E9, 9E9] ], v1000, fine, pen\WObj:=platform;
    
    !!0.7280428708446252, -6.8070970916059315;
    MoveL [ [-2.643, -12.952, 49.486], [0.070, -0.875, 0.480, 0.000], [0, 0, 0, 0], [ 9E9, 9E9, 9E9, 9E9, 9E9, 9E9] ], v1000, fine, pen\WObj:=platform;
    MoveL [ [0.728, -6.807, -0.020], [0.070, -0.875, 0.480, 0.000], [0, 0, 0, 0], [ 9E9, 9E9, 9E9, 9E9, 9E9, 9E9] ], v30, fine, pen\WObj:=platform;
    MoveL [ [-2.643, -12.952, 49.486], [0.070, -0.875, 0.480, 0.000], [0, 0, 0, 0], [ 9E9, 9E9, 9E9, 9E9, 9E9, 9E9] ], v1000, fine, pen\WObj:=platform;
    
    !!0.6214415711311193, -6.9708109113623875;
    MoveL [ [3.695, -24.017, 46.884], [0.176, -0.969, -0.175, 0.000], [0, 0, 0, 0], [ 9E9, 9E9, 9E9, 9E9, 9E9, 9E9] ], v1000, fine, pen\WObj:=platform;
    MoveL [ [0.621, -6.971, -0.020], [0.176, -0.969, -0.175, 0.000], [0, 0, 0, 0], [ 9E9, 9E9, 9E9, 9E9, 9E9, 9E9] ], v30, fine, pen\WObj:=platform;
    MoveL [ [3.695, -24.017, 46.884], [0.176, -0.969, -0.175, 0.000], [0, 0, 0, 0], [ 9E9, 9E9, 9E9, 9E9, 9E9, 9E9] ], v1000, fine, pen\WObj:=platform;
    
    !!0.47956456356987315, -7.105105044817063;
    MoveL [ [-3.674, -2.602, 49.603], [0.061, 0.734, 0.677, 0.000], [0, 0, 0, 0], [ 9E9, 9E9, 9E9, 9E9, 9E9, 9E9] ], v1000, fine, pen\WObj:=platform;
    MoveL [ [0.480, -7.105, -0.020], [0.061, 0.734, 0.677, 0.000], [0, 0, 0, 0], [ 9E9, 9E9, 9E9, 9E9, 9E9, 9E9] ], v30, fine, pen\WObj:=platform;
    MoveL [ [-3.674, -2.602, 49.603], [0.061, 0.734, 0.677, 0.000], [0, 0, 0, 0], [ 9E9, 9E9, 9E9, 9E9, 9E9, 9E9] ], v1000, fine, pen\WObj:=platform;
    
    !!0.31042503954702244, -7.2028487280620155;
    MoveL [ [-9.882, -13.553, 48.517], [0.121, -0.525, 0.843, 0.000], [0, 0, 0, 0], [ 9E9, 9E9, 9E9, 9E9, 9E9, 9E9] ], v1000, fine, pen\WObj:=platform;
    MoveL [ [0.310, -7.203, -0.020], [0.121, -0.525, 0.843, 0.000], [0, 0, 0, 0], [ 9E9, 9E9, 9E9, 9E9, 9E9, 9E9] ], v30, fine, pen\WObj:=platform;
    MoveL [ [-9.882, -13.553, 48.517], [0.121, -0.525, 0.843, 0.000], [0, 0, 0, 0], [ 9E9, 9E9, 9E9, 9E9, 9E9, 9E9] ], v1000, fine, pen\WObj:=platform;
    
    !!0.12333348965355434, -7.259034324685981;
    MoveL [ [-11.907, -9.874, 48.441], [0.124, -0.211, 0.970, 0.000], [0, 0, 0, 0], [ 9E9, 9E9, 9E9, 9E9, 9E9, 9E9] ], v1000, fine, pen\WObj:=platform;
    MoveL [ [0.123, -7.259, -0.020], [0.124, -0.211, 0.970, 0.000], [0, 0, 0, 0], [ 9E9, 9E9, 9E9, 9E9, 9E9, 9E9] ], v30, fine, pen\WObj:=platform;
    MoveL [ [-11.907, -9.874, 48.441], [0.124, -0.211, 0.970, 0.000], [0, 0, 0, 0], [ 9E9, 9E9, 9E9, 9E9, 9E9, 9E9] ], v1000, fine, pen\WObj:=platform;
    
    !!-0.07164282639802096, -7.270968422529872;
    MoveL [ [0.637, 3.463, 48.809], [0.108, 0.992, -0.065, 0.000], [0, 0, 0, 0], [ 9E9, 9E9, 9E9, 9E9, 9E9, 9E9] ], v1000, fine, pen\WObj:=platform;
    MoveL [ [-0.072, -7.271, -0.020], [0.108, 0.992, -0.065, 0.000], [0, 0, 0, 0], [ 9E9, 9E9, 9E9, 9E9, 9E9, 9E9] ], v30, fine, pen\WObj:=platform;
    MoveL [ [0.637, 3.463, 48.809], [0.108, 0.992, -0.065, 0.000], [0, 0, 0, 0], [ 9E9, 9E9, 9E9, 9E9, 9E9, 9E9] ], v1000, fine, pen\WObj:=platform;
    
    !!-0.26423369612559433, -7.238332361651341;
    MoveL [ [-7.019, 2.939, 48.465], [0.123, 0.827, 0.549, 0.000], [0, 0, 0, 0], [ 9E9, 9E9, 9E9, 9E9, 9E9, 9E9] ], v1000, fine, pen\WObj:=platform;
    MoveL [ [-0.264, -7.238, -0.020], [0.123, 0.827, 0.549, 0.000], [0, 0, 0, 0], [ 9E9, 9E9, 9E9, 9E9, 9E9, 9E9] ], v30, fine, pen\WObj:=platform;
    MoveL [ [-7.019, 2.939, 48.465], [0.123, 0.827, 0.549, 0.000], [0, 0, 0, 0], [ 9E9, 9E9, 9E9, 9E9, 9E9, 9E9] ], v1000, fine, pen\WObj:=platform;
    
    !!-0.44450361921654324, -7.163117142434943;
    MoveL [ [-7.706, 1.199, 48.738], [0.111, 0.750, 0.652, 0.000], [0, 0, 0, 0], [ 9E9, 9E9, 9E9, 9E9, 9E9, 9E9] ], v1000, fine, pen\WObj:=platform;
    MoveL [ [-0.445, -7.163, -0.020], [0.111, 0.750, 0.652, 0.000], [0, 0, 0, 0], [ 9E9, 9E9, 9E9, 9E9, 9E9, 9E9] ], v30, fine, pen\WObj:=platform;
    MoveL [ [-7.706, 1.199, 48.738], [0.111, 0.750, 0.652, 0.000], [0, 0, 0, 0], [ 9E9, 9E9, 9E9, 9E9, 9E9, 9E9] ], v1000, fine, pen\WObj:=platform;
    
    !!-0.603346902098061, -7.049443696122745;
    MoveL [ [-11.238, -8.036, 48.826], [0.107, -0.092, 0.990, 0.000], [0, 0, 0, 0], [ 9E9, 9E9, 9E9, 9E9, 9E9, 9E9] ], v1000, fine, pen\WObj:=platform;
    MoveL [ [-0.603, -7.049, -0.020], [0.107, -0.092, 0.990, 0.000], [0, 0, 0, 0], [ 9E9, 9E9, 9E9, 9E9, 9E9, 9E9] ], v30, fine, pen\WObj:=platform;
    MoveL [ [-11.238, -8.036, 48.826], [0.107, -0.092, 0.990, 0.000], [0, 0, 0, 0], [ 9E9, 9E9, 9E9, 9E9, 9E9, 9E9] ], v1000, fine, pen\WObj:=platform;
    
    !!-0.7329178477649885, -6.903284456471566;
    MoveL [ [-3.278, 4.654, 48.559], [0.119, 0.970, 0.214, 0.000], [0, 0, 0, 0], [ 9E9, 9E9, 9E9, 9E9, 9E9, 9E9] ], v1000, fine, pen\WObj:=platform;
    MoveL [ [-0.733, -6.903, -0.020], [0.119, 0.970, 0.214, 0.000], [0, 0, 0, 0], [ 9E9, 9E9, 9E9, 9E9, 9E9, 9E9] ], v30, fine, pen\WObj:=platform;
    MoveL [ [-3.278, 4.654, 48.559], [0.119, 0.970, 0.214, 0.000], [0, 0, 0, 0], [ 9E9, 9E9, 9E9, 9E9, 9E9, 9E9] ], v1000, fine, pen\WObj:=platform;
    
    !!-0.826978548735184, -6.732105911497842;
    MoveL [ [-8.620, -13.554, 48.895], [0.104, -0.655, 0.748, 0.000], [0, 0, 0, 0], [ 9E9, 9E9, 9E9, 9E9, 9E9, 9E9] ], v1000, fine, pen\WObj:=platform;
    MoveL [ [-0.827, -6.732, -0.020], [0.104, -0.655, 0.748, 0.000], [0, 0, 0, 0], [ 9E9, 9E9, 9E9, 9E9, 9E9, 9E9] ], v30, fine, pen\WObj:=platform;
    MoveL [ [-8.620, -13.554, 48.895], [0.104, -0.655, 0.748, 0.000], [0, 0, 0, 0], [ 9E9, 9E9, 9E9, 9E9, 9E9, 9E9] ], v1000, fine, pen\WObj:=platform;
    
    !!-0.8811520797518395, -6.544454274052432;
    MoveL [ [1.188, -20.137, 48.052], [0.139, -0.979, -0.149, 0.000], [0, 0, 0, 0], [ 9E9, 9E9, 9E9, 9E9, 9E9, 9E9] ], v1000, fine, pen\WObj:=platform;
    MoveL [ [-0.881, -6.544, -0.020], [0.139, -0.979, -0.149, 0.000], [0, 0, 0, 0], [ 9E9, 9E9, 9E9, 9E9, 9E9, 9E9] ], v30, fine, pen\WObj:=platform;
    MoveL [ [1.188, -20.137, 48.052], [0.139, -0.979, -0.149, 0.000], [0, 0, 0, 0], [ 9E9, 9E9, 9E9, 9E9, 9E9, 9E9] ], v1000, fine, pen\WObj:=platform;
    
    !!-0.8930743233883582, -6.34950759389797;
    MoveL [ [-11.393, -3.346, 48.773], [0.110, 0.273, 0.956, 0.000], [0, 0, 0, 0], [ 9E9, 9E9, 9E9, 9E9, 9E9, 9E9] ], v1000, fine, pen\WObj:=platform;
    MoveL [ [-0.893, -6.350, -0.020], [0.110, 0.273, 0.956, 0.000], [0, 0, 0, 0], [ 9E9, 9E9, 9E9, 9E9, 9E9, 9E9] ], v30, fine, pen\WObj:=platform;
    MoveL [ [-11.393, -3.346, 48.773], [0.110, 0.273, 0.956, 0.000], [0, 0, 0, 0], [ 9E9, 9E9, 9E9, 9E9, 9E9, 9E9] ], v1000, fine, pen\WObj:=platform;
    
    !!-0.8624429725072895, -6.156617607047412;
    MoveL [ [-10.299, -7.415, 49.065], [0.096, -0.132, 0.987, 0.000], [0, 0, 0, 0], [ 9E9, 9E9, 9E9, 9E9, 9E9, 9E9] ], v1000, fine, pen\WObj:=platform;
    MoveL [ [-0.862, -6.157, -0.020], [0.096, -0.132, 0.987, 0.000], [0, 0, 0, 0], [ 9E9, 9E9, 9E9, 9E9, 9E9, 9E9] ], v30, fine, pen\WObj:=platform;
    MoveL [ [-10.299, -7.415, 49.065], [0.096, -0.132, 0.987, 0.000], [0, 0, 0, 0], [ 9E9, 9E9, 9E9, 9E9, 9E9, 9E9] ], v1000, fine, pen\WObj:=platform;
    
    !!-0.7909672001302617, -5.974863495499121;
    MoveL [ [5.751, -10.651, 49.329], [0.081, -0.580, -0.811, 0.000], [0, 0, 0, 0], [ 9E9, 9E9, 9E9, 9E9, 9E9, 9E9] ], v1000, fine, pen\WObj:=platform;
    MoveL [ [-0.791, -5.975, -0.020], [0.081, -0.580, -0.811, 0.000], [0, 0, 0, 0], [ 9E9, 9E9, 9E9, 9E9, 9E9, 9E9] ], v30, fine, pen\WObj:=platform;
    MoveL [ [5.751, -10.651, 49.329], [0.081, -0.580, -0.811, 0.000], [0, 0, 0, 0], [ 9E9, 9E9, 9E9, 9E9, 9E9, 9E9] ], v1000, fine, pen\WObj:=platform;
    
    !!-0.682225873288495, -5.812637666180165;
    MoveL [ [4.686, -8.255, 49.631], [0.059, -0.413, -0.909, 0.000], [0, 0, 0, 0], [ 9E9, 9E9, 9E9, 9E9, 9E9, 9E9] ], v1000, fine, pen\WObj:=platform;
    MoveL [ [-0.682, -5.813, -0.020], [0.059, -0.413, -0.909, 0.000], [0, 0, 0, 0], [ 9E9, 9E9, 9E9, 9E9, 9E9, 9E9] ], v30, fine, pen\WObj:=platform;
    MoveL [ [4.686, -8.255, 49.631], [0.059, -0.413, -0.909, 0.000], [0, 0, 0, 0], [ 9E9, 9E9, 9E9, 9E9, 9E9, 9E9] ], v1000, fine, pen\WObj:=platform;
    
    !!-0.5414458626293399, -5.677280833171708;
    MoveL [ [-4.947, -5.942, 49.785], [0.044, -0.060, 0.997, 0.000], [0, 0, 0, 0], [ 9E9, 9E9, 9E9, 9E9, 9E9, 9E9] ], v1000, fine, pen\WObj:=platform;
    MoveL [ [-0.541, -5.677, -0.020], [0.044, -0.060, 0.997, 0.000], [0, 0, 0, 0], [ 9E9, 9E9, 9E9, 9E9, 9E9, 9E9] ], v30, fine, pen\WObj:=platform;
    MoveL [ [-4.947, -5.942, 49.785], [0.044, -0.060, 0.997, 0.000], [0, 0, 0, 0], [ 9E9, 9E9, 9E9, 9E9, 9E9, 9E9] ], v1000, fine, pen\WObj:=platform;
    
    !!-0.3752148614482621, -5.574780299339541;
    MoveL [ [3.216, -9.241, 49.716], [0.051, -0.713, -0.699, 0.000], [0, 0, 0, 0], [ 9E9, 9E9, 9E9, 9E9, 9E9, 9E9] ], v1000, fine, pen\WObj:=platform;
    MoveL [ [-0.375, -5.575, -0.020], [0.051, -0.713, -0.699, 0.000], [0, 0, 0, 0], [ 9E9, 9E9, 9E9, 9E9, 9E9, 9E9] ], v30, fine, pen\WObj:=platform;
    MoveL [ [3.216, -9.241, 49.716], [0.051, -0.713, -0.699, 0.000], [0, 0, 0, 0], [ 9E9, 9E9, 9E9, 9E9, 9E9, 9E9] ], v1000, fine, pen\WObj:=platform;
    
    !!-0.19114512078832718, -5.509541584790799;
    MoveL [ [-2.327, -24.507, 46.181], [0.195, -0.975, 0.110, 0.000], [0, 0, 0, 0], [ 9E9, 9E9, 9E9, 9E9, 9E9, 9E9] ], v1000, fine, pen\WObj:=platform;
    MoveL [ [-0.191, -5.510, -0.020], [0.195, -0.975, 0.110, 0.000], [0, 0, 0, 0], [ 9E9, 9E9, 9E9, 9E9, 9E9, 9E9] ], v30, fine, pen\WObj:=platform;
    MoveL [ [-2.327, -24.507, 46.181], [0.195, -0.975, 0.110, 0.000], [0, 0, 0, 0], [ 9E9, 9E9, 9E9, 9E9, 9E9, 9E9] ], v1000, fine, pen\WObj:=platform;
    
    !!0.002494380201436002, -5.48423963828255;
    MoveL [ [-9.892, -11.696, 48.596], [0.118, -0.528, 0.841, 0.000], [0, 0, 0, 0], [ 9E9, 9E9, 9E9, 9E9, 9E9, 9E9] ], v1000, fine, pen\WObj:=platform;
    MoveL [ [0.002, -5.484, -0.020], [0.118, -0.528, 0.841, 0.000], [0, 0, 0, 0], [ 9E9, 9E9, 9E9, 9E9, 9E9, 9E9] ], v30, fine, pen\WObj:=platform;
    MoveL [ [-9.892, -11.696, 48.596], [0.118, -0.528, 0.841, 0.000], [0, 0, 0, 0], [ 9E9, 9E9, 9E9, 9E9, 9E9, 9E9] ], v1000, fine, pen\WObj:=platform;
    
    !!0.1971595491092965, -5.499751979463952;
    MoveL [ [-2.676, 3.787, 49.026], [0.098, 0.951, 0.294, 0.000], [0, 0, 0, 0], [ 9E9, 9E9, 9E9, 9E9, 9E9, 9E9] ], v1000, fine, pen\WObj:=platform;
    MoveL [ [0.197, -5.500, -0.020], [0.098, 0.951, 0.294, 0.000], [0, 0, 0, 0], [ 9E9, 9E9, 9E9, 9E9, 9E9, 9E9] ], v30, fine, pen\WObj:=platform;
    MoveL [ [-2.676, 3.787, 49.026], [0.098, 0.951, 0.294, 0.000], [0, 0, 0, 0], [ 9E9, 9E9, 9E9, 9E9, 9E9, 9E9] ], v1000, fine, pen\WObj:=platform;
    
    !!0.3844093302426115, -5.555172421103222;
    MoveL [ [3.145, -22.430, 46.965], [0.174, -0.972, -0.159, 0.000], [0, 0, 0, 0], [ 9E9, 9E9, 9E9, 9E9, 9E9, 9E9] ], v1000, fine, pen\WObj:=platform;
    MoveL [ [0.384, -5.555, -0.020], [0.174, -0.972, -0.159, 0.000], [0, 0, 0, 0], [ 9E9, 9E9, 9E9, 9E9, 9E9, 9E9] ], v30, fine, pen\WObj:=platform;
    MoveL [ [3.145, -22.430, 46.965], [0.174, -0.972, -0.159, 0.000], [0, 0, 0, 0], [ 9E9, 9E9, 9E9, 9E9, 9E9, 9E9] ], v1000, fine, pen\WObj:=platform;
    
    !!0.556264368824499, -5.647900653458937;
    MoveL [ [-10.841, -9.694, 48.495], [0.122, -0.332, 0.935, 0.000], [0, 0, 0, 0], [ 9E9, 9E9, 9E9, 9E9, 9E9, 9E9] ], v1000, fine, pen\WObj:=platform;
    MoveL [ [0.556, -5.648, -0.020], [0.122, -0.332, 0.935, 0.000], [0, 0, 0, 0], [ 9E9, 9E9, 9E9, 9E9, 9E9, 9E9] ], v30, fine, pen\WObj:=platform;
    MoveL [ [-10.841, -9.694, 48.495], [0.122, -0.332, 0.935, 0.000], [0, 0, 0, 0], [ 9E9, 9E9, 9E9, 9E9, 9E9, 9E9] ], v1000, fine, pen\WObj:=platform;
    
    !!0.7055319861268385, -5.773800052263523;
    MoveL [ [-6.026, 4.104, 48.530], [0.120, 0.820, 0.559, 0.000], [0, 0, 0, 0], [ 9E9, 9E9, 9E9, 9E9, 9E9, 9E9] ], v1000, fine, pen\WObj:=platform;
    MoveL [ [0.706, -5.774, -0.020], [0.120, 0.820, 0.559, 0.000], [0, 0, 0, 0], [ 9E9, 9E9, 9E9, 9E9, 9E9, 9E9] ], v30, fine, pen\WObj:=platform;
    MoveL [ [-6.026, 4.104, 48.530], [0.120, 0.820, 0.559, 0.000], [0, 0, 0, 0], [ 9E9, 9E9, 9E9, 9E9, 9E9, 9E9] ], v1000, fine, pen\WObj:=platform;
    
    !!0.8260855431358931, -5.927413682422012;
    MoveL [ [-4.589, -7.264, 49.668], [0.056, -0.239, 0.969, 0.000], [0, 0, 0, 0], [ 9E9, 9E9, 9E9, 9E9, 9E9, 9E9] ], v1000, fine, pen\WObj:=platform;
    MoveL [ [0.826, -5.927, -0.020], [0.056, -0.239, 0.969, 0.000], [0, 0, 0, 0], [ 9E9, 9E9, 9E9, 9E9, 9E9, 9E9] ], v30, fine, pen\WObj:=platform;
    MoveL [ [-4.589, -7.264, 49.668], [0.056, -0.239, 0.969, 0.000], [0, 0, 0, 0], [ 9E9, 9E9, 9E9, 9E9, 9E9, 9E9] ], v1000, fine, pen\WObj:=platform;
    
    !!0.9130888817210134, -6.102226666553737;
    MoveL [ [-11.230, -13.578, 47.903], [0.144, -0.519, 0.843, 0.000], [0, 0, 0, 0], [ 9E9, 9E9, 9E9, 9E9, 9E9, 9E9] ], v1000, fine, pen\WObj:=platform;
    MoveL [ [0.913, -6.102, -0.020], [0.144, -0.519, 0.843, 0.000], [0, 0, 0, 0], [ 9E9, 9E9, 9E9, 9E9, 9E9, 9E9] ], v30, fine, pen\WObj:=platform;
    MoveL [ [-11.230, -13.578, 47.903], [0.144, -0.519, 0.843, 0.000], [0, 0, 0, 0], [ 9E9, 9E9, 9E9, 9E9, 9E9, 9E9] ], v1000, fine, pen\WObj:=platform;
    
    !!0.9631593401737388, -6.290961896862857;
    MoveL [ [-3.716, 1.083, 49.211], [0.088, 0.841, 0.534, 0.000], [0, 0, 0, 0], [ 9E9, 9E9, 9E9, 9E9, 9E9, 9E9] ], v1000, fine, pen\WObj:=platform;
    MoveL [ [0.963, -6.291, -0.020], [0.088, 0.841, 0.534, 0.000], [0, 0, 0, 0], [ 9E9, 9E9, 9E9, 9E9, 9E9, 9E9] ], v30, fine, pen\WObj:=platform;
    MoveL [ [-3.716, 1.083, 49.211], [0.088, 0.841, 0.534, 0.000], [0, 0, 0, 0], [ 9E9, 9E9, 9E9, 9E9, 9E9, 9E9] ], v1000, fine, pen\WObj:=platform;
    
    !!0.9744657147374287, -6.485895489271307;
    MoveL [ [-8.397, -8.394, 49.057], [0.096, -0.199, 0.975, 0.000], [0, 0, 0, 0], [ 9E9, 9E9, 9E9, 9E9, 9E9, 9E9] ], v1000, fine, pen\WObj:=platform;
    MoveL [ [0.974, -6.486, -0.020], [0.096, -0.199, 0.975, 0.000], [0, 0, 0, 0], [ 9E9, 9E9, 9E9, 9E9, 9E9, 9E9] ], v30, fine, pen\WObj:=platform;
    MoveL [ [-8.397, -8.394, 49.057], [0.096, -0.199, 0.975, 0.000], [0, 0, 0, 0], [ 9E9, 9E9, 9E9, 9E9, 9E9, 9E9] ], v1000, fine, pen\WObj:=platform;
    
    !!0.9467603597600982, -6.679178384655936;
    MoveL [ [-0.984, -12.448, 49.609], [0.061, -0.947, 0.317, 0.000], [0, 0, 0, 0], [ 9E9, 9E9, 9E9, 9E9, 9E9, 9E9] ], v1000, fine, pen\WObj:=platform;
    MoveL [ [0.947, -6.679, -0.020], [0.061, -0.947, 0.317, 0.000], [0, 0, 0, 0], [ 9E9, 9E9, 9E9, 9E9, 9E9, 9E9] ], v30, fine, pen\WObj:=platform;
    MoveL [ [-0.984, -12.448, 49.609], [0.061, -0.947, 0.317, 0.000], [0, 0, 0, 0], [ 9E9, 9E9, 9E9, 9E9, 9E9, 9E9] ], v1000, fine, pen\WObj:=platform;
    
    !!0.8813472787246948, -6.863151046847372;
    MoveL [ [-7.331, 3.889, 48.115], [0.137, 0.787, 0.601, 0.000], [0, 0, 0, 0], [ 9E9, 9E9, 9E9, 9E9, 9E9, 9E9] ], v1000, fine, pen\WObj:=platform;
    MoveL [ [0.881, -6.863, -0.020], [0.137, 0.787, 0.601, 0.000], [0, 0, 0, 0], [ 9E9, 9E9, 9E9, 9E9, 9E9, 9E9] ], v30, fine, pen\WObj:=platform;
    MoveL [ [-7.331, 3.889, 48.115], [0.137, 0.787, 0.601, 0.000], [0, 0, 0, 0], [ 9E9, 9E9, 9E9, 9E9, 9E9, 9E9] ], v1000, fine, pen\WObj:=platform;
    
    !!0.7809904648767962, -7.030639227195701;
    MoveL [ [-9.953, -7.750, 48.809], [0.108, -0.066, 0.992, 0.000], [0, 0, 0, 0], [ 9E9, 9E9, 9E9, 9E9, 9E9, 9E9] ], v1000, fine, pen\WObj:=platform;
    MoveL [ [0.781, -7.031, -0.020], [0.108, -0.066, 0.992, 0.000], [0, 0, 0, 0], [ 9E9, 9E9, 9E9, 9E9, 9E9, 9E9] ], v30, fine, pen\WObj:=platform;
    MoveL [ [-9.953, -7.750, 48.809], [0.108, -0.066, 0.992, 0.000], [0, 0, 0, 0], [ 9E9, 9E9, 9E9, 9E9, 9E9, 9E9] ], v1000, fine, pen\WObj:=platform;
    
    !!0.6497688296069362, -7.17522018453007;
    MoveL [ [-8.580, 6.813, 47.088], [0.170, 0.823, 0.543, 0.000], [0, 0, 0, 0], [ 9E9, 9E9, 9E9, 9E9, 9E9, 9E9] ], v1000, fine, pen\WObj:=platform;
    MoveL [ [0.650, -7.175, -0.020], [0.170, 0.823, 0.543, 0.000], [0, 0, 0, 0], [ 9E9, 9E9, 9E9, 9E9, 9E9, 9E9] ], v30, fine, pen\WObj:=platform;
    MoveL [ [-8.580, 6.813, 47.088], [0.170, 0.823, 0.543, 0.000], [0, 0, 0, 0], [ 9E9, 9E9, 9E9, 9E9, 9E9, 9E9] ], v1000, fine, pen\WObj:=platform;
    
    !!0.4928857542746437, -7.291450482086505;
    MoveL [ [-4.478, 3.736, 48.495], [0.122, 0.905, 0.408, 0.000], [0, 0, 0, 0], [ 9E9, 9E9, 9E9, 9E9, 9E9, 9E9] ], v1000, fine, pen\WObj:=platform;
    MoveL [ [0.493, -7.291, -0.020], [0.122, 0.905, 0.408, 0.000], [0, 0, 0, 0], [ 9E9, 9E9, 9E9, 9E9, 9E9, 9E9] ], v30, fine, pen\WObj:=platform;
    MoveL [ [-4.478, 3.736, 48.495], [0.122, 0.905, 0.408, 0.000], [0, 0, 0, 0], [ 9E9, 9E9, 9E9, 9E9, 9E9, 9E9] ], v1000, fine, pen\WObj:=platform;
    
    !!0.31644258116120916, -7.375048439686482;
    MoveL [ [-2.450, 0.671, 49.251], [0.085, 0.942, 0.324, 0.000], [0, 0, 0, 0], [ 9E9, 9E9, 9E9, 9E9, 9E9, 9E9] ], v1000, fine, pen\WObj:=platform;
    MoveL [ [0.316, -7.375, -0.020], [0.085, 0.942, 0.324, 0.000], [0, 0, 0, 0], [ 9E9, 9E9, 9E9, 9E9, 9E9, 9E9] ], v30, fine, pen\WObj:=platform;
    MoveL [ [-2.450, 0.671, 49.251], [0.085, 0.942, 0.324, 0.000], [0, 0, 0, 0], [ 9E9, 9E9, 9E9, 9E9, 9E9, 9E9] ], v1000, fine, pen\WObj:=platform;
    
    !!0.12718620485126084, -7.423026409559909;
    MoveL [ [5.575, -5.244, 49.635], [0.059, 0.371, -0.927, 0.000], [0, 0, 0, 0], [ 9E9, 9E9, 9E9, 9E9, 9E9, 9E9] ], v1000, fine, pen\WObj:=platform;
    MoveL [ [0.127, -7.423, -0.020], [0.059, 0.371, -0.927, 0.000], [0, 0, 0, 0], [ 9E9, 9E9, 9E9, 9E9, 9E9, 9E9] ], v30, fine, pen\WObj:=platform;
    MoveL [ [5.575, -5.244, 49.635], [0.059, 0.371, -0.927, 0.000], [0, 0, 0, 0], [ 9E9, 9E9, 9E9, 9E9, 9E9, 9E9] ], v1000, fine, pen\WObj:=platform;
    
    !!-0.06775866266163362, -7.433770179820806;
    MoveL [ [-5.527, 4.027, 48.342], [0.128, 0.895, 0.427, 0.000], [0, 0, 0, 0], [ 9E9, 9E9, 9E9, 9E9, 9E9, 9E9] ], v1000, fine, pen\WObj:=platform;
    MoveL [ [-0.068, -7.434, -0.020], [0.128, 0.895, 0.427, 0.000], [0, 0, 0, 0], [ 9E9, 9E9, 9E9, 9E9, 9E9, 9E9] ], v30, fine, pen\WObj:=platform;
    MoveL [ [-5.527, 4.027, 48.342], [0.128, 0.895, 0.427, 0.000], [0, 0, 0, 0], [ 9E9, 9E9, 9E9, 9E9, 9E9, 9E9] ], v1000, fine, pen\WObj:=platform;
    
    !!-0.26116198475098307, -7.407064908480443;
    MoveL [ [-8.131, -12.891, 49.051], [0.096, -0.569, 0.817, 0.000], [0, 0, 0, 0], [ 9E9, 9E9, 9E9, 9E9, 9E9, 9E9] ], v1000, fine, pen\WObj:=platform;
    MoveL [ [-0.261, -7.407, -0.020], [0.096, -0.569, 0.817, 0.000], [0, 0, 0, 0], [ 9E9, 9E9, 9E9, 9E9, 9E9, 9E9] ], v30, fine, pen\WObj:=platform;
    MoveL [ [-8.131, -12.891, 49.051], [0.096, -0.569, 0.817, 0.000], [0, 0, 0, 0], [ 9E9, 9E9, 9E9, 9E9, 9E9, 9E9] ], v1000, fine, pen\WObj:=platform;
    
    !!-0.4459554736285148, -7.344068978921888;
    MoveL [ [-3.641, 3.536, 48.677], [0.114, 0.953, 0.280, 0.000], [0, 0, 0, 0], [ 9E9, 9E9, 9E9, 9E9, 9E9, 9E9] ], v1000, fine, pen\WObj:=platform;
    MoveL [ [-0.446, -7.344, -0.020], [0.114, 0.953, 0.280, 0.000], [0, 0, 0, 0], [ 9E9, 9E9, 9E9, 9E9, 9E9, 9E9] ], v30, fine, pen\WObj:=platform;
    MoveL [ [-3.641, 3.536, 48.677], [0.114, 0.953, 0.280, 0.000], [0, 0, 0, 0], [ 9E9, 9E9, 9E9, 9E9, 9E9, 9E9] ], v1000, fine, pen\WObj:=platform;
    
    !!-0.615484802759134, -7.247238980945143;
    MoveL [ [-8.222, -10.254, 49.306], [0.082, -0.366, 0.927, 0.000], [0, 0, 0, 0], [ 9E9, 9E9, 9E9, 9E9, 9E9, 9E9] ], v1000, fine, pen\WObj:=platform;
    MoveL [ [-0.615, -7.247, -0.020], [0.082, -0.366, 0.927, 0.000], [0, 0, 0, 0], [ 9E9, 9E9, 9E9, 9E9, 9E9, 9E9] ], v30, fine, pen\WObj:=platform;
    MoveL [ [-8.222, -10.254, 49.306], [0.082, -0.366, 0.927, 0.000], [0, 0, 0, 0], [ 9E9, 9E9, 9E9, 9E9, 9E9, 9E9] ], v1000, fine, pen\WObj:=platform;
    
    !!-0.7637385451127578, -7.120210607271236;
    MoveL [ [-6.392, -8.172, 49.651], [0.057, -0.183, 0.981, 0.000], [0, 0, 0, 0], [ 9E9, 9E9, 9E9, 9E9, 9E9, 9E9] ], v1000, fine, pen\WObj:=platform;
    MoveL [ [-0.764, -7.120, -0.020], [0.057, -0.183, 0.981, 0.000], [0, 0, 0, 0], [ 9E9, 9E9, 9E9, 9E9, 9E9, 9E9] ], v30, fine, pen\WObj:=platform;
    MoveL [ [-6.392, -8.172, 49.651], [0.057, -0.183, 0.981, 0.000], [0, 0, 0, 0], [ 9E9, 9E9, 9E9, 9E9, 9E9, 9E9] ], v1000, fine, pen\WObj:=platform;
    
    !!-0.8855466886575243, -6.967641573518594;
    MoveL [ [-6.831, -13.764, 49.158], [0.091, -0.750, 0.656, 0.000], [0, 0, 0, 0], [ 9E9, 9E9, 9E9, 9E9, 9E9, 9E9] ], v1000, fine, pen\WObj:=platform;
    MoveL [ [-0.886, -6.968, -0.020], [0.091, -0.750, 0.656, 0.000], [0, 0, 0, 0], [ 9E9, 9E9, 9E9, 9E9, 9E9, 9E9] ], v30, fine, pen\WObj:=platform;
    MoveL [ [-6.831, -13.764, 49.158], [0.091, -0.750, 0.656, 0.000], [0, 0, 0, 0], [ 9E9, 9E9, 9E9, 9E9, 9E9, 9E9] ], v1000, fine, pen\WObj:=platform;
    
    !!-0.9767430197934872, -6.795023692514148;
    MoveL [ [-0.436, -16.908, 48.944], [0.102, -0.993, -0.053, 0.000], [0, 0, 0, 0], [ 9E9, 9E9, 9E9, 9E9, 9E9, 9E9] ], v1000, fine, pen\WObj:=platform;
    MoveL [ [-0.977, -6.795, -0.020], [0.102, -0.993, -0.053, 0.000], [0, 0, 0, 0], [ 9E9, 9E9, 9E9, 9E9, 9E9, 9E9] ], v30, fine, pen\WObj:=platform;
    MoveL [ [-0.436, -16.908, 48.944], [0.102, -0.993, -0.053, 0.000], [0, 0, 0, 0], [ 9E9, 9E9, 9E9, 9E9, 9E9, 9E9] ], v1000, fine, pen\WObj:=platform;
    
    !!-1.0342872171377713, -6.6084719462302;
    MoveL [ [-3.251, -12.723, 49.555], [0.065, -0.938, 0.340, 0.000], [0, 0, 0, 0], [ 9E9, 9E9, 9E9, 9E9, 9E9, 9E9] ], v1000, fine, pen\WObj:=platform;
    MoveL [ [-1.034, -6.608, -0.020], [0.065, -0.938, 0.340, 0.000], [0, 0, 0, 0], [ 9E9, 9E9, 9E9, 9E9, 9E9, 9E9] ], v30, fine, pen\WObj:=platform;
    MoveL [ [-3.251, -12.723, 49.555], [0.065, -0.938, 0.340, 0.000], [0, 0, 0, 0], [ 9E9, 9E9, 9E9, 9E9, 9E9, 9E9] ], v1000, fine, pen\WObj:=platform;
    
    !!-1.0563441008209489, -6.414498797413981;
    MoveL [ [-10.280, -4.964, 49.100], [0.094, 0.155, 0.984, 0.000], [0, 0, 0, 0], [ 9E9, 9E9, 9E9, 9E9, 9E9, 9E9] ], v1000, fine, pen\WObj:=platform;
    MoveL [ [-1.056, -6.414, -0.020], [0.094, 0.155, 0.984, 0.000], [0, 0, 0, 0], [ 9E9, 9E9, 9E9, 9E9, 9E9, 9E9] ], v30, fine, pen\WObj:=platform;
    MoveL [ [-10.280, -4.964, 49.100], [0.094, 0.155, 0.984, 0.000], [0, 0, 0, 0], [ 9E9, 9E9, 9E9, 9E9, 9E9, 9E9] ], v1000, fine, pen\WObj:=platform;
    
    !!-1.0423190778621303, -6.219782075859244;
    MoveL [ [-8.800, 1.130, 48.825], [0.107, 0.684, 0.722, 0.000], [0, 0, 0, 0], [ 9E9, 9E9, 9E9, 9E9, 9E9, 9E9] ], v1000, fine, pen\WObj:=platform;
    MoveL [ [-1.042, -6.220, -0.020], [0.107, 0.684, 0.722, 0.000], [0, 0, 0, 0], [ 9E9, 9E9, 9E9, 9E9, 9E9, 9E9] ], v30, fine, pen\WObj:=platform;
    MoveL [ [-8.800, 1.130, 48.825], [0.107, 0.684, 0.722, 0.000], [0, 0, 0, 0], [ 9E9, 9E9, 9E9, 9E9, 9E9, 9E9] ], v1000, fine, pen\WObj:=platform;
    
    !!-0.9928503586049553, -6.03093457880445;
    MoveL [ [0.620, -6.563, 49.951], [0.017, -0.313, -0.949, 0.000], [0, 0, 0, 0], [ 9E9, 9E9, 9E9, 9E9, 9E9, 9E9] ], v1000, fine, pen\WObj:=platform;
    MoveL [ [-0.993, -6.031, -0.020], [0.017, -0.313, -0.949, 0.000], [0, 0, 0, 0], [ 9E9, 9E9, 9E9, 9E9, 9E9, 9E9] ], v30, fine, pen\WObj:=platform;
    MoveL [ [0.620, -6.563, 49.951], [0.017, -0.313, -0.949, 0.000], [0, 0, 0, 0], [ 9E9, 9E9, 9E9, 9E9, 9E9, 9E9] ], v1000, fine, pen\WObj:=platform;
    
    !!-0.9097599450957743, -5.854283067041499;
    MoveL [ [-4.410, 0.740, 49.419], [0.075, 0.881, 0.468, 0.000], [0, 0, 0, 0], [ 9E9, 9E9, 9E9, 9E9, 9E9, 9E9] ], v1000, fine, pen\WObj:=platform;
    MoveL [ [-0.910, -5.854, -0.020], [0.075, 0.881, 0.468, 0.000], [0, 0, 0, 0], [ 9E9, 9E9, 9E9, 9E9, 9E9, 9E9] ], v30, fine, pen\WObj:=platform;
    MoveL [ [-4.410, 0.740, 49.419], [0.075, 0.881, 0.468, 0.000], [0, 0, 0, 0], [ 9E9, 9E9, 9E9, 9E9, 9E9, 9E9] ], v1000, fine, pen\WObj:=platform;
    
    !!-0.7959666693434053, -5.695663650690397;
    MoveL [ [-3.542, 1.583, 49.371], [0.078, 0.933, 0.352, 0.000], [0, 0, 0, 0], [ 9E9, 9E9, 9E9, 9E9, 9E9, 9E9] ], v1000, fine, pen\WObj:=platform;
    MoveL [ [-0.796, -5.696, -0.020], [0.078, 0.933, 0.352, 0.000], [0, 0, 0, 0], [ 9E9, 9E9, 9E9, 9E9, 9E9, 9E9] ], v30, fine, pen\WObj:=platform;
    MoveL [ [-3.542, 1.583, 49.371], [0.078, 0.933, 0.352, 0.000], [0, 0, 0, 0], [ 9E9, 9E9, 9E9, 9E9, 9E9, 9E9] ], v1000, fine, pen\WObj:=platform;
    
    !!-0.6553656552210797, -5.560239679097202;
    MoveL [ [-3.234, -10.183, 49.699], [0.053, -0.872, 0.486, 0.000], [0, 0, 0, 0], [ 9E9, 9E9, 9E9, 9E9, 9E9, 9E9] ], v1000, fine, pen\WObj:=platform;
    MoveL [ [-0.655, -5.560, -0.020], [0.053, -0.872, 0.486, 0.000], [0, 0, 0, 0], [ 9E9, 9E9, 9E9, 9E9, 9E9, 9E9] ], v30, fine, pen\WObj:=platform;
    MoveL [ [-3.234, -10.183, 49.699], [0.053, -0.872, 0.486, 0.000], [0, 0, 0, 0], [ 9E9, 9E9, 9E9, 9E9, 9E9, 9E9] ], v1000, fine, pen\WObj:=platform;
    
    !!-0.4926794682938017, -5.452347219284337;
    MoveL [ [-10.618, -3.947, 48.921], [0.103, 0.146, 0.984, 0.000], [0, 0, 0, 0], [ 9E9, 9E9, 9E9, 9E9, 9E9, 9E9] ], v1000, fine, pen\WObj:=platform;
    MoveL [ [-0.493, -5.452, -0.020], [0.103, 0.146, 0.984, 0.000], [0, 0, 0, 0], [ 9E9, 9E9, 9E9, 9E9, 9E9, 9E9] ], v30, fine, pen\WObj:=platform;
    MoveL [ [-10.618, -3.947, 48.921], [0.103, 0.146, 0.984, 0.000], [0, 0, 0, 0], [ 9E9, 9E9, 9E9, 9E9, 9E9, 9E9] ], v1000, fine, pen\WObj:=platform;
    
    !!-0.3132868874492907, -5.375372070020779;
    MoveL [ [-7.526, -2.849, 49.393], [0.077, 0.330, 0.941, 0.000], [0, 0, 0, 0], [ 9E9, 9E9, 9E9, 9E9, 9E9, 9E9] ], v1000, fine, pen\WObj:=platform;
    MoveL [ [-0.313, -5.375, -0.020], [0.077, 0.330, 0.941, 0.000], [0, 0, 0, 0], [ 9E9, 9E9, 9E9, 9E9, 9E9, 9E9] ], v30, fine, pen\WObj:=platform;
    MoveL [ [-7.526, -2.849, 49.393], [0.077, 0.330, 0.941, 0.000], [0, 0, 0, 0], [ 9E9, 9E9, 9E9, 9E9, 9E9, 9E9] ], v1000, fine, pen\WObj:=platform;
    
    !!-0.12303567349872574, -5.331661057393209;
    MoveL [ [-9.237, -5.386, 49.142], [0.092, -0.006, 0.996, 0.000], [0, 0, 0, 0], [ 9E9, 9E9, 9E9, 9E9, 9E9, 9E9] ], v1000, fine, pen\WObj:=platform;
    MoveL [ [-0.123, -5.332, -0.020], [0.092, -0.006, 0.996, 0.000], [0, 0, 0, 0], [ 9E9, 9E9, 9E9, 9E9, 9E9, 9E9] ], v30, fine, pen\WObj:=platform;
    MoveL [ [-9.237, -5.386, 49.142], [0.092, -0.006, 0.996, 0.000], [0, 0, 0, 0], [ 9E9, 9E9, 9E9, 9E9, 9E9, 9E9] ], v1000, fine, pen\WObj:=platform;
    
    !!0.07195407666441618, -5.32246913515663;
    MoveL [ [-3.524, 3.346, 49.091], [0.094, 0.920, 0.381, 0.000], [0, 0, 0, 0], [ 9E9, 9E9, 9E9, 9E9, 9E9, 9E9] ], v1000, fine, pen\WObj:=platform;
    MoveL [ [0.072, -5.322, -0.020], [0.094, 0.920, 0.381, 0.000], [0, 0, 0, 0], [ 9E9, 9E9, 9E9, 9E9, 9E9, 9E9] ], v30, fine, pen\WObj:=platform;
    MoveL [ [-3.524, 3.346, 49.091], [0.094, 0.920, 0.381, 0.000], [0, 0, 0, 0], [ 9E9, 9E9, 9E9, 9E9, 9E9, 9E9] ], v1000, fine, pen\WObj:=platform;
    
    !!0.26548940857986275, -5.3479426091781255;
    MoveL [ [-0.700, -0.741, 49.758], [0.047, 0.978, 0.205, 0.000], [0, 0, 0, 0], [ 9E9, 9E9, 9E9, 9E9, 9E9, 9E9] ], v1000, fine, pen\WObj:=platform;
    MoveL [ [0.265, -5.348, -0.020], [0.047, 0.978, 0.205, 0.000], [0, 0, 0, 0], [ 9E9, 9E9, 9E9, 9E9, 9E9, 9E9] ], v30, fine, pen\WObj:=platform;
    MoveL [ [-0.700, -0.741, 49.758], [0.047, 0.978, 0.205, 0.000], [0, 0, 0, 0], [ 9E9, 9E9, 9E9, 9E9, 9E9, 9E9] ], v1000, fine, pen\WObj:=platform;
    
    !!0.4515004527113753, -5.407137656588046;
    MoveL [ [-2.205, -25.103, 45.861], [0.203, -0.970, 0.131, 0.000], [0, 0, 0, 0], [ 9E9, 9E9, 9E9, 9E9, 9E9, 9E9] ], v1000, fine, pen\WObj:=platform;
    MoveL [ [0.452, -5.407, -0.020], [0.203, -0.970, 0.131, 0.000], [0, 0, 0, 0], [ 9E9, 9E9, 9E9, 9E9, 9E9, 9E9] ], v30, fine, pen\WObj:=platform;
    MoveL [ [-2.205, -25.103, 45.861], [0.203, -0.970, 0.131, 0.000], [0, 0, 0, 0], [ 9E9, 9E9, 9E9, 9E9, 9E9, 9E9] ], v1000, fine, pen\WObj:=platform;
    
    !!0.6242268620978092, -5.498072249150578;
    MoveL [ [-4.020, 3.465, 48.950], [0.101, 0.883, 0.458, 0.000], [0, 0, 0, 0], [ 9E9, 9E9, 9E9, 9E9, 9E9, 9E9] ], v1000, fine, pen\WObj:=platform;
    MoveL [ [0.624, -5.498, -0.020], [0.101, 0.883, 0.458, 0.000], [0, 0, 0, 0], [ 9E9, 9E9, 9E9, 9E9, 9E9, 9E9] ], v30, fine, pen\WObj:=platform;
    MoveL [ [-4.020, 3.465, 48.950], [0.101, 0.883, 0.458, 0.000], [0, 0, 0, 0], [ 9E9, 9E9, 9E9, 9E9, 9E9, 9E9] ], v1000, fine, pen\WObj:=platform;
    
    !!0.7783893392046868, -5.6178086442321735;
    MoveL [ [-10.181, -3.369, 48.712], [0.113, 0.200, 0.973, 0.000], [0, 0, 0, 0], [ 9E9, 9E9, 9E9, 9E9, 9E9, 9E9] ], v1000, fine, pen\WObj:=platform;
    MoveL [ [0.778, -5.618, -0.020], [0.113, 0.200, 0.973, 0.000], [0, 0, 0, 0], [ 9E9, 9E9, 9E9, 9E9, 9E9, 9E9] ], v30, fine, pen\WObj:=platform;
    MoveL [ [-10.181, -3.369, 48.712], [0.113, 0.200, 0.973, 0.000], [0, 0, 0, 0], [ 9E9, 9E9, 9E9, 9E9, 9E9, 9E9] ], v1000, fine, pen\WObj:=platform;
    
    !!0.9093415446574605, -5.76256279753885;
    MoveL [ [-9.495, -14.488, 48.101], [0.137, -0.636, 0.759, 0.000], [0, 0, 0, 0], [ 9E9, 9E9, 9E9, 9E9, 9E9, 9E9] ], v1000, fine, pen\WObj:=platform;
    MoveL [ [0.909, -5.763, -0.020], [0.137, -0.636, 0.759, 0.000], [0, 0, 0, 0], [ 9E9, 9E9, 9E9, 9E9, 9E9, 9E9] ], v30, fine, pen\WObj:=platform;
    MoveL [ [-9.495, -14.488, 48.101], [0.137, -0.636, 0.759, 0.000], [0, 0, 0, 0], [ 9E9, 9E9, 9E9, 9E9, 9E9, 9E9] ], v1000, fine, pen\WObj:=platform;
    
    !!1.0131984855192364, -5.927836395803108;
    MoveL [ [-3.114, 0.507, 49.392], [0.077, 0.839, 0.538, 0.000], [0, 0, 0, 0], [ 9E9, 9E9, 9E9, 9E9, 9E9, 9E9] ], v1000, fine, pen\WObj:=platform;
    MoveL [ [1.013, -5.928, -0.020], [0.077, 0.839, 0.538, 0.000], [0, 0, 0, 0], [ 9E9, 9E9, 9E9, 9E9, 9E9, 9E9] ], v30, fine, pen\WObj:=platform;
    MoveL [ [-3.114, 0.507, 49.392], [0.077, 0.839, 0.538, 0.000], [0, 0, 0, 0], [ 9E9, 9E9, 9E9, 9E9, 9E9, 9E9] ], v1000, fine, pen\WObj:=platform;
    
    !!1.086938361453632, -6.108566715393268;
    MoveL [ [-0.755, 0.435, 49.516], [0.068, 0.960, 0.270, 0.000], [0, 0, 0, 0], [ 9E9, 9E9, 9E9, 9E9, 9E9, 9E9] ], v1000, fine, pen\WObj:=platform;
    MoveL [ [1.087, -6.109, -0.020], [0.068, 0.960, 0.270, 0.000], [0, 0, 0, 0], [ 9E9, 9E9, 9E9, 9E9, 9E9, 9E9] ], v30, fine, pen\WObj:=platform;
    MoveL [ [-0.755, 0.435, 49.516], [0.068, 0.960, 0.270, 0.000], [0, 0, 0, 0], [ 9E9, 9E9, 9E9, 9E9, 9E9, 9E9] ], v1000, fine, pen\WObj:=platform;
    
    !!1.1284757726490406, -6.299289189348162;
    MoveL [ [3.963, -21.993, 47.368], [0.162, -0.971, -0.175, 0.000], [0, 0, 0, 0], [ 9E9, 9E9, 9E9, 9E9, 9E9, 9E9] ], v1000, fine, pen\WObj:=platform;
    MoveL [ [1.128, -6.299, -0.020], [0.162, -0.971, -0.175, 0.000], [0, 0, 0, 0], [ 9E9, 9E9, 9E9, 9E9, 9E9, 9E9] ], v30, fine, pen\WObj:=platform;
    MoveL [ [3.963, -21.993, 47.368], [0.162, -0.971, -0.175, 0.000], [0, 0, 0, 0], [ 9E9, 9E9, 9E9, 9E9, 9E9, 9E9] ], v1000, fine, pen\WObj:=platform;
    
    !!1.136705133671552, -6.494307410227086;
    MoveL [ [-9.245, 4.092, 47.731], [0.150, 0.706, 0.692, 0.000], [0, 0, 0, 0], [ 9E9, 9E9, 9E9, 9E9, 9E9, 9E9] ], v1000, fine, pen\WObj:=platform;
    MoveL [ [1.137, -6.494, -0.020], [0.150, 0.706, 0.692, 0.000], [0, 0, 0, 0], [ 9E9, 9E9, 9E9, 9E9, 9E9, 9E9] ], v30, fine, pen\WObj:=platform;
    MoveL [ [-9.245, 4.092, 47.731], [0.150, 0.706, 0.692, 0.000], [0, 0, 0, 0], [ 9E9, 9E9, 9E9, 9E9, 9E9, 9E9] ], v1000, fine, pen\WObj:=platform;
    
    !!1.1115140639245247, -6.687865304099454;
    MoveL [ [-7.419, -9.549, 49.164], [0.090, -0.317, 0.944, 0.000], [0, 0, 0, 0], [ 9E9, 9E9, 9E9, 9E9, 9E9, 9E9] ], v1000, fine, pen\WObj:=platform;
    MoveL [ [1.112, -6.688, -0.020], [0.090, -0.317, 0.944, 0.000], [0, 0, 0, 0], [ 9E9, 9E9, 9E9, 9E9, 9E9, 9E9] ], v30, fine, pen\WObj:=platform;
    MoveL [ [-7.419, -9.549, 49.164], [0.090, -0.317, 0.944, 0.000], [0, 0, 0, 0], [ 9E9, 9E9, 9E9, 9E9, 9E9, 9E9] ], v1000, fine, pen\WObj:=platform;
    
    !!1.053767411871813, -6.874316372259791;
    MoveL [ [-3.167, -9.609, 49.726], [0.050, -0.543, 0.838, 0.000], [0, 0, 0, 0], [ 9E9, 9E9, 9E9, 9E9, 9E9, 9E9] ], v1000, fine, pen\WObj:=platform;
    MoveL [ [1.054, -6.874, -0.020], [0.050, -0.543, 0.838, 0.000], [0, 0, 0, 0], [ 9E9, 9E9, 9E9, 9E9, 9E9, 9E9] ], v30, fine, pen\WObj:=platform;
    MoveL [ [-3.167, -9.609, 49.726], [0.050, -0.543, 0.838, 0.000], [0, 0, 0, 0], [ 9E9, 9E9, 9E9, 9E9, 9E9, 9E9] ], v1000, fine, pen\WObj:=platform;
    
    !!0.9652633932557906, -7.04828519831599;
    MoveL [ [-3.800, 0.788, 49.132], [0.092, 0.851, 0.517, 0.000], [0, 0, 0, 0], [ 9E9, 9E9, 9E9, 9E9, 9E9, 9E9] ], v1000, fine, pen\WObj:=platform;
    MoveL [ [0.965, -7.048, -0.020], [0.092, 0.851, 0.517, 0.000], [0, 0, 0, 0], [ 9E9, 9E9, 9E9, 9E9, 9E9, 9E9] ], v30, fine, pen\WObj:=platform;
    MoveL [ [-3.800, 0.788, 49.132], [0.092, 0.851, 0.517, 0.000], [0, 0, 0, 0], [ 9E9, 9E9, 9E9, 9E9, 9E9, 9E9] ], v1000, fine, pen\WObj:=platform;
    
    !!0.8486640631781784, -7.204816842493649;
    MoveL [ [-9.777, 3.260, 47.704], [0.151, 0.694, 0.704, 0.000], [0, 0, 0, 0], [ 9E9, 9E9, 9E9, 9E9, 9E9, 9E9] ], v1000, fine, pen\WObj:=platform;
    MoveL [ [0.849, -7.205, -0.020], [0.151, 0.694, 0.704, 0.000], [0, 0, 0, 0], [ 9E9, 9E9, 9E9, 9E9, 9E9, 9E9] ], v30, fine, pen\WObj:=platform;
    MoveL [ [-9.777, 3.260, 47.704], [0.151, 0.694, 0.704, 0.000], [0, 0, 0, 0], [ 9E9, 9E9, 9E9, 9E9, 9E9, 9E9] ], v1000, fine, pen\WObj:=platform;
    
    !!0.7074029817508164, -7.33951027322089;
    MoveL [ [-3.574, 5.657, 48.071], [0.138, 0.941, 0.310, 0.000], [0, 0, 0, 0], [ 9E9, 9E9, 9E9, 9E9, 9E9, 9E9] ], v1000, fine, pen\WObj:=platform;
    MoveL [ [0.707, -7.340, -0.020], [0.138, 0.941, 0.310, 0.000], [0, 0, 0, 0], [ 9E9, 9E9, 9E9, 9E9, 9E9, 9E9] ], v30, fine, pen\WObj:=platform;
    MoveL [ [-3.574, 5.657, 48.071], [0.138, 0.941, 0.310, 0.000], [0, 0, 0, 0], [ 9E9, 9E9, 9E9, 9E9, 9E9, 9E9] ], v1000, fine, pen\WObj:=platform;
    
    !!0.5455734605773269, -7.4486325974753935;
    MoveL [ [3.545, -6.055, 49.870], [0.033, 0.421, -0.906, 0.000], [0, 0, 0, 0], [ 9E9, 9E9, 9E9, 9E9, 9E9, 9E9] ], v1000, fine, pen\WObj:=platform;
    MoveL [ [0.546, -7.449, -0.020], [0.033, 0.421, -0.906, 0.000], [0, 0, 0, 0], [ 9E9, 9E9, 9E9, 9E9, 9E9, 9E9] ], v30, fine, pen\WObj:=platform;
    MoveL [ [3.545, -6.055, 49.870], [0.033, 0.421, -0.906, 0.000], [0, 0, 0, 0], [ 9E9, 9E9, 9E9, 9E9, 9E9, 9E9] ], v1000, fine, pen\WObj:=platform;
    
    !!0.3678011840563191, -7.529211524142041;
    MoveL [ [-5.065, -2.565, 49.435], [0.074, 0.673, 0.736, 0.000], [0, 0, 0, 0], [ 9E9, 9E9, 9E9, 9E9, 9E9, 9E9] ], v1000, fine, pen\WObj:=platform;
    MoveL [ [0.368, -7.529, -0.020], [0.074, 0.673, 0.736, 0.000], [0, 0, 0, 0], [ 9E9, 9E9, 9E9, 9E9, 9E9, 9E9] ], v30, fine, pen\WObj:=platform;
    MoveL [ [-5.065, -2.565, 49.435], [0.074, 0.673, 0.736, 0.000], [0, 0, 0, 0], [ 9E9, 9E9, 9E9, 9E9, 9E9, 9E9] ], v1000, fine, pen\WObj:=platform;
    
    !!0.17910528077243634, -7.5791042065645655;
    MoveL [ [-8.046, 7.636, 46.893], [0.176, 0.866, 0.468, 0.000], [0, 0, 0, 0], [ 9E9, 9E9, 9E9, 9E9, 9E9, 9E9] ], v1000, fine, pen\WObj:=platform;
    MoveL [ [0.179, -7.579, -0.020], [0.176, 0.866, 0.468, 0.000], [0, 0, 0, 0], [ 9E9, 9E9, 9E9, 9E9, 9E9, 9E9] ], v30, fine, pen\WObj:=platform;
    MoveL [ [-8.046, 7.636, 46.893], [0.176, 0.866, 0.468, 0.000], [0, 0, 0, 0], [ 9E9, 9E9, 9E9, 9E9, 9E9, 9E9] ], v1000, fine, pen\WObj:=platform;
    
    !!-0.015247924802470295, -7.59704133969869;
    MoveL [ [-1.654, -0.766, 49.484], [0.070, 0.970, 0.233, 0.000], [0, 0, 0, 0], [ 9E9, 9E9, 9E9, 9E9, 9E9, 9E9] ], v1000, fine, pen\WObj:=platform;
    MoveL [ [-0.015, -7.597, -0.020], [0.070, 0.970, 0.233, 0.000], [0, 0, 0, 0], [ 9E9, 9E9, 9E9, 9E9, 9E9, 9E9] ], v30, fine, pen\WObj:=platform;
    MoveL [ [-1.654, -0.766, 49.484], [0.070, 0.970, 0.233, 0.000], [0, 0, 0, 0], [ 9E9, 9E9, 9E9, 9E9, 9E9, 9E9] ], v1000, fine, pen\WObj:=platform;
    
    !!-0.2098942187791572, -7.58264611279272;
    MoveL [ [-10.083, -3.705, 48.842], [0.107, 0.363, 0.925, 0.000], [0, 0, 0, 0], [ 9E9, 9E9, 9E9, 9E9, 9E9, 9E9] ], v1000, fine, pen\WObj:=platform;
    MoveL [ [-0.210, -7.583, -0.020], [0.107, 0.363, 0.925, 0.000], [0, 0, 0, 0], [ 9E9, 9E9, 9E9, 9E9, 9E9, 9E9] ], v30, fine, pen\WObj:=platform;
    MoveL [ [-10.083, -3.705, 48.842], [0.107, 0.363, 0.925, 0.000], [0, 0, 0, 0], [ 9E9, 9E9, 9E9, 9E9, 9E9, 9E9] ], v1000, fine, pen\WObj:=platform;
    
    !!-0.39951968746351085, -7.5364283207337195;
    MoveL [ [-1.146, -2.243, 49.693], [0.054, 0.989, 0.139, 0.000], [0, 0, 0, 0], [ 9E9, 9E9, 9E9, 9E9, 9E9, 9E9] ], v1000, fine, pen\WObj:=platform;
    MoveL [ [-0.400, -7.536, -0.020], [0.054, 0.989, 0.139, 0.000], [0, 0, 0, 0], [ 9E9, 9E9, 9E9, 9E9, 9E9, 9E9] ], v30, fine, pen\WObj:=platform;
    MoveL [ [-1.146, -2.243, 49.693], [0.054, 0.989, 0.139, 0.000], [0, 0, 0, 0], [ 9E9, 9E9, 9E9, 9E9, 9E9, 9E9] ], v1000, fine, pen\WObj:=platform;
    
    !!-0.5790038106583616, -7.459754598334792;
    MoveL [ [-2.532, -7.182, 49.941], [0.020, 0.141, 0.990, 0.000], [0, 0, 0, 0], [ 9E9, 9E9, 9E9, 9E9, 9E9, 9E9] ], v1000, fine, pen\WObj:=platform;
    MoveL [ [-0.579, -7.460, -0.020], [0.020, 0.141, 0.990, 0.000], [0, 0, 0, 0], [ 9E9, 9E9, 9E9, 9E9, 9E9, 9E9] ], v30, fine, pen\WObj:=platform;
    MoveL [ [-2.532, -7.182, 49.941], [0.020, 0.141, 0.990, 0.000], [0, 0, 0, 0], [ 9E9, 9E9, 9E9, 9E9, 9E9, 9E9] ], v1000, fine, pen\WObj:=platform;
    
    !!-0.7435537727497941, -7.354796346316683;
    MoveL [ [-11.739, -6.496, 48.749], [0.111, 0.077, 0.991, 0.000], [0, 0, 0, 0], [ 9E9, 9E9, 9E9, 9E9, 9E9, 9E9] ], v1000, fine, pen\WObj:=platform;
    MoveL [ [-0.744, -7.355, -0.020], [0.111, 0.077, 0.991, 0.000], [0, 0, 0, 0], [ 9E9, 9E9, 9E9, 9E9, 9E9, 9E9] ], v30, fine, pen\WObj:=platform;
    MoveL [ [-11.739, -6.496, 48.749], [0.111, 0.077, 0.991, 0.000], [0, 0, 0, 0], [ 9E9, 9E9, 9E9, 9E9, 9E9, 9E9] ], v1000, fine, pen\WObj:=platform;
    
    !!-0.8888266841399648, -7.224457452424511;
    MoveL [ [-10.094, 0.237, 48.556], [0.119, 0.625, 0.771, 0.000], [0, 0, 0, 0], [ 9E9, 9E9, 9E9, 9E9, 9E9, 9E9] ], v1000, fine, pen\WObj:=platform;
    MoveL [ [-0.889, -7.224, -0.020], [0.119, 0.625, 0.771, 0.000], [0, 0, 0, 0], [ 9E9, 9E9, 9E9, 9E9, 9E9, 9E9] ], v30, fine, pen\WObj:=platform;
    MoveL [ [-10.094, 0.237, 48.556], [0.119, 0.625, 0.771, 0.000], [0, 0, 0, 0], [ 9E9, 9E9, 9E9, 9E9, 9E9, 9E9] ], v1000, fine, pen\WObj:=platform;
    
    !!-1.0110368544464094, -7.072284365524435;
    MoveL [ [-8.318, -1.614, 49.141], [0.092, 0.596, 0.798, 0.000], [0, 0, 0, 0], [ 9E9, 9E9, 9E9, 9E9, 9E9, 9E9] ], v1000, fine, pen\WObj:=platform;
    MoveL [ [-1.011, -7.072, -0.020], [0.092, 0.596, 0.798, 0.000], [0, 0, 0, 0], [ 9E9, 9E9, 9E9, 9E9, 9E9, 9E9] ], v30, fine, pen\WObj:=platform;
    MoveL [ [-8.318, -1.614, 49.141], [0.092, 0.596, 0.798, 0.000], [0, 0, 0, 0], [ 9E9, 9E9, 9E9, 9E9, 9E9, 9E9] ], v1000, fine, pen\WObj:=platform;
    
    !!-1.107045762620818, -6.902361446891209;
    MoveL [ [-9.528, 3.475, 48.161], [0.135, 0.769, 0.624, 0.000], [0, 0, 0, 0], [ 9E9, 9E9, 9E9, 9E9, 9E9, 9E9] ], v1000, fine, pen\WObj:=platform;
    MoveL [ [-1.107, -6.902, -0.020], [0.135, 0.769, 0.624, 0.000], [0, 0, 0, 0], [ 9E9, 9E9, 9E9, 9E9, 9E9, 9E9] ], v30, fine, pen\WObj:=platform;
    MoveL [ [-9.528, 3.475, 48.161], [0.135, 0.769, 0.624, 0.000], [0, 0, 0, 0], [ 9E9, 9E9, 9E9, 9E9, 9E9, 9E9] ], v1000, fine, pen\WObj:=platform;
    
    !!-1.1744329117130943, -6.719194796231552;
    MoveL [ [-12.275, -9.490, 48.653], [0.115, -0.241, 0.964, 0.000], [0, 0, 0, 0], [ 9E9, 9E9, 9E9, 9E9, 9E9, 9E9] ], v1000, fine, pen\WObj:=platform;
    MoveL [ [-1.174, -6.719, -0.020], [0.115, -0.241, 0.964, 0.000], [0, 0, 0, 0], [ 9E9, 9E9, 9E9, 9E9, 9E9, 9E9] ], v30, fine, pen\WObj:=platform;
    MoveL [ [-12.275, -9.490, 48.653], [0.115, -0.241, 0.964, 0.000], [0, 0, 0, 0], [ 9E9, 9E9, 9E9, 9E9, 9E9, 9E9] ], v1000, fine, pen\WObj:=platform;
    
    !!-1.2115463213159618, -6.527587928005804;
    MoveL [ [-6.759, -16.899, 48.577], [0.118, -0.876, 0.468, 0.000], [0, 0, 0, 0], [ 9E9, 9E9, 9E9, 9E9, 9E9, 9E9] ], v1000, fine, pen\WObj:=platform;
    MoveL [ [-1.212, -6.528, -0.020], [0.118, -0.876, 0.468, 0.000], [0, 0, 0, 0], [ 9E9, 9E9, 9E9, 9E9, 9E9, 9E9] ], v30, fine, pen\WObj:=platform;
    MoveL [ [-6.759, -16.899, 48.577], [0.118, -0.876, 0.468, 0.000], [0, 0, 0, 0], [ 9E9, 9E9, 9E9, 9E9, 9E9, 9E9] ], v1000, fine, pen\WObj:=platform;
    
    !!-1.2175319830197064, -6.332512756618446;
    MoveL [ [-5.447, -5.496, 49.794], [0.043, 0.194, 0.980, 0.000], [0, 0, 0, 0], [ 9E9, 9E9, 9E9, 9E9, 9E9, 9E9] ], v1000, fine, pen\WObj:=platform;
    MoveL [ [-1.218, -6.333, -0.020], [0.043, 0.194, 0.980, 0.000], [0, 0, 0, 0], [ 9E9, 9E9, 9E9, 9E9, 9E9, 9E9] ], v30, fine, pen\WObj:=platform;
    MoveL [ [-5.447, -5.496, 49.794], [0.043, 0.194, 0.980, 0.000], [0, 0, 0, 0], [ 9E9, 9E9, 9E9, 9E9, 9E9, 9E9] ], v1000, fine, pen\WObj:=platform;
    
    !!-1.192342168466629, -6.138979339770581;
    MoveL [ [-6.030, -6.071, 49.745], [0.048, 0.014, 0.999, 0.000], [0, 0, 0, 0], [ 9E9, 9E9, 9E9, 9E9, 9E9, 9E9] ], v1000, fine, pen\WObj:=platform;
    MoveL [ [-1.192, -6.139, -0.020], [0.048, 0.014, 0.999, 0.000], [0, 0, 0, 0], [ 9E9, 9E9, 9E9, 9E9, 9E9, 9E9] ], v30, fine, pen\WObj:=platform;
    MoveL [ [-6.030, -6.071, 49.745], [0.048, 0.014, 0.999, 0.000], [0, 0, 0, 0], [ 9E9, 9E9, 9E9, 9E9, 9E9, 9E9] ], v1000, fine, pen\WObj:=platform;
    
    !!-1.1367230218687783, -5.951907732619633;
    MoveL [ [-9.835, -4.795, 49.204], [0.088, 0.131, 0.987, 0.000], [0, 0, 0, 0], [ 9E9, 9E9, 9E9, 9E9, 9E9, 9E9] ], v1000, fine, pen\WObj:=platform;
    MoveL [ [-1.137, -5.952, -0.020], [0.088, 0.131, 0.987, 0.000], [0, 0, 0, 0], [ 9E9, 9E9, 9E9, 9E9, 9E9, 9E9] ], v30, fine, pen\WObj:=platform;
    MoveL [ [-9.835, -4.795, 49.204], [0.088, 0.131, 0.987, 0.000], [0, 0, 0, 0], [ 9E9, 9E9, 9E9, 9E9, 9E9, 9E9] ], v1000, fine, pen\WObj:=platform;
    
    !!-1.05218237654089, -5.7760051282170615;
    MoveL [ [-9.147, -12.110, 48.912], [0.103, -0.613, 0.783, 0.000], [0, 0, 0, 0], [ 9E9, 9E9, 9E9, 9E9, 9E9, 9E9] ], v1000, fine, pen\WObj:=platform;
    MoveL [ [-1.052, -5.776, -0.020], [0.103, -0.613, 0.783, 0.000], [0, 0, 0, 0], [ 9E9, 9E9, 9E9, 9E9, 9E9, 9E9] ], v30, fine, pen\WObj:=platform;
    MoveL [ [-9.147, -12.110, 48.912], [0.103, -0.613, 0.783, 0.000], [0, 0, 0, 0], [ 9E9, 9E9, 9E9, 9E9, 9E9, 9E9] ], v1000, fine, pen\WObj:=platform;
    
    !!-0.940939197086438, -5.615651210470501;
    MoveL [ [-5.515, -5.539, 49.770], [0.046, 0.017, 0.999, 0.000], [0, 0, 0, 0], [ 9E9, 9E9, 9E9, 9E9, 9E9, 9E9] ], v1000, fine, pen\WObj:=platform;
    MoveL [ [-0.941, -5.616, -0.020], [0.046, 0.017, 0.999, 0.000], [0, 0, 0, 0], [ 9E9, 9E9, 9E9, 9E9, 9E9, 9E9] ], v30, fine, pen\WObj:=platform;
    MoveL [ [-5.515, -5.539, 49.770], [0.046, 0.017, 0.999, 0.000], [0, 0, 0, 0], [ 9E9, 9E9, 9E9, 9E9, 9E9, 9E9] ], v1000, fine, pen\WObj:=platform;
    
    !!-0.8058564560993199, -5.474794334399396;
    MoveL [ [-7.397, -5.339, 49.543], [0.066, 0.021, 0.998, 0.000], [0, 0, 0, 0], [ 9E9, 9E9, 9E9, 9E9, 9E9, 9E9] ], v1000, fine, pen\WObj:=platform;
    MoveL [ [-0.806, -5.475, -0.020], [0.066, 0.021, 0.998, 0.000], [0, 0, 0, 0], [ 9E9, 9E9, 9E9, 9E9, 9E9, 9E9] ], v30, fine, pen\WObj:=platform;
    MoveL [ [-7.397, -5.339, 49.543], [0.066, 0.021, 0.998, 0.000], [0, 0, 0, 0], [ 9E9, 9E9, 9E9, 9E9, 9E9, 9E9] ], v1000, fine, pen\WObj:=platform;
    
    !!-0.6503595992253342, -5.356860785513675;
    MoveL [ [-7.626, 3.530, 48.687], [0.114, 0.782, 0.613, 0.000], [0, 0, 0, 0], [ 9E9, 9E9, 9E9, 9E9, 9E9, 9E9] ], v1000, fine, pen\WObj:=platform;
    MoveL [ [-0.650, -5.357, -0.020], [0.114, 0.782, 0.613, 0.000], [0, 0, 0, 0], [ 9E9, 9E9, 9E9, 9E9, 9E9, 9E9] ], v30, fine, pen\WObj:=platform;
    MoveL [ [-7.626, 3.530, 48.687], [0.114, 0.782, 0.613, 0.000], [0, 0, 0, 0], [ 9E9, 9E9, 9E9, 9E9, 9E9, 9E9] ], v1000, fine, pen\WObj:=platform;
    
    !!-0.47834302972716464, -5.264678967201456;
    MoveL [ [-5.416, 2.152, 49.180], [0.089, 0.829, 0.552, 0.000], [0, 0, 0, 0], [ 9E9, 9E9, 9E9, 9E9, 9E9, 9E9] ], v1000, fine, pen\WObj:=platform;
    MoveL [ [-0.478, -5.265, -0.020], [0.089, 0.829, 0.552, 0.000], [0, 0, 0, 0], [ 9E9, 9E9, 9E9, 9E9, 9E9, 9E9] ], v30, fine, pen\WObj:=platform;
    MoveL [ [-5.416, 2.152, 49.180], [0.089, 0.829, 0.552, 0.000], [0, 0, 0, 0], [ 9E9, 9E9, 9E9, 9E9, 9E9, 9E9] ], v1000, fine, pen\WObj:=platform;
    
    !!-0.29406724983036714, -5.20041993386727;
    MoveL [ [-9.172, -2.542, 49.114], [0.093, 0.286, 0.954, 0.000], [0, 0, 0, 0], [ 9E9, 9E9, 9E9, 9E9, 9E9, 9E9] ], v1000, fine, pen\WObj:=platform;
    MoveL [ [-0.294, -5.200, -0.020], [0.093, 0.286, 0.954, 0.000], [0, 0, 0, 0], [ 9E9, 9E9, 9E9, 9E9, 9E9, 9E9] ], v30, fine, pen\WObj:=platform;
    MoveL [ [-9.172, -2.542, 49.114], [0.093, 0.286, 0.954, 0.000], [0, 0, 0, 0], [ 9E9, 9E9, 9E9, 9E9, 9E9, 9E9] ], v1000, fine, pen\WObj:=platform;
    
    !!-0.10204942953256821, -5.165555240058254;
    MoveL [ [-4.783, -11.102, 49.405], [0.076, -0.783, 0.617, 0.000], [0, 0, 0, 0], [ 9E9, 9E9, 9E9, 9E9, 9E9, 9E9] ], v1000, fine, pen\WObj:=platform;
    MoveL [ [-0.102, -5.166, -0.020], [0.076, -0.783, 0.617, 0.000], [0, 0, 0, 0], [ 9E9, 9E9, 9E9, 9E9, 9E9, 9E9] ], v30, fine, pen\WObj:=platform;
    MoveL [ [-4.783, -11.102, 49.405], [0.076, -0.783, 0.617, 0.000], [0, 0, 0, 0], [ 9E9, 9E9, 9E9, 9E9, 9E9, 9E9] ], v1000, fine, pen\WObj:=platform;
    
    !!0.09304976548877364, -5.160832623542303;
    MoveL [ [-9.390, -8.218, 48.977], [0.100, -0.305, 0.947, 0.000], [0, 0, 0, 0], [ 9E9, 9E9, 9E9, 9E9, 9E9, 9E9] ], v1000, fine, pen\WObj:=platform;
    MoveL [ [0.093, -5.161, -0.020], [0.100, -0.305, 0.947, 0.000], [0, 0, 0, 0], [ 9E9, 9E9, 9E9, 9E9, 9E9, 9E9] ], v30, fine, pen\WObj:=platform;
    MoveL [ [-9.390, -8.218, 48.977], [0.100, -0.305, 0.947, 0.000], [0, 0, 0, 0], [ 9E9, 9E9, 9E9, 9E9, 9E9, 9E9] ], v1000, fine, pen\WObj:=platform;
    
    !!0.2865402647324133, -5.186269594336617;
    MoveL [ [-5.640, -14.786, 48.691], [0.114, -0.845, 0.522, 0.000], [0, 0, 0, 0], [ 9E9, 9E9, 9E9, 9E9, 9E9, 9E9] ], v1000, fine, pen\WObj:=platform;
    MoveL [ [0.287, -5.186, -0.020], [0.114, -0.845, 0.522, 0.000], [0, 0, 0, 0], [ 9E9, 9E9, 9E9, 9E9, 9E9, 9E9] ], v30, fine, pen\WObj:=platform;
    MoveL [ [-5.640, -14.786, 48.691], [0.114, -0.845, 0.522, 0.000], [0, 0, 0, 0], [ 9E9, 9E9, 9E9, 9E9, 9E9, 9E9] ], v1000, fine, pen\WObj:=platform;
    
    !!0.47381485673224927, -5.241164572357837;
    MoveL [ [2.367, -13.797, 49.206], [0.088, -0.973, -0.215, 0.000], [0, 0, 0, 0], [ 9E9, 9E9, 9E9, 9E9, 9E9, 9E9] ], v1000, fine, pen\WObj:=platform;
    MoveL [ [0.474, -5.241, -0.020], [0.088, -0.973, -0.215, 0.000], [0, 0, 0, 0], [ 9E9, 9E9, 9E9, 9E9, 9E9, 9E9] ], v30, fine, pen\WObj:=platform;
    MoveL [ [2.367, -13.797, 49.206], [0.088, -0.973, -0.215, 0.000], [0, 0, 0, 0], [ 9E9, 9E9, 9E9, 9E9, 9E9, 9E9] ], v1000, fine, pen\WObj:=platform;
    
    !!0.650457018448432, -5.324124813059896;
    MoveL [ [-7.224, -0.903, 49.158], [0.091, 0.488, 0.868, 0.000], [0, 0, 0, 0], [ 9E9, 9E9, 9E9, 9E9, 9E9, 9E9] ], v1000, fine, pen\WObj:=platform;
    MoveL [ [0.650, -5.324, -0.020], [0.091, 0.488, 0.868, 0.000], [0, 0, 0, 0], [ 9E9, 9E9, 9E9, 9E9, 9E9, 9E9] ], v30, fine, pen\WObj:=platform;
    MoveL [ [-7.224, -0.903, 49.158], [0.091, 0.488, 0.868, 0.000], [0, 0, 0, 0], [ 9E9, 9E9, 9E9, 9E9, 9E9, 9E9] ], v1000, fine, pen\WObj:=platform;
    
    !!0.812341896765771, -5.433109991415535;
    MoveL [ [-3.390, -19.938, 47.645], [0.153, -0.949, 0.275, 0.000], [0, 0, 0, 0], [ 9E9, 9E9, 9E9, 9E9, 9E9, 9E9] ], v1000, fine, pen\WObj:=platform;
    MoveL [ [0.812, -5.433, -0.020], [0.153, -0.949, 0.275, 0.000], [0, 0, 0, 0], [ 9E9, 9E9, 9E9, 9E9, 9E9, 9E9] ], v30, fine, pen\WObj:=platform;
    MoveL [ [-3.390, -19.938, 47.645], [0.153, -0.949, 0.275, 0.000], [0, 0, 0, 0], [ 9E9, 9E9, 9E9, 9E9, 9E9, 9E9] ], v1000, fine, pen\WObj:=platform;
    
    !!0.9557282713377944, -5.56548998691575;
    MoveL [ [-5.102, 0.219, 49.273], [0.084, 0.688, 0.721, 0.000], [0, 0, 0, 0], [ 9E9, 9E9, 9E9, 9E9, 9E9, 9E9] ], v1000, fine, pen\WObj:=platform;
    MoveL [ [0.956, -5.565, -0.020], [0.084, 0.688, 0.721, 0.000], [0, 0, 0, 0], [ 9E9, 9E9, 9E9, 9E9, 9E9, 9E9] ], v30, fine, pen\WObj:=platform;
    MoveL [ [-5.102, 0.219, 49.273], [0.084, 0.688, 0.721, 0.000], [0, 0, 0, 0], [ 9E9, 9E9, 9E9, 9E9, 9E9, 9E9] ], v1000, fine, pen\WObj:=platform;
    
    !!1.0773396114031353, -5.718115131611588;
    MoveL [ [-10.019, -5.963, 48.733], [0.112, -0.022, 0.994, 0.000], [0, 0, 0, 0], [ 9E9, 9E9, 9E9, 9E9, 9E9, 9E9] ], v1000, fine, pen\WObj:=platform;
    MoveL [ [1.077, -5.718, -0.020], [0.112, -0.022, 0.994, 0.000], [0, 0, 0, 0], [ 9E9, 9E9, 9E9, 9E9, 9E9, 9E9] ], v30, fine, pen\WObj:=platform;
    MoveL [ [-10.019, -5.963, 48.733], [0.112, -0.022, 0.994, 0.000], [0, 0, 0, 0], [ 9E9, 9E9, 9E9, 9E9, 9E9, 9E9] ], v1000, fine, pen\WObj:=platform;
    
    !!1.1744326548918798, -5.887396953924461;
    MoveL [ [-8.826, -12.182, 48.564], [0.119, -0.529, 0.840, 0.000], [0, 0, 0, 0], [ 9E9, 9E9, 9E9, 9E9, 9E9, 9E9] ], v1000, fine, pen\WObj:=platform;
    MoveL [ [1.174, -5.887, -0.020], [0.119, -0.529, 0.840, 0.000], [0, 0, 0, 0], [ 9E9, 9E9, 9E9, 9E9, 9E9, 9E9] ], v30, fine, pen\WObj:=platform;
    MoveL [ [-8.826, -12.182, 48.564], [0.119, -0.529, 0.840, 0.000], [0, 0, 0, 0], [ 9E9, 9E9, 9E9, 9E9, 9E9, 9E9] ], v1000, fine, pen\WObj:=platform;
    
    !!1.2448522774058208, -6.069397275920204;
    MoveL [ [-5.324, -9.502, 49.428], [0.074, -0.462, 0.884, 0.000], [0, 0, 0, 0], [ 9E9, 9E9, 9E9, 9E9, 9E9, 9E9] ], v1000, fine, pen\WObj:=platform;
    MoveL [ [1.245, -6.069, -0.020], [0.074, -0.462, 0.884, 0.000], [0, 0, 0, 0], [ 9E9, 9E9, 9E9, 9E9, 9E9, 9E9] ], v30, fine, pen\WObj:=platform;
    MoveL [ [-5.324, -9.502, 49.428], [0.074, -0.462, 0.884, 0.000], [0, 0, 0, 0], [ 9E9, 9E9, 9E9, 9E9, 9E9, 9E9] ], v1000, fine, pen\WObj:=platform;
    
    !!1.287071772683045, -6.259923402506563;
    MoveL [ [-1.256, -2.705, 49.789], [0.044, 0.813, 0.581, 0.000], [0, 0, 0, 0], [ 9E9, 9E9, 9E9, 9E9, 9E9, 9E9] ], v1000, fine, pen\WObj:=platform;
    MoveL [ [1.287, -6.260, -0.020], [0.044, 0.813, 0.581, 0.000], [0, 0, 0, 0], [ 9E9, 9E9, 9E9, 9E9, 9E9, 9E9] ], v30, fine, pen\WObj:=platform;
    MoveL [ [-1.256, -2.705, 49.789], [0.044, 0.813, 0.581, 0.000], [0, 0, 0, 0], [ 9E9, 9E9, 9E9, 9E9, 9E9, 9E9] ], v1000, fine, pen\WObj:=platform;
    
    !!1.3002180262445902, -6.4546270777560535;
    MoveL [ [-7.858, -11.735, 48.850], [0.106, -0.497, 0.861, 0.000], [0, 0, 0, 0], [ 9E9, 9E9, 9E9, 9E9, 9E9, 9E9] ], v1000, fine, pen\WObj:=platform;
    MoveL [ [1.300, -6.455, -0.020], [0.106, -0.497, 0.861, 0.000], [0, 0, 0, 0], [ 9E9, 9E9, 9E9, 9E9, 9E9, 9E9] ], v30, fine, pen\WObj:=platform;
    MoveL [ [-7.858, -11.735, 48.850], [0.106, -0.497, 0.861, 0.000], [0, 0, 0, 0], [ 9E9, 9E9, 9E9, 9E9, 9E9, 9E9] ], v1000, fine, pen\WObj:=platform;
    
    !!1.2840814216769552, -6.64910487518881;
    MoveL [ [-9.639, -8.436, 48.740], [0.111, -0.160, 0.981, 0.000], [0, 0, 0, 0], [ 9E9, 9E9, 9E9, 9E9, 9E9, 9E9] ], v1000, fine, pen\WObj:=platform;
    MoveL [ [1.284, -6.649, -0.020], [0.111, -0.160, 0.981, 0.000], [0, 0, 0, 0], [ 9E9, 9E9, 9E9, 9E9, 9E9, 9E9] ], v30, fine, pen\WObj:=platform;
    MoveL [ [-9.639, -8.436, 48.740], [0.111, -0.160, 0.981, 0.000], [0, 0, 0, 0], [ 9E9, 9E9, 9E9, 9E9, 9E9, 9E9] ], v1000, fine, pen\WObj:=platform;
    
    !!1.2391106665131133, -6.838997733108646;
    MoveL [ [-9.920, -5.177, 48.690], [0.114, 0.146, 0.983, 0.000], [0, 0, 0, 0], [ 9E9, 9E9, 9E9, 9E9, 9E9, 9E9] ], v1000, fine, pen\WObj:=platform;
    MoveL [ [1.239, -6.839, -0.020], [0.114, 0.146, 0.983, 0.000], [0, 0, 0, 0], [ 9E9, 9E9, 9E9, 9E9, 9E9, 9E9] ], v30, fine, pen\WObj:=platform;
    MoveL [ [-9.920, -5.177, 48.690], [0.114, 0.146, 0.983, 0.000], [0, 0, 0, 0], [ 9E9, 9E9, 9E9, 9E9, 9E9, 9E9] ], v1000, fine, pen\WObj:=platform;
    
    !!1.1663930546475756, -7.020087439648113;
    MoveL [ [-7.747, -9.032, 49.138], [0.092, -0.219, 0.971, 0.000], [0, 0, 0, 0], [ 9E9, 9E9, 9E9, 9E9, 9E9, 9E9] ], v1000, fine, pen\WObj:=platform;
    MoveL [ [1.166, -7.020, -0.020], [0.092, -0.219, 0.971, 0.000], [0, 0, 0, 0], [ 9E9, 9E9, 9E9, 9E9, 9E9, 9E9] ], v30, fine, pen\WObj:=platform;
    MoveL [ [-7.747, -9.032, 49.138], [0.092, -0.219, 0.971, 0.000], [0, 0, 0, 0], [ 9E9, 9E9, 9E9, 9E9, 9E9, 9E9] ], v1000, fine, pen\WObj:=platform;
    
    !!1.0676209881219834, -7.188388010796116;
    MoveL [ [-8.652, 5.658, 47.314], [0.163, 0.787, 0.595, 0.000], [0, 0, 0, 0], [ 9E9, 9E9, 9E9, 9E9, 9E9, 9E9] ], v1000, fine, pen\WObj:=platform;
    MoveL [ [1.068, -7.188, -0.020], [0.163, 0.787, 0.595, 0.000], [0, 0, 0, 0], [ 9E9, 9E9, 9E9, 9E9, 9E9, 9E9] ], v30, fine, pen\WObj:=platform;
    MoveL [ [-8.652, 5.658, 47.314], [0.163, 0.787, 0.595, 0.000], [0, 0, 0, 0], [ 9E9, 9E9, 9E9, 9E9, 9E9, 9E9] ], v1000, fine, pen\WObj:=platform;
    
    !!0.9450458572658954, -7.340230083325149;
    MoveL [ [-10.219, -2.002, 48.424], [0.125, 0.428, 0.895, 0.000], [0, 0, 0, 0], [ 9E9, 9E9, 9E9, 9E9, 9E9, 9E9] ], v1000, fine, pen\WObj:=platform;
    MoveL [ [0.945, -7.340, -0.020], [0.125, 0.428, 0.895, 0.000], [0, 0, 0, 0], [ 9E9, 9E9, 9E9, 9E9, 9E9, 9E9] ], v30, fine, pen\WObj:=platform;
    MoveL [ [-10.219, -2.002, 48.424], [0.125, 0.428, 0.895, 0.000], [0, 0, 0, 0], [ 9E9, 9E9, 9E9, 9E9, 9E9, 9E9] ], v1000, fine, pen\WObj:=platform;
    
    !!0.8014206198243345, -7.472336657547172;
    MoveL [ [-2.528, -21.491, 47.859], [0.146, -0.963, 0.229, 0.000], [0, 0, 0, 0], [ 9E9, 9E9, 9E9, 9E9, 9E9, 9E9] ], v1000, fine, pen\WObj:=platform;
    MoveL [ [0.801, -7.472, -0.020], [0.146, -0.963, 0.229, 0.000], [0, 0, 0, 0], [ 9E9, 9E9, 9E9, 9E9, 9E9, 9E9] ], v30, fine, pen\WObj:=platform;
    MoveL [ [-2.528, -21.491, 47.859], [0.146, -0.963, 0.229, 0.000], [0, 0, 0, 0], [ 9E9, 9E9, 9E9, 9E9, 9E9, 9E9] ], v1000, fine, pen\WObj:=platform;
    
    !!0.6399326230850123, -7.581888766080549;
    MoveL [ [-9.120, 5.192, 47.325], [0.163, 0.784, 0.599, 0.000], [0, 0, 0, 0], [ 9E9, 9E9, 9E9, 9E9, 9E9, 9E9] ], v1000, fine, pen\WObj:=platform;
    MoveL [ [0.640, -7.582, -0.020], [0.163, 0.784, 0.599, 0.000], [0, 0, 0, 0], [ 9E9, 9E9, 9E9, 9E9, 9E9, 9E9] ], v30, fine, pen\WObj:=platform;
    MoveL [ [-9.120, 5.192, 47.325], [0.163, 0.784, 0.599, 0.000], [0, 0, 0, 0], [ 9E9, 9E9, 9E9, 9E9, 9E9, 9E9] ], v1000, fine, pen\WObj:=platform;
    
    !!0.46412837538215396, -7.666579907865517;
    MoveL [ [0.218, 2.312, 48.974], [0.100, 0.995, 0.025, 0.000], [0, 0, 0, 0], [ 9E9, 9E9, 9E9, 9E9, 9E9, 9E9] ], v1000, fine, pen\WObj:=platform;
    MoveL [ [0.464, -7.667, -0.020], [0.100, 0.995, 0.025, 0.000], [0, 0, 0, 0], [ 9E9, 9E9, 9E9, 9E9, 9E9, 9E9] ], v30, fine, pen\WObj:=platform;
    MoveL [ [0.218, 2.312, 48.974], [0.100, 0.995, 0.025, 0.000], [0, 0, 0, 0], [ 9E9, 9E9, 9E9, 9E9, 9E9, 9E9] ], v1000, fine, pen\WObj:=platform;
    
    !!0.2778320929645003, -7.724658364927619;
    MoveL [ [-6.250, -7.249, 49.550], [0.066, 0.073, 0.995, 0.000], [0, 0, 0, 0], [ 9E9, 9E9, 9E9, 9E9, 9E9, 9E9] ], v1000, fine, pen\WObj:=platform;
    MoveL [ [0.278, -7.725, -0.020], [0.066, 0.073, 0.995, 0.000], [0, 0, 0, 0], [ 9E9, 9E9, 9E9, 9E9, 9E9, 9E9] ], v30, fine, pen\WObj:=platform;
    MoveL [ [-6.250, -7.249, 49.550], [0.066, 0.073, 0.995, 0.000], [0, 0, 0, 0], [ 9E9, 9E9, 9E9, 9E9, 9E9, 9E9] ], v1000, fine, pen\WObj:=platform;
    
    !!0.08505992433571294, -7.754956806254701;
    MoveL [ [-7.026, -6.008, 49.441], [0.073, 0.238, 0.969, 0.000], [0, 0, 0, 0], [ 9E9, 9E9, 9E9, 9E9, 9E9, 9E9] ], v1000, fine, pen\WObj:=platform;
    MoveL [ [0.085, -7.755, -0.020], [0.073, 0.238, 0.969, 0.000], [0, 0, 0, 0], [ 9E9, 9E9, 9E9, 9E9, 9E9, 9E9] ], v30, fine, pen\WObj:=platform;
    MoveL [ [-7.026, -6.008, 49.441], [0.073, 0.238, 0.969, 0.000], [0, 0, 0, 0], [ 9E9, 9E9, 9E9, 9E9, 9E9, 9E9] ], v1000, fine, pen\WObj:=platform;
    
    !!-0.11006821297050877, -7.756908872155327;
    MoveL [ [-1.157, 6.593, 47.865], [0.145, 0.987, 0.072, 0.000], [0, 0, 0, 0], [ 9E9, 9E9, 9E9, 9E9, 9E9, 9E9] ], v1000, fine, pen\WObj:=platform;
    MoveL [ [-0.110, -7.757, -0.020], [0.145, 0.987, 0.072, 0.000], [0, 0, 0, 0], [ 9E9, 9E9, 9E9, 9E9, 9E9, 9E9] ], v30, fine, pen\WObj:=platform;
    MoveL [ [-1.157, 6.593, 47.865], [0.145, 0.987, 0.072, 0.000], [0, 0, 0, 0], [ 9E9, 9E9, 9E9, 9E9, 9E9, 9E9] ], v1000, fine, pen\WObj:=platform;
    
    !!-0.3034172575024457, -7.730552717400778;
    MoveL [ [-10.321, -6.120, 48.940], [0.102, 0.158, 0.982, 0.000], [0, 0, 0, 0], [ 9E9, 9E9, 9E9, 9E9, 9E9, 9E9] ], v1000, fine, pen\WObj:=platform;
    MoveL [ [-0.303, -7.731, -0.020], [0.102, 0.158, 0.982, 0.000], [0, 0, 0, 0], [ 9E9, 9E9, 9E9, 9E9, 9E9, 9E9] ], v30, fine, pen\WObj:=platform;
    MoveL [ [-10.321, -6.120, 48.940], [0.102, 0.158, 0.982, 0.000], [0, 0, 0, 0], [ 9E9, 9E9, 9E9, 9E9, 9E9, 9E9] ], v1000, fine, pen\WObj:=platform;
    
    !!-0.4909242146722487, -7.676521766494507;
    MoveL [ [-6.636, -6.627, 49.590], [0.062, 0.168, 0.984, 0.000], [0, 0, 0, 0], [ 9E9, 9E9, 9E9, 9E9, 9E9, 9E9] ], v1000, fine, pen\WObj:=platform;
    MoveL [ [-0.491, -7.677, -0.020], [0.062, 0.168, 0.984, 0.000], [0, 0, 0, 0], [ 9E9, 9E9, 9E9, 9E9, 9E9, 9E9] ], v30, fine, pen\WObj:=platform;
    MoveL [ [-6.636, -6.627, 49.590], [0.062, 0.168, 0.984, 0.000], [0, 0, 0, 0], [ 9E9, 9E9, 9E9, 9E9, 9E9, 9E9] ], v1000, fine, pen\WObj:=platform;
    
    !!-0.6686821639189251, -7.596023194220414;
    MoveL [ [-5.762, -2.025, 49.407], [0.076, 0.736, 0.673, 0.000], [0, 0, 0, 0], [ 9E9, 9E9, 9E9, 9E9, 9E9, 9E9] ], v1000, fine, pen\WObj:=platform;
    MoveL [ [-0.669, -7.596, -0.020], [0.076, 0.736, 0.673, 0.000], [0, 0, 0, 0], [ 9E9, 9E9, 9E9, 9E9, 9E9, 9E9] ], v30, fine, pen\WObj:=platform;
    MoveL [ [-5.762, -2.025, 49.407], [0.076, 0.736, 0.673, 0.000], [0, 0, 0, 0], [ 9E9, 9E9, 9E9, 9E9, 9E9, 9E9] ], v1000, fine, pen\WObj:=platform;
    
    !!-0.8330193939986721, -7.490804884420146;
    MoveL [ [-9.286, -8.427, 49.251], [0.085, -0.110, 0.990, 0.000], [0, 0, 0, 0], [ 9E9, 9E9, 9E9, 9E9, 9E9, 9E9] ], v1000, fine, pen\WObj:=platform;
    MoveL [ [-0.833, -7.491, -0.020], [0.085, -0.110, 0.990, 0.000], [0, 0, 0, 0], [ 9E9, 9E9, 9E9, 9E9, 9E9, 9E9] ], v30, fine, pen\WObj:=platform;
    MoveL [ [-9.286, -8.427, 49.251], [0.085, -0.110, 0.990, 0.000], [0, 0, 0, 0], [ 9E9, 9E9, 9E9, 9E9, 9E9, 9E9] ], v1000, fine, pen\WObj:=platform;
    
    !!-0.9805721493793808, -7.363111835602759;
    MoveL [ [-10.102, -5.169, 49.092], [0.094, 0.233, 0.968, 0.000], [0, 0, 0, 0], [ 9E9, 9E9, 9E9, 9E9, 9E9, 9E9] ], v1000, fine, pen\WObj:=platform;
    MoveL [ [-0.981, -7.363, -0.020], [0.094, 0.233, 0.968, 0.000], [0, 0, 0, 0], [ 9E9, 9E9, 9E9, 9E9, 9E9, 9E9] ], v30, fine, pen\WObj:=platform;
    MoveL [ [-10.102, -5.169, 49.092], [0.094, 0.233, 0.968, 0.000], [0, 0, 0, 0], [ 9E9, 9E9, 9E9, 9E9, 9E9, 9E9] ], v1000, fine, pen\WObj:=platform;
    
    !!-1.1083496477931032, -7.215633170049431;
    MoveL [ [-10.297, -2.734, 48.924], [0.103, 0.436, 0.894, 0.000], [0, 0, 0, 0], [ 9E9, 9E9, 9E9, 9E9, 9E9, 9E9] ], v1000, fine, pen\WObj:=platform;
    MoveL [ [-1.108, -7.216, -0.020], [0.103, 0.436, 0.894, 0.000], [0, 0, 0, 0], [ 9E9, 9E9, 9E9, 9E9, 9E9, 9E9] ], v30, fine, pen\WObj:=platform;
    MoveL [ [-10.297, -2.734, 48.924], [0.103, 0.436, 0.894, 0.000], [0, 0, 0, 0], [ 9E9, 9E9, 9E9, 9E9, 9E9, 9E9] ], v1000, fine, pen\WObj:=platform;
    
    !!-1.2137902272455139, -7.051441060817373;
    MoveL [ [2.370, -6.448, 49.848], [0.036, 0.166, -0.985, 0.000], [0, 0, 0, 0], [ 9E9, 9E9, 9E9, 9E9, 9E9, 9E9] ], v1000, fine, pen\WObj:=platform;
    MoveL [ [-1.214, -7.051, -0.020], [0.036, 0.166, -0.985, 0.000], [0, 0, 0, 0], [ 9E9, 9E9, 9E9, 9E9, 9E9, 9E9] ], v30, fine, pen\WObj:=platform;
    MoveL [ [2.370, -6.448, 49.848], [0.036, 0.166, -0.985, 0.000], [0, 0, 0, 0], [ 9E9, 9E9, 9E9, 9E9, 9E9, 9E9] ], v1000, fine, pen\WObj:=platform;
    
    !!-1.2948076953008993, -6.873923016489086;
    MoveL [ [-6.456, 1.959, 48.922], [0.103, 0.859, 0.502, 0.000], [0, 0, 0, 0], [ 9E9, 9E9, 9E9, 9E9, 9E9, 9E9] ], v1000, fine, pen\WObj:=platform;
    MoveL [ [-1.295, -6.874, -0.020], [0.103, 0.859, 0.502, 0.000], [0, 0, 0, 0], [ 9E9, 9E9, 9E9, 9E9, 9E9, 9E9] ], v30, fine, pen\WObj:=platform;
    MoveL [ [-6.456, 1.959, 48.922], [0.103, 0.859, 0.502, 0.000], [0, 0, 0, 0], [ 9E9, 9E9, 9E9, 9E9, 9E9, 9E9] ], v1000, fine, pen\WObj:=platform;
    
    !!-1.3498271792555891, -6.68670905541855;
    MoveL [ [-7.500, 4.190, 48.394], [0.126, 0.864, 0.488, 0.000], [0, 0, 0, 0], [ 9E9, 9E9, 9E9, 9E9, 9E9, 9E9] ], v1000, fine, pen\WObj:=platform;
    MoveL [ [-1.350, -6.687, -0.020], [0.126, 0.864, 0.488, 0.000], [0, 0, 0, 0], [ 9E9, 9E9, 9E9, 9E9, 9E9, 9E9] ], v30, fine, pen\WObj:=platform;
    MoveL [ [-7.500, 4.190, 48.394], [0.126, 0.864, 0.488, 0.000], [0, 0, 0, 0], [ 9E9, 9E9, 9E9, 9E9, 9E9, 9E9] ], v1000, fine, pen\WObj:=platform;
    
    !!-1.3778100078826019, -6.493595359088874;
    MoveL [ [-11.188, -6.767, 49.007], [0.099, -0.028, 0.995, 0.000], [0, 0, 0, 0], [ 9E9, 9E9, 9E9, 9E9, 9E9, 9E9] ], v1000, fine, pen\WObj:=platform;
    MoveL [ [-1.378, -6.494, -0.020], [0.099, -0.028, 0.995, 0.000], [0, 0, 0, 0], [ 9E9, 9E9, 9E9, 9E9, 9E9, 9E9] ], v30, fine, pen\WObj:=platform;
    MoveL [ [-11.188, -6.767, 49.007], [0.099, -0.028, 0.995, 0.000], [0, 0, 0, 0], [ 9E9, 9E9, 9E9, 9E9, 9E9, 9E9] ], v1000, fine, pen\WObj:=platform;
    
    !!-1.3782673888764385, -6.298466018216113;
    MoveL [ [-10.756, -2.387, 48.937], [0.102, 0.383, 0.918, 0.000], [0, 0, 0, 0], [ 9E9, 9E9, 9E9, 9E9, 9E9, 9E9] ], v1000, fine, pen\WObj:=platform;
    MoveL [ [-1.378, -6.298, -0.020], [0.102, 0.383, 0.918, 0.000], [0, 0, 0, 0], [ 9E9, 9E9, 9E9, 9E9, 9E9, 9E9] ], v30, fine, pen\WObj:=platform;
    MoveL [ [-10.756, -2.387, 48.937], [0.102, 0.383, 0.918, 0.000], [0, 0, 0, 0], [ 9E9, 9E9, 9E9, 9E9, 9E9, 9E9] ], v1000, fine, pen\WObj:=platform;
    
    !!-1.3512628762435055, -6.1052144762755365;
    MoveL [ [-7.075, 1.604, 49.049], [0.096, 0.799, 0.593, 0.000], [0, 0, 0, 0], [ 9E9, 9E9, 9E9, 9E9, 9E9, 9E9] ], v1000, fine, pen\WObj:=platform;
    MoveL [ [-1.351, -6.105, -0.020], [0.096, 0.799, 0.593, 0.000], [0, 0, 0, 0], [ 9E9, 9E9, 9E9, 9E9, 9E9, 9E9] ], v30, fine, pen\WObj:=platform;
    MoveL [ [-7.075, 1.604, 49.049], [0.096, 0.799, 0.593, 0.000], [0, 0, 0, 0], [ 9E9, 9E9, 9E9, 9E9, 9E9, 9E9] ], v1000, fine, pen\WObj:=platform;
    
    !!-1.297403844240974, -5.917666234669275;
    MoveL [ [-3.377, -3.704, 49.888], [0.030, 0.728, 0.684, 0.000], [0, 0, 0, 0], [ 9E9, 9E9, 9E9, 9E9, 9E9, 9E9] ], v1000, fine, pen\WObj:=platform;
    MoveL [ [-1.297, -5.918, -0.020], [0.030, 0.728, 0.684, 0.000], [0, 0, 0, 0], [ 9E9, 9E9, 9E9, 9E9, 9E9, 9E9] ], v30, fine, pen\WObj:=platform;
    MoveL [ [-3.377, -3.704, 49.888], [0.030, 0.728, 0.684, 0.000], [0, 0, 0, 0], [ 9E9, 9E9, 9E9, 9E9, 9E9, 9E9] ], v1000, fine, pen\WObj:=platform;
    
    !!-1.2178223949856353, -5.739504313832634;
    MoveL [ [-3.861, -8.138, 49.852], [0.036, -0.672, 0.740, 0.000], [0, 0, 0, 0], [ 9E9, 9E9, 9E9, 9E9, 9E9, 9E9] ], v1000, fine, pen\WObj:=platform;
    MoveL [ [-1.218, -5.740, -0.020], [0.036, -0.672, 0.740, 0.000], [0, 0, 0, 0], [ 9E9, 9E9, 9E9, 9E9, 9E9, 9E9] ], v30, fine, pen\WObj:=platform;
    MoveL [ [-3.861, -8.138, 49.852], [0.036, -0.672, 0.740, 0.000], [0, 0, 0, 0], [ 9E9, 9E9, 9E9, 9E9, 9E9, 9E9] ], v1000, fine, pen\WObj:=platform;
    
    !!-1.1141463218678915, -5.5741988677129575;
    MoveL [ [-4.320, -10.416, 49.642], [0.058, -0.832, 0.551, 0.000], [0, 0, 0, 0], [ 9E9, 9E9, 9E9, 9E9, 9E9, 9E9] ], v1000, fine, pen\WObj:=platform;
    MoveL [ [-1.114, -5.574, -0.020], [0.058, -0.832, 0.551, 0.000], [0, 0, 0, 0], [ 9E9, 9E9, 9E9, 9E9, 9E9, 9E9] ], v30, fine, pen\WObj:=platform;
    MoveL [ [-4.320, -10.416, 49.642], [0.058, -0.832, 0.551, 0.000], [0, 0, 0, 0], [ 9E9, 9E9, 9E9, 9E9, 9E9, 9E9] ], v1000, fine, pen\WObj:=platform;
    
    !!-0.988460927211991, -5.424942228186975;
    MoveL [ [-2.922, 3.393, 49.158], [0.091, 0.973, 0.213, 0.000], [0, 0, 0, 0], [ 9E9, 9E9, 9E9, 9E9, 9E9, 9E9] ], v1000, fine, pen\WObj:=platform;
    MoveL [ [-0.988, -5.425, -0.020], [0.091, 0.973, 0.213, 0.000], [0, 0, 0, 0], [ 9E9, 9E9, 9E9, 9E9, 9E9, 9E9] ], v30, fine, pen\WObj:=platform;
    MoveL [ [-2.922, 3.393, 49.158], [0.091, 0.973, 0.213, 0.000], [0, 0, 0, 0], [ 9E9, 9E9, 9E9, 9E9, 9E9, 9E9] ], v1000, fine, pen\WObj:=platform;
    
    !!-0.8432626475227276, -5.294590514384026;
    MoveL [ [-8.790, -17.819, 47.729], [0.150, -0.835, 0.530, 0.000], [0, 0, 0, 0], [ 9E9, 9E9, 9E9, 9E9, 9E9, 9E9] ], v1000, fine, pen\WObj:=platform;
    MoveL [ [-0.843, -5.295, -0.020], [0.150, -0.835, 0.530, 0.000], [0, 0, 0, 0], [ 9E9, 9E9, 9E9, 9E9, 9E9, 9E9] ], v30, fine, pen\WObj:=platform;
    MoveL [ [-8.790, -17.819, 47.729], [0.150, -0.835, 0.530, 0.000], [0, 0, 0, 0], [ 9E9, 9E9, 9E9, 9E9, 9E9, 9E9] ], v1000, fine, pen\WObj:=platform;
    
    !!-0.681405570983315, -5.185612783085855;
    MoveL [ [-1.658, -9.280, 49.803], [0.042, -0.972, 0.232, 0.000], [0, 0, 0, 0], [ 9E9, 9E9, 9E9, 9E9, 9E9, 9E9] ], v1000, fine, pen\WObj:=platform;
    MoveL [ [-0.681, -5.186, -0.020], [0.042, -0.972, 0.232, 0.000], [0, 0, 0, 0], [ 9E9, 9E9, 9E9, 9E9, 9E9, 9E9] ], v30, fine, pen\WObj:=platform;
    MoveL [ [-1.658, -9.280, 49.803], [0.042, -0.972, 0.232, 0.000], [0, 0, 0, 0], [ 9E9, 9E9, 9E9, 9E9, 9E9, 9E9] ], v1000, fine, pen\WObj:=platform;
    
    !!-0.506042037997805, -5.100048524087669;
    MoveL [ [-8.334, -12.538, 48.800], [0.109, -0.685, 0.721, 0.000], [0, 0, 0, 0], [ 9E9, 9E9, 9E9, 9E9, 9E9, 9E9] ], v1000, fine, pen\WObj:=platform;
    MoveL [ [-0.506, -5.100, -0.020], [0.109, -0.685, 0.721, 0.000], [0, 0, 0, 0], [ 9E9, 9E9, 9E9, 9E9, 9E9, 9E9] ], v30, fine, pen\WObj:=platform;
    MoveL [ [-8.334, -12.538, 48.800], [0.109, -0.685, 0.721, 0.000], [0, 0, 0, 0], [ 9E9, 9E9, 9E9, 9E9, 9E9, 9E9] ], v1000, fine, pen\WObj:=platform;
    
    !!-0.32055859543488974, -5.039474122436874;
    MoveL [ [-6.083, -14.015, 48.829], [0.107, -0.837, 0.537, 0.000], [0, 0, 0, 0], [ 9E9, 9E9, 9E9, 9E9, 9E9, 9E9] ], v1000, fine, pen\WObj:=platform;
    MoveL [ [-0.321, -5.039, -0.020], [0.107, -0.837, 0.537, 0.000], [0, 0, 0, 0], [ 9E9, 9E9, 9E9, 9E9, 9E9, 9E9] ], v30, fine, pen\WObj:=platform;
    MoveL [ [-6.083, -14.015, 48.829], [0.107, -0.837, 0.537, 0.000], [0, 0, 0, 0], [ 9E9, 9E9, 9E9, 9E9, 9E9, 9E9] ], v1000, fine, pen\WObj:=platform;
    
    !!-0.12850862830433335, -5.004978721643213;
    MoveL [ [-7.128, -1.995, 49.396], [0.076, 0.394, 0.916, 0.000], [0, 0, 0, 0], [ 9E9, 9E9, 9E9, 9E9, 9E9, 9E9] ], v1000, fine, pen\WObj:=platform;
    MoveL [ [-0.129, -5.005, -0.020], [0.076, 0.394, 0.916, 0.000], [0, 0, 0, 0], [ 9E9, 9E9, 9E9, 9E9, 9E9, 9E9] ], v30, fine, pen\WObj:=platform;
    MoveL [ [-7.128, -1.995, 49.396], [0.076, 0.394, 0.916, 0.000], [0, 0, 0, 0], [ 9E9, 9E9, 9E9, 9E9, 9E9, 9E9] ], v1000, fine, pen\WObj:=platform;
    
    !!0.06645698111238844, -4.997149732051637;
    MoveL [ [-7.589, -2.476, 49.326], [0.081, 0.312, 0.947, 0.000], [0, 0, 0, 0], [ 9E9, 9E9, 9E9, 9E9, 9E9, 9E9] ], v1000, fine, pen\WObj:=platform;
    MoveL [ [0.066, -4.997, -0.020], [0.081, 0.312, 0.947, 0.000], [0, 0, 0, 0], [ 9E9, 9E9, 9E9, 9E9, 9E9, 9E9] ], v30, fine, pen\WObj:=platform;
    MoveL [ [-7.589, -2.476, 49.326], [0.081, 0.312, 0.947, 0.000], [0, 0, 0, 0], [ 9E9, 9E9, 9E9, 9E9, 9E9, 9E9] ], v1000, fine, pen\WObj:=platform;
    
    !!0.2606598166394098, -5.016068040241065;
    MoveL [ [0.255, -10.090, 49.722], [0.051, -0.999, 0.001, 0.000], [0, 0, 0, 0], [ 9E9, 9E9, 9E9, 9E9, 9E9, 9E9] ], v1000, fine, pen\WObj:=platform;
    MoveL [ [0.261, -5.016, -0.020], [0.051, -0.999, 0.001, 0.000], [0, 0, 0, 0], [ 9E9, 9E9, 9E9, 9E9, 9E9, 9E9] ], v30, fine, pen\WObj:=platform;
    MoveL [ [0.255, -10.090, 49.722], [0.051, -0.999, 0.001, 0.000], [0, 0, 0, 0], [ 9E9, 9E9, 9E9, 9E9, 9E9, 9E9] ], v1000, fine, pen\WObj:=platform;
    
    !!0.45046318933230844, -5.061312792027694;
    MoveL [ [-10.135, -8.859, 48.699], [0.113, -0.336, 0.935, 0.000], [0, 0, 0, 0], [ 9E9, 9E9, 9E9, 9E9, 9E9, 9E9] ], v1000, fine, pen\WObj:=platform;
    MoveL [ [0.450, -5.061, -0.020], [0.113, -0.336, 0.935, 0.000], [0, 0, 0, 0], [ 9E9, 9E9, 9E9, 9E9, 9E9, 9E9] ], v30, fine, pen\WObj:=platform;
