MODULE MainModule
  PERS wobjdata platform := [ FALSE, TRUE, "", [ [800, 0, 600], [1, 0, 0 ,0] ], [ [0, 0, 0], [1, 0, 0 ,0] ] ];
  PERS tooldata pen := [ TRUE, [[0, 0, 100], [1, 0, 0 ,0]], [0.8,[0, 0, 30], [1, 0, 0, 0], 0, 0, 0]];
  PROC main()
    ConfL\Off;
    ConfJ\Off;
    SingArea\Wrist;
    !!-4.55, 0.04159999999999997;
    MoveL [ [5.073, 5.151, 48.789], [0.110, 0.466, -0.878, 0.000], [0, 0, 0, 0], [ 9E9, 9E9, 9E9, 9E9, 9E9, 9E9] ], v1000, fine, pen\WObj:=platform;
    MoveL [ [-4.550, 0.042, -0.010], [0.110, 0.466, -0.878, 0.000], [0, 0, 0, 0], [ 9E9, 9E9, 9E9, 9E9, 9E9, 9E9] ], v30, fine, pen\WObj:=platform;
    MoveL [ [5.073, 5.151, 48.789], [0.110, 0.466, -0.878, 0.000], [0, 0, 0, 0], [ 9E9, 9E9, 9E9, 9E9, 9E9, 9E9] ], v1000, fine, pen\WObj:=platform;
    
    !!-4.432913365408345, 0.04159999999999997;
    MoveL [ [5.097, 5.182, 48.804], [0.109, 0.472, -0.875, 0.000], [0, 0, 0, 0], [ 9E9, 9E9, 9E9, 9E9, 9E9, 9E9] ], v1000, fine, pen\WObj:=platform;
    MoveL [ [-4.433, 0.042, -0.010], [0.109, 0.472, -0.875, 0.000], [0, 0, 0, 0], [ 9E9, 9E9, 9E9, 9E9, 9E9, 9E9] ], v30, fine, pen\WObj:=platform;
    MoveL [ [5.097, 5.182, 48.804], [0.109, 0.472, -0.875, 0.000], [0, 0, 0, 0], [ 9E9, 9E9, 9E9, 9E9, 9E9, 9E9] ], v1000, fine, pen\WObj:=platform;
    
    !!-4.3158267308166876, 0.04159999999999997;
    MoveL [ [5.120, 5.213, 48.818], [0.108, 0.478, -0.872, 0.000], [0, 0, 0, 0], [ 9E9, 9E9, 9E9, 9E9, 9E9, 9E9] ], v1000, fine, pen\WObj:=platform;
    MoveL [ [-4.316, 0.042, -0.010], [0.108, 0.478, -0.872, 0.000], [0, 0, 0, 0], [ 9E9, 9E9, 9E9, 9E9, 9E9, 9E9] ], v30, fine, pen\WObj:=platform;
    MoveL [ [5.120, 5.213, 48.818], [0.108, 0.478, -0.872, 0.000], [0, 0, 0, 0], [ 9E9, 9E9, 9E9, 9E9, 9E9, 9E9] ], v1000, fine, pen\WObj:=platform;
    
    !!-4.198740096225031, 0.04159999999999997;
    MoveL [ [5.144, 5.245, 48.833], [0.108, 0.484, -0.869, 0.000], [0, 0, 0, 0], [ 9E9, 9E9, 9E9, 9E9, 9E9, 9E9] ], v1000, fine, pen\WObj:=platform;
    MoveL [ [-4.199, 0.042, -0.010], [0.108, 0.484, -0.869, 0.000], [0, 0, 0, 0], [ 9E9, 9E9, 9E9, 9E9, 9E9, 9E9] ], v30, fine, pen\WObj:=platform;
    MoveL [ [5.144, 5.245, 48.833], [0.108, 0.484, -0.869, 0.000], [0, 0, 0, 0], [ 9E9, 9E9, 9E9, 9E9, 9E9, 9E9] ], v1000, fine, pen\WObj:=platform;
    
    !!-4.081653461633375, 0.04159999999999997;
    MoveL [ [5.168, 5.277, 48.847], [0.107, 0.490, -0.865, 0.000], [0, 0, 0, 0], [ 9E9, 9E9, 9E9, 9E9, 9E9, 9E9] ], v1000, fine, pen\WObj:=platform;
    MoveL [ [-4.082, 0.042, -0.010], [0.107, 0.490, -0.865, 0.000], [0, 0, 0, 0], [ 9E9, 9E9, 9E9, 9E9, 9E9, 9E9] ], v30, fine, pen\WObj:=platform;
    MoveL [ [5.168, 5.277, 48.847], [0.107, 0.490, -0.865, 0.000], [0, 0, 0, 0], [ 9E9, 9E9, 9E9, 9E9, 9E9, 9E9] ], v1000, fine, pen\WObj:=platform;
    
    !!-3.96456682704172, 0.04159999999999997;
    MoveL [ [5.192, 5.308, 48.861], [0.106, 0.496, -0.862, 0.000], [0, 0, 0, 0], [ 9E9, 9E9, 9E9, 9E9, 9E9, 9E9] ], v1000, fine, pen\WObj:=platform;
    MoveL [ [-3.965, 0.042, -0.010], [0.106, 0.496, -0.862, 0.000], [0, 0, 0, 0], [ 9E9, 9E9, 9E9, 9E9, 9E9, 9E9] ], v30, fine, pen\WObj:=platform;
    MoveL [ [5.192, 5.308, 48.861], [0.106, 0.496, -0.862, 0.000], [0, 0, 0, 0], [ 9E9, 9E9, 9E9, 9E9, 9E9, 9E9] ], v1000, fine, pen\WObj:=platform;
    
    !!-3.8474801924500635, 0.04159999999999997;
    MoveL [ [5.216, 5.340, 48.875], [0.106, 0.502, -0.858, 0.000], [0, 0, 0, 0], [ 9E9, 9E9, 9E9, 9E9, 9E9, 9E9] ], v1000, fine, pen\WObj:=platform;
    MoveL [ [-3.847, 0.042, -0.010], [0.106, 0.502, -0.858, 0.000], [0, 0, 0, 0], [ 9E9, 9E9, 9E9, 9E9, 9E9, 9E9] ], v30, fine, pen\WObj:=platform;
    MoveL [ [5.216, 5.340, 48.875], [0.106, 0.502, -0.858, 0.000], [0, 0, 0, 0], [ 9E9, 9E9, 9E9, 9E9, 9E9, 9E9] ], v1000, fine, pen\WObj:=platform;
    
    !!-3.7303935578584073, 0.04159999999999997;
    MoveL [ [5.239, 5.372, 48.889], [0.105, 0.508, -0.855, 0.000], [0, 0, 0, 0], [ 9E9, 9E9, 9E9, 9E9, 9E9, 9E9] ], v1000, fine, pen\WObj:=platform;
    MoveL [ [-3.730, 0.042, -0.010], [0.105, 0.508, -0.855, 0.000], [0, 0, 0, 0], [ 9E9, 9E9, 9E9, 9E9, 9E9, 9E9] ], v30, fine, pen\WObj:=platform;
    MoveL [ [5.239, 5.372, 48.889], [0.105, 0.508, -0.855, 0.000], [0, 0, 0, 0], [ 9E9, 9E9, 9E9, 9E9, 9E9, 9E9] ], v1000, fine, pen\WObj:=platform;
    
    !!-3.6133069232667516, 0.04159999999999997;
    MoveL [ [5.263, 5.404, 48.903], [0.104, 0.514, -0.851, 0.000], [0, 0, 0, 0], [ 9E9, 9E9, 9E9, 9E9, 9E9, 9E9] ], v1000, fine, pen\WObj:=platform;
    MoveL [ [-3.613, 0.042, -0.010], [0.104, 0.514, -0.851, 0.000], [0, 0, 0, 0], [ 9E9, 9E9, 9E9, 9E9, 9E9, 9E9] ], v30, fine, pen\WObj:=platform;
    MoveL [ [5.263, 5.404, 48.903], [0.104, 0.514, -0.851, 0.000], [0, 0, 0, 0], [ 9E9, 9E9, 9E9, 9E9, 9E9, 9E9] ], v1000, fine, pen\WObj:=platform;
    
    !!-3.4962202886750955, 0.04159999999999997;
    MoveL [ [5.287, 5.436, 48.916], [0.104, 0.521, -0.848, 0.000], [0, 0, 0, 0], [ 9E9, 9E9, 9E9, 9E9, 9E9, 9E9] ], v1000, fine, pen\WObj:=platform;
    MoveL [ [-3.496, 0.042, -0.010], [0.104, 0.521, -0.848, 0.000], [0, 0, 0, 0], [ 9E9, 9E9, 9E9, 9E9, 9E9, 9E9] ], v30, fine, pen\WObj:=platform;
    MoveL [ [5.287, 5.436, 48.916], [0.104, 0.521, -0.848, 0.000], [0, 0, 0, 0], [ 9E9, 9E9, 9E9, 9E9, 9E9, 9E9] ], v1000, fine, pen\WObj:=platform;
    
    !!-3.379133654083439, 0.04159999999999997;
    MoveL [ [5.311, 5.468, 48.929], [0.103, 0.527, -0.844, 0.000], [0, 0, 0, 0], [ 9E9, 9E9, 9E9, 9E9, 9E9, 9E9] ], v1000, fine, pen\WObj:=platform;
    MoveL [ [-3.379, 0.042, -0.010], [0.103, 0.527, -0.844, 0.000], [0, 0, 0, 0], [ 9E9, 9E9, 9E9, 9E9, 9E9, 9E9] ], v30, fine, pen\WObj:=platform;
    MoveL [ [5.311, 5.468, 48.929], [0.103, 0.527, -0.844, 0.000], [0, 0, 0, 0], [ 9E9, 9E9, 9E9, 9E9, 9E9, 9E9] ], v1000, fine, pen\WObj:=platform;
    
    !!-3.2620470194917828, 0.04159999999999997;
    MoveL [ [5.334, 5.500, 48.942], [0.102, 0.533, -0.840, 0.000], [0, 0, 0, 0], [ 9E9, 9E9, 9E9, 9E9, 9E9, 9E9] ], v1000, fine, pen\WObj:=platform;
    MoveL [ [-3.262, 0.042, -0.010], [0.102, 0.533, -0.840, 0.000], [0, 0, 0, 0], [ 9E9, 9E9, 9E9, 9E9, 9E9, 9E9] ], v30, fine, pen\WObj:=platform;
    MoveL [ [5.334, 5.500, 48.942], [0.102, 0.533, -0.840, 0.000], [0, 0, 0, 0], [ 9E9, 9E9, 9E9, 9E9, 9E9, 9E9] ], v1000, fine, pen\WObj:=platform;
    
    !!-3.144960384900127, 0.04159999999999997;
    MoveL [ [5.358, 5.532, 48.955], [0.102, 0.540, -0.836, 0.000], [0, 0, 0, 0], [ 9E9, 9E9, 9E9, 9E9, 9E9, 9E9] ], v1000, fine, pen\WObj:=platform;
    MoveL [ [-3.145, 0.042, -0.010], [0.102, 0.540, -0.836, 0.000], [0, 0, 0, 0], [ 9E9, 9E9, 9E9, 9E9, 9E9, 9E9] ], v30, fine, pen\WObj:=platform;
    MoveL [ [5.358, 5.532, 48.955], [0.102, 0.540, -0.836, 0.000], [0, 0, 0, 0], [ 9E9, 9E9, 9E9, 9E9, 9E9, 9E9] ], v1000, fine, pen\WObj:=platform;
    
    !!-3.027873750308471, 0.04159999999999997;
    MoveL [ [5.381, 5.565, 48.967], [0.101, 0.546, -0.832, 0.000], [0, 0, 0, 0], [ 9E9, 9E9, 9E9, 9E9, 9E9, 9E9] ], v1000, fine, pen\WObj:=platform;
    MoveL [ [-3.028, 0.042, -0.010], [0.101, 0.546, -0.832, 0.000], [0, 0, 0, 0], [ 9E9, 9E9, 9E9, 9E9, 9E9, 9E9] ], v30, fine, pen\WObj:=platform;
    MoveL [ [5.381, 5.565, 48.967], [0.101, 0.546, -0.832, 0.000], [0, 0, 0, 0], [ 9E9, 9E9, 9E9, 9E9, 9E9, 9E9] ], v1000, fine, pen\WObj:=platform;
    
    !!-2.910787115716815, 0.04159999999999997;
    MoveL [ [5.405, 5.597, 48.980], [0.101, 0.553, -0.827, 0.000], [0, 0, 0, 0], [ 9E9, 9E9, 9E9, 9E9, 9E9, 9E9] ], v1000, fine, pen\WObj:=platform;
    MoveL [ [-2.911, 0.042, -0.010], [0.101, 0.553, -0.827, 0.000], [0, 0, 0, 0], [ 9E9, 9E9, 9E9, 9E9, 9E9, 9E9] ], v30, fine, pen\WObj:=platform;
    MoveL [ [5.405, 5.597, 48.980], [0.101, 0.553, -0.827, 0.000], [0, 0, 0, 0], [ 9E9, 9E9, 9E9, 9E9, 9E9, 9E9] ], v1000, fine, pen\WObj:=platform;
    
    !!-2.7937004811251587, 0.04159999999999997;
    MoveL [ [5.428, 5.629, 48.992], [0.100, 0.559, -0.823, 0.000], [0, 0, 0, 0], [ 9E9, 9E9, 9E9, 9E9, 9E9, 9E9] ], v1000, fine, pen\WObj:=platform;
    MoveL [ [-2.794, 0.042, -0.010], [0.100, 0.559, -0.823, 0.000], [0, 0, 0, 0], [ 9E9, 9E9, 9E9, 9E9, 9E9, 9E9] ], v30, fine, pen\WObj:=platform;
    MoveL [ [5.428, 5.629, 48.992], [0.100, 0.559, -0.823, 0.000], [0, 0, 0, 0], [ 9E9, 9E9, 9E9, 9E9, 9E9, 9E9] ], v1000, fine, pen\WObj:=platform;
    
    !!-2.6766138465335025, 0.04159999999999997;
    MoveL [ [5.452, 5.662, 49.004], [0.099, 0.566, -0.818, 0.000], [0, 0, 0, 0], [ 9E9, 9E9, 9E9, 9E9, 9E9, 9E9] ], v1000, fine, pen\WObj:=platform;
    MoveL [ [-2.677, 0.042, -0.010], [0.099, 0.566, -0.818, 0.000], [0, 0, 0, 0], [ 9E9, 9E9, 9E9, 9E9, 9E9, 9E9] ], v30, fine, pen\WObj:=platform;
    MoveL [ [5.452, 5.662, 49.004], [0.099, 0.566, -0.818, 0.000], [0, 0, 0, 0], [ 9E9, 9E9, 9E9, 9E9, 9E9, 9E9] ], v1000, fine, pen\WObj:=platform;
    
    !!-2.559527211941846, 0.04159999999999997;
    MoveL [ [1.085, 4.221, 49.682], [0.056, 0.753, -0.656, 0.000], [0, 0, 0, 0], [ 9E9, 9E9, 9E9, 9E9, 9E9, 9E9] ], v1000, fine, pen\WObj:=platform;
    MoveL [ [-2.560, 0.042, -0.010], [0.056, 0.753, -0.656, 0.000], [0, 0, 0, 0], [ 9E9, 9E9, 9E9, 9E9, 9E9, 9E9] ], v30, fine, pen\WObj:=platform;
    MoveL [ [1.085, 4.221, 49.682], [0.056, 0.753, -0.656, 0.000], [0, 0, 0, 0], [ 9E9, 9E9, 9E9, 9E9, 9E9, 9E9] ], v1000, fine, pen\WObj:=platform;
    
    !!-2.4424405773501903, 0.04159999999999997;
    MoveL [ [1.103, 4.242, 49.687], [0.055, 0.763, -0.644, 0.000], [0, 0, 0, 0], [ 9E9, 9E9, 9E9, 9E9, 9E9, 9E9] ], v1000, fine, pen\WObj:=platform;
    MoveL [ [-2.442, 0.042, -0.010], [0.055, 0.763, -0.644, 0.000], [0, 0, 0, 0], [ 9E9, 9E9, 9E9, 9E9, 9E9, 9E9] ], v30, fine, pen\WObj:=platform;
    MoveL [ [1.103, 4.242, 49.687], [0.055, 0.763, -0.644, 0.000], [0, 0, 0, 0], [ 9E9, 9E9, 9E9, 9E9, 9E9, 9E9] ], v1000, fine, pen\WObj:=platform;
    
    !!-2.325353942758534, 0.04159999999999997;
    MoveL [ [5.522, 5.760, 49.038], [0.098, 0.586, -0.804, 0.000], [0, 0, 0, 0], [ 9E9, 9E9, 9E9, 9E9, 9E9, 9E9] ], v1000, fine, pen\WObj:=platform;
    MoveL [ [-2.325, 0.042, -0.010], [0.098, 0.586, -0.804, 0.000], [0, 0, 0, 0], [ 9E9, 9E9, 9E9, 9E9, 9E9, 9E9] ], v30, fine, pen\WObj:=platform;
    MoveL [ [5.522, 5.760, 49.038], [0.098, 0.586, -0.804, 0.000], [0, 0, 0, 0], [ 9E9, 9E9, 9E9, 9E9, 9E9, 9E9] ], v1000, fine, pen\WObj:=platform;
    
    !!-2.2082673081668776, 0.04159999999999997;
    MoveL [ [5.545, 5.792, 49.049], [0.097, 0.593, -0.799, 0.000], [0, 0, 0, 0], [ 9E9, 9E9, 9E9, 9E9, 9E9, 9E9] ], v1000, fine, pen\WObj:=platform;
    MoveL [ [-2.208, 0.042, -0.010], [0.097, 0.593, -0.799, 0.000], [0, 0, 0, 0], [ 9E9, 9E9, 9E9, 9E9, 9E9, 9E9] ], v30, fine, pen\WObj:=platform;
    MoveL [ [5.545, 5.792, 49.049], [0.097, 0.593, -0.799, 0.000], [0, 0, 0, 0], [ 9E9, 9E9, 9E9, 9E9, 9E9, 9E9] ], v1000, fine, pen\WObj:=platform;
    
    !!-2.0911806735752223, 0.04159999999999997;
    MoveL [ [5.568, 5.825, 49.060], [0.096, 0.600, -0.794, 0.000], [0, 0, 0, 0], [ 9E9, 9E9, 9E9, 9E9, 9E9, 9E9] ], v1000, fine, pen\WObj:=platform;
    MoveL [ [-2.091, 0.042, -0.010], [0.096, 0.600, -0.794, 0.000], [0, 0, 0, 0], [ 9E9, 9E9, 9E9, 9E9, 9E9, 9E9] ], v30, fine, pen\WObj:=platform;
    MoveL [ [5.568, 5.825, 49.060], [0.096, 0.600, -0.794, 0.000], [0, 0, 0, 0], [ 9E9, 9E9, 9E9, 9E9, 9E9, 9E9] ], v1000, fine, pen\WObj:=platform;
    
    !!-1.974094038983566, 0.04159999999999997;
    MoveL [ [5.591, 5.858, 49.071], [0.096, 0.607, -0.789, 0.000], [0, 0, 0, 0], [ 9E9, 9E9, 9E9, 9E9, 9E9, 9E9] ], v1000, fine, pen\WObj:=platform;
    MoveL [ [-1.974, 0.042, -0.010], [0.096, 0.607, -0.789, 0.000], [0, 0, 0, 0], [ 9E9, 9E9, 9E9, 9E9, 9E9, 9E9] ], v30, fine, pen\WObj:=platform;
    MoveL [ [5.591, 5.858, 49.071], [0.096, 0.607, -0.789, 0.000], [0, 0, 0, 0], [ 9E9, 9E9, 9E9, 9E9, 9E9, 9E9] ], v1000, fine, pen\WObj:=platform;
    
    !!-1.85700740439191, 0.04159999999999997;
    MoveL [ [5.615, 5.891, 49.081], [0.095, 0.614, -0.784, 0.000], [0, 0, 0, 0], [ 9E9, 9E9, 9E9, 9E9, 9E9, 9E9] ], v1000, fine, pen\WObj:=platform;
    MoveL [ [-1.857, 0.042, -0.010], [0.095, 0.614, -0.784, 0.000], [0, 0, 0, 0], [ 9E9, 9E9, 9E9, 9E9, 9E9, 9E9] ], v30, fine, pen\WObj:=platform;
    MoveL [ [5.615, 5.891, 49.081], [0.095, 0.614, -0.784, 0.000], [0, 0, 0, 0], [ 9E9, 9E9, 9E9, 9E9, 9E9, 9E9] ], v1000, fine, pen\WObj:=platform;
    
    !!-1.7399207698002537, 0.04159999999999997;
    MoveL [ [5.638, 5.924, 49.092], [0.095, 0.621, -0.778, 0.000], [0, 0, 0, 0], [ 9E9, 9E9, 9E9, 9E9, 9E9, 9E9] ], v1000, fine, pen\WObj:=platform;
    MoveL [ [-1.740, 0.042, -0.010], [0.095, 0.621, -0.778, 0.000], [0, 0, 0, 0], [ 9E9, 9E9, 9E9, 9E9, 9E9, 9E9] ], v30, fine, pen\WObj:=platform;
    MoveL [ [5.638, 5.924, 49.092], [0.095, 0.621, -0.778, 0.000], [0, 0, 0, 0], [ 9E9, 9E9, 9E9, 9E9, 9E9, 9E9] ], v1000, fine, pen\WObj:=platform;
    
    !!-1.622834135208597, 0.04159999999999997;
    MoveL [ [5.661, 5.957, 49.102], [0.094, 0.628, -0.773, 0.000], [0, 0, 0, 0], [ 9E9, 9E9, 9E9, 9E9, 9E9, 9E9] ], v1000, fine, pen\WObj:=platform;
    MoveL [ [-1.623, 0.042, -0.010], [0.094, 0.628, -0.773, 0.000], [0, 0, 0, 0], [ 9E9, 9E9, 9E9, 9E9, 9E9, 9E9] ], v30, fine, pen\WObj:=platform;
    MoveL [ [5.661, 5.957, 49.102], [0.094, 0.628, -0.773, 0.000], [0, 0, 0, 0], [ 9E9, 9E9, 9E9, 9E9, 9E9, 9E9] ], v1000, fine, pen\WObj:=platform;
    
    !!-1.5057475006169412, 0.04159999999999997;
    MoveL [ [5.683, 5.990, 49.112], [0.094, 0.635, -0.767, 0.000], [0, 0, 0, 0], [ 9E9, 9E9, 9E9, 9E9, 9E9, 9E9] ], v1000, fine, pen\WObj:=platform;
    MoveL [ [-1.506, 0.042, -0.010], [0.094, 0.635, -0.767, 0.000], [0, 0, 0, 0], [ 9E9, 9E9, 9E9, 9E9, 9E9, 9E9] ], v30, fine, pen\WObj:=platform;
    MoveL [ [5.683, 5.990, 49.112], [0.094, 0.635, -0.767, 0.000], [0, 0, 0, 0], [ 9E9, 9E9, 9E9, 9E9, 9E9, 9E9] ], v1000, fine, pen\WObj:=platform;
    
    !!-1.3886608660252853, 0.04159999999999997;
    MoveL [ [5.706, 6.023, 49.121], [0.093, 0.642, -0.761, 0.000], [0, 0, 0, 0], [ 9E9, 9E9, 9E9, 9E9, 9E9, 9E9] ], v1000, fine, pen\WObj:=platform;
    MoveL [ [-1.389, 0.042, -0.010], [0.093, 0.642, -0.761, 0.000], [0, 0, 0, 0], [ 9E9, 9E9, 9E9, 9E9, 9E9, 9E9] ], v30, fine, pen\WObj:=platform;
    MoveL [ [5.706, 6.023, 49.121], [0.093, 0.642, -0.761, 0.000], [0, 0, 0, 0], [ 9E9, 9E9, 9E9, 9E9, 9E9, 9E9] ], v1000, fine, pen\WObj:=platform;
    
    !!-1.271574231433629, 0.04159999999999997;
    MoveL [ [5.729, 6.056, 49.131], [0.093, 0.649, -0.755, 0.000], [0, 0, 0, 0], [ 9E9, 9E9, 9E9, 9E9, 9E9, 9E9] ], v1000, fine, pen\WObj:=platform;
    MoveL [ [-1.272, 0.042, -0.010], [0.093, 0.649, -0.755, 0.000], [0, 0, 0, 0], [ 9E9, 9E9, 9E9, 9E9, 9E9, 9E9] ], v30, fine, pen\WObj:=platform;
    MoveL [ [5.729, 6.056, 49.131], [0.093, 0.649, -0.755, 0.000], [0, 0, 0, 0], [ 9E9, 9E9, 9E9, 9E9, 9E9, 9E9] ], v1000, fine, pen\WObj:=platform;
    
    !!-1.1544875968419728, 0.04159999999999997;
    MoveL [ [5.752, 6.090, 49.140], [0.092, 0.656, -0.749, 0.000], [0, 0, 0, 0], [ 9E9, 9E9, 9E9, 9E9, 9E9, 9E9] ], v1000, fine, pen\WObj:=platform;
    MoveL [ [-1.154, 0.042, -0.010], [0.092, 0.656, -0.749, 0.000], [0, 0, 0, 0], [ 9E9, 9E9, 9E9, 9E9, 9E9, 9E9] ], v30, fine, pen\WObj:=platform;
    MoveL [ [5.752, 6.090, 49.140], [0.092, 0.656, -0.749, 0.000], [0, 0, 0, 0], [ 9E9, 9E9, 9E9, 9E9, 9E9, 9E9] ], v1000, fine, pen\WObj:=platform;
    
    !!-1.037400962250317, 0.04159999999999997;
    MoveL [ [5.774, 6.123, 49.149], [0.092, 0.663, -0.743, 0.000], [0, 0, 0, 0], [ 9E9, 9E9, 9E9, 9E9, 9E9, 9E9] ], v1000, fine, pen\WObj:=platform;
    MoveL [ [-1.037, 0.042, -0.010], [0.092, 0.663, -0.743, 0.000], [0, 0, 0, 0], [ 9E9, 9E9, 9E9, 9E9, 9E9, 9E9] ], v30, fine, pen\WObj:=platform;
    MoveL [ [5.774, 6.123, 49.149], [0.092, 0.663, -0.743, 0.000], [0, 0, 0, 0], [ 9E9, 9E9, 9E9, 9E9, 9E9, 9E9] ], v1000, fine, pen\WObj:=platform;
    
    !!-0.9203143276586611, 0.04159999999999997;
    MoveL [ [5.797, 6.156, 49.158], [0.091, 0.670, -0.736, 0.000], [0, 0, 0, 0], [ 9E9, 9E9, 9E9, 9E9, 9E9, 9E9] ], v1000, fine, pen\WObj:=platform;
    MoveL [ [-0.920, 0.042, -0.010], [0.091, 0.670, -0.736, 0.000], [0, 0, 0, 0], [ 9E9, 9E9, 9E9, 9E9, 9E9, 9E9] ], v30, fine, pen\WObj:=platform;
    MoveL [ [5.797, 6.156, 49.158], [0.091, 0.670, -0.736, 0.000], [0, 0, 0, 0], [ 9E9, 9E9, 9E9, 9E9, 9E9, 9E9] ], v1000, fine, pen\WObj:=platform;
    
    !!-0.8032276930670048, 0.04159999999999997;
    MoveL [ [5.820, 6.190, 49.167], [0.091, 0.678, -0.730, 0.000], [0, 0, 0, 0], [ 9E9, 9E9, 9E9, 9E9, 9E9, 9E9] ], v1000, fine, pen\WObj:=platform;
    MoveL [ [-0.803, 0.042, -0.010], [0.091, 0.678, -0.730, 0.000], [0, 0, 0, 0], [ 9E9, 9E9, 9E9, 9E9, 9E9, 9E9] ], v30, fine, pen\WObj:=platform;
    MoveL [ [5.820, 6.190, 49.167], [0.091, 0.678, -0.730, 0.000], [0, 0, 0, 0], [ 9E9, 9E9, 9E9, 9E9, 9E9, 9E9] ], v1000, fine, pen\WObj:=platform;
    
    !!-0.6861410584753487, 0.04159999999999997;
    MoveL [ [5.842, 6.223, 49.175], [0.090, 0.685, -0.723, 0.000], [0, 0, 0, 0], [ 9E9, 9E9, 9E9, 9E9, 9E9, 9E9] ], v1000, fine, pen\WObj:=platform;
    MoveL [ [-0.686, 0.042, -0.010], [0.090, 0.685, -0.723, 0.000], [0, 0, 0, 0], [ 9E9, 9E9, 9E9, 9E9, 9E9, 9E9] ], v30, fine, pen\WObj:=platform;
    MoveL [ [5.842, 6.223, 49.175], [0.090, 0.685, -0.723, 0.000], [0, 0, 0, 0], [ 9E9, 9E9, 9E9, 9E9, 9E9, 9E9] ], v1000, fine, pen\WObj:=platform;
    
    !!-0.569054423883692, 0.04159999999999997;
    MoveL [ [5.864, 6.257, 49.183], [0.090, 0.692, -0.716, 0.000], [0, 0, 0, 0], [ 9E9, 9E9, 9E9, 9E9, 9E9, 9E9] ], v1000, fine, pen\WObj:=platform;
    MoveL [ [-0.569, 0.042, -0.010], [0.090, 0.692, -0.716, 0.000], [0, 0, 0, 0], [ 9E9, 9E9, 9E9, 9E9, 9E9, 9E9] ], v30, fine, pen\WObj:=platform;
    MoveL [ [5.864, 6.257, 49.183], [0.090, 0.692, -0.716, 0.000], [0, 0, 0, 0], [ 9E9, 9E9, 9E9, 9E9, 9E9, 9E9] ], v1000, fine, pen\WObj:=platform;
    
    !!-0.4519677892920363, 0.04159999999999997;
    MoveL [ [5.887, 6.290, 49.191], [0.089, 0.699, -0.709, 0.000], [0, 0, 0, 0], [ 9E9, 9E9, 9E9, 9E9, 9E9, 9E9] ], v1000, fine, pen\WObj:=platform;
    MoveL [ [-0.452, 0.042, -0.010], [0.089, 0.699, -0.709, 0.000], [0, 0, 0, 0], [ 9E9, 9E9, 9E9, 9E9, 9E9, 9E9] ], v30, fine, pen\WObj:=platform;
    MoveL [ [5.887, 6.290, 49.191], [0.089, 0.699, -0.709, 0.000], [0, 0, 0, 0], [ 9E9, 9E9, 9E9, 9E9, 9E9, 9E9] ], v1000, fine, pen\WObj:=platform;
    
    !!-0.33488115470038016, 0.04159999999999997;
    MoveL [ [5.909, 6.324, 49.199], [0.089, 0.706, -0.702, 0.000], [0, 0, 0, 0], [ 9E9, 9E9, 9E9, 9E9, 9E9, 9E9] ], v1000, fine, pen\WObj:=platform;
    MoveL [ [-0.335, 0.042, -0.010], [0.089, 0.706, -0.702, 0.000], [0, 0, 0, 0], [ 9E9, 9E9, 9E9, 9E9, 9E9, 9E9] ], v30, fine, pen\WObj:=platform;
    MoveL [ [5.909, 6.324, 49.199], [0.089, 0.706, -0.702, 0.000], [0, 0, 0, 0], [ 9E9, 9E9, 9E9, 9E9, 9E9, 9E9] ], v1000, fine, pen\WObj:=platform;
    
    !!-0.21779452010872397, 0.04159999999999997;
    MoveL [ [5.931, 6.357, 49.207], [0.088, 0.714, -0.695, 0.000], [0, 0, 0, 0], [ 9E9, 9E9, 9E9, 9E9, 9E9, 9E9] ], v1000, fine, pen\WObj:=platform;
    MoveL [ [-0.218, 0.042, -0.010], [0.088, 0.714, -0.695, 0.000], [0, 0, 0, 0], [ 9E9, 9E9, 9E9, 9E9, 9E9, 9E9] ], v30, fine, pen\WObj:=platform;
    MoveL [ [5.931, 6.357, 49.207], [0.088, 0.714, -0.695, 0.000], [0, 0, 0, 0], [ 9E9, 9E9, 9E9, 9E9, 9E9, 9E9] ], v1000, fine, pen\WObj:=platform;
    
    !!-0.10070788551706782, 0.04159999999999997;
    MoveL [ [5.953, 6.391, 49.214], [0.088, 0.721, -0.687, 0.000], [0, 0, 0, 0], [ 9E9, 9E9, 9E9, 9E9, 9E9, 9E9] ], v1000, fine, pen\WObj:=platform;
    MoveL [ [-0.101, 0.042, -0.010], [0.088, 0.721, -0.687, 0.000], [0, 0, 0, 0], [ 9E9, 9E9, 9E9, 9E9, 9E9, 9E9] ], v30, fine, pen\WObj:=platform;
    MoveL [ [5.953, 6.391, 49.214], [0.088, 0.721, -0.687, 0.000], [0, 0, 0, 0], [ 9E9, 9E9, 9E9, 9E9, 9E9, 9E9] ], v1000, fine, pen\WObj:=platform;
    
    !!0.01637874907458886, 0.04159999999999997;
    MoveL [ [5.975, 6.425, 49.222], [0.088, 0.728, -0.680, 0.000], [0, 0, 0, 0], [ 9E9, 9E9, 9E9, 9E9, 9E9, 9E9] ], v1000, fine, pen\WObj:=platform;
    MoveL [ [0.016, 0.042, -0.010], [0.088, 0.728, -0.680, 0.000], [0, 0, 0, 0], [ 9E9, 9E9, 9E9, 9E9, 9E9, 9E9] ], v30, fine, pen\WObj:=platform;
    MoveL [ [5.975, 6.425, 49.222], [0.088, 0.728, -0.680, 0.000], [0, 0, 0, 0], [ 9E9, 9E9, 9E9, 9E9, 9E9, 9E9] ], v1000, fine, pen\WObj:=platform;
    
    !!0.13346538366624452, 0.04159999999999997;
    MoveL [ [5.997, 6.459, 49.229], [0.087, 0.735, -0.672, 0.000], [0, 0, 0, 0], [ 9E9, 9E9, 9E9, 9E9, 9E9, 9E9] ], v1000, fine, pen\WObj:=platform;
    MoveL [ [0.133, 0.042, -0.010], [0.087, 0.735, -0.672, 0.000], [0, 0, 0, 0], [ 9E9, 9E9, 9E9, 9E9, 9E9, 9E9] ], v30, fine, pen\WObj:=platform;
    MoveL [ [5.997, 6.459, 49.229], [0.087, 0.735, -0.672, 0.000], [0, 0, 0, 0], [ 9E9, 9E9, 9E9, 9E9, 9E9, 9E9] ], v1000, fine, pen\WObj:=platform;
    
    !!0.2505520182579012, 0.04159999999999997;
    MoveL [ [6.018, 6.493, 49.235], [0.087, 0.743, -0.664, 0.000], [0, 0, 0, 0], [ 9E9, 9E9, 9E9, 9E9, 9E9, 9E9] ], v1000, fine, pen\WObj:=platform;
    MoveL [ [0.251, 0.042, -0.010], [0.087, 0.743, -0.664, 0.000], [0, 0, 0, 0], [ 9E9, 9E9, 9E9, 9E9, 9E9, 9E9] ], v30, fine, pen\WObj:=platform;
    MoveL [ [6.018, 6.493, 49.235], [0.087, 0.743, -0.664, 0.000], [0, 0, 0, 0], [ 9E9, 9E9, 9E9, 9E9, 9E9, 9E9] ], v1000, fine, pen\WObj:=platform;
    
    !!0.3676386528495559, 0.04159999999999997;
    MoveL [ [6.040, 6.527, 49.242], [0.086, 0.750, -0.656, 0.000], [0, 0, 0, 0], [ 9E9, 9E9, 9E9, 9E9, 9E9, 9E9] ], v1000, fine, pen\WObj:=platform;
    MoveL [ [0.368, 0.042, -0.010], [0.086, 0.750, -0.656, 0.000], [0, 0, 0, 0], [ 9E9, 9E9, 9E9, 9E9, 9E9, 9E9] ], v30, fine, pen\WObj:=platform;
    MoveL [ [6.040, 6.527, 49.242], [0.086, 0.750, -0.656, 0.000], [0, 0, 0, 0], [ 9E9, 9E9, 9E9, 9E9, 9E9, 9E9] ], v1000, fine, pen\WObj:=platform;
    
    !!0.4847252874412125, 0.04159999999999997;
    MoveL [ [6.061, 6.561, 49.249], [0.086, 0.757, -0.648, 0.000], [0, 0, 0, 0], [ 9E9, 9E9, 9E9, 9E9, 9E9, 9E9] ], v1000, fine, pen\WObj:=platform;
    MoveL [ [0.485, 0.042, -0.010], [0.086, 0.757, -0.648, 0.000], [0, 0, 0, 0], [ 9E9, 9E9, 9E9, 9E9, 9E9, 9E9] ], v30, fine, pen\WObj:=platform;
    MoveL [ [6.061, 6.561, 49.249], [0.086, 0.757, -0.648, 0.000], [0, 0, 0, 0], [ 9E9, 9E9, 9E9, 9E9, 9E9, 9E9] ], v1000, fine, pen\WObj:=platform;
    
    !!0.6018119220328682, 0.04159999999999997;
    MoveL [ [6.083, 6.595, 49.255], [0.086, 0.764, -0.639, 0.000], [0, 0, 0, 0], [ 9E9, 9E9, 9E9, 9E9, 9E9, 9E9] ], v1000, fine, pen\WObj:=platform;
    MoveL [ [0.602, 0.042, -0.010], [0.086, 0.764, -0.639, 0.000], [0, 0, 0, 0], [ 9E9, 9E9, 9E9, 9E9, 9E9, 9E9] ], v30, fine, pen\WObj:=platform;
    MoveL [ [6.083, 6.595, 49.255], [0.086, 0.764, -0.639, 0.000], [0, 0, 0, 0], [ 9E9, 9E9, 9E9, 9E9, 9E9, 9E9] ], v1000, fine, pen\WObj:=platform;
    
    !!0.7188985566245248, 0.04159999999999997;
    MoveL [ [6.104, 6.629, 49.261], [0.085, 0.771, -0.631, 0.000], [0, 0, 0, 0], [ 9E9, 9E9, 9E9, 9E9, 9E9, 9E9] ], v1000, fine, pen\WObj:=platform;
    MoveL [ [0.719, 0.042, -0.010], [0.085, 0.771, -0.631, 0.000], [0, 0, 0, 0], [ 9E9, 9E9, 9E9, 9E9, 9E9, 9E9] ], v30, fine, pen\WObj:=platform;
    MoveL [ [6.104, 6.629, 49.261], [0.085, 0.771, -0.631, 0.000], [0, 0, 0, 0], [ 9E9, 9E9, 9E9, 9E9, 9E9, 9E9] ], v1000, fine, pen\WObj:=platform;
    
    !!0.8359851912161804, 0.04159999999999997;
    MoveL [ [6.125, 6.663, 49.267], [0.085, 0.778, -0.622, 0.000], [0, 0, 0, 0], [ 9E9, 9E9, 9E9, 9E9, 9E9, 9E9] ], v1000, fine, pen\WObj:=platform;
    MoveL [ [0.836, 0.042, -0.010], [0.085, 0.778, -0.622, 0.000], [0, 0, 0, 0], [ 9E9, 9E9, 9E9, 9E9, 9E9, 9E9] ], v30, fine, pen\WObj:=platform;
    MoveL [ [6.125, 6.663, 49.267], [0.085, 0.778, -0.622, 0.000], [0, 0, 0, 0], [ 9E9, 9E9, 9E9, 9E9, 9E9, 9E9] ], v1000, fine, pen\WObj:=platform;
    
    !!0.9530718258078372, 0.04159999999999997;
    MoveL [ [6.147, 6.697, 49.272], [0.085, 0.786, -0.613, 0.000], [0, 0, 0, 0], [ 9E9, 9E9, 9E9, 9E9, 9E9, 9E9] ], v1000, fine, pen\WObj:=platform;
    MoveL [ [0.953, 0.042, -0.010], [0.085, 0.786, -0.613, 0.000], [0, 0, 0, 0], [ 9E9, 9E9, 9E9, 9E9, 9E9, 9E9] ], v30, fine, pen\WObj:=platform;
    MoveL [ [6.147, 6.697, 49.272], [0.085, 0.786, -0.613, 0.000], [0, 0, 0, 0], [ 9E9, 9E9, 9E9, 9E9, 9E9, 9E9] ], v1000, fine, pen\WObj:=platform;
    
    !!1.070158460399493, 0.04159999999999997;
    MoveL [ [6.168, 6.731, 49.278], [0.084, 0.793, -0.604, 0.000], [0, 0, 0, 0], [ 9E9, 9E9, 9E9, 9E9, 9E9, 9E9] ], v1000, fine, pen\WObj:=platform;
    MoveL [ [1.070, 0.042, -0.010], [0.084, 0.793, -0.604, 0.000], [0, 0, 0, 0], [ 9E9, 9E9, 9E9, 9E9, 9E9, 9E9] ], v30, fine, pen\WObj:=platform;
    MoveL [ [6.168, 6.731, 49.278], [0.084, 0.793, -0.604, 0.000], [0, 0, 0, 0], [ 9E9, 9E9, 9E9, 9E9, 9E9, 9E9] ], v1000, fine, pen\WObj:=platform;
    
    !!1.1872450949911495, 0.04159999999999997;
    MoveL [ [6.188, 6.765, 49.283], [0.084, 0.800, -0.595, 0.000], [0, 0, 0, 0], [ 9E9, 9E9, 9E9, 9E9, 9E9, 9E9] ], v1000, fine, pen\WObj:=platform;
    MoveL [ [1.187, 0.042, -0.010], [0.084, 0.800, -0.595, 0.000], [0, 0, 0, 0], [ 9E9, 9E9, 9E9, 9E9, 9E9, 9E9] ], v30, fine, pen\WObj:=platform;
    MoveL [ [6.188, 6.765, 49.283], [0.084, 0.800, -0.595, 0.000], [0, 0, 0, 0], [ 9E9, 9E9, 9E9, 9E9, 9E9, 9E9] ], v1000, fine, pen\WObj:=platform;
    
    !!1.304331729582806, 0.04159999999999997;
    MoveL [ [6.209, 6.799, 49.288], [0.084, 0.806, -0.585, 0.000], [0, 0, 0, 0], [ 9E9, 9E9, 9E9, 9E9, 9E9, 9E9] ], v1000, fine, pen\WObj:=platform;
    MoveL [ [1.304, 0.042, -0.010], [0.084, 0.806, -0.585, 0.000], [0, 0, 0, 0], [ 9E9, 9E9, 9E9, 9E9, 9E9, 9E9] ], v30, fine, pen\WObj:=platform;
    MoveL [ [6.209, 6.799, 49.288], [0.084, 0.806, -0.585, 0.000], [0, 0, 0, 0], [ 9E9, 9E9, 9E9, 9E9, 9E9, 9E9] ], v1000, fine, pen\WObj:=platform;
    
    !!1.4214183641744607, 0.04159999999999997;
    MoveL [ [-4.226, -6.650, 49.217], [0.088, -0.761, 0.642, 0.000], [0, 0, 0, 0], [ 9E9, 9E9, 9E9, 9E9, 9E9, 9E9] ], v1000, fine, pen\WObj:=platform;
    MoveL [ [1.421, 0.042, -0.010], [0.088, -0.761, 0.642, 0.000], [0, 0, 0, 0], [ 9E9, 9E9, 9E9, 9E9, 9E9, 9E9] ], v30, fine, pen\WObj:=platform;
    MoveL [ [-4.226, -6.650, 49.217], [0.088, -0.761, 0.642, 0.000], [0, 0, 0, 0], [ 9E9, 9E9, 9E9, 9E9, 9E9, 9E9] ], v1000, fine, pen\WObj:=platform;
    
    !!1.5385049987661175, 0.04159999999999997;
    MoveL [ [2.291, -2.102, 49.938], [0.023, -0.943, -0.331, 0.000], [0, 0, 0, 0], [ 9E9, 9E9, 9E9, 9E9, 9E9, 9E9] ], v1000, fine, pen\WObj:=platform;
    MoveL [ [1.539, 0.042, -0.010], [0.023, -0.943, -0.331, 0.000], [0, 0, 0, 0], [ 9E9, 9E9, 9E9, 9E9, 9E9, 9E9] ], v30, fine, pen\WObj:=platform;
    MoveL [ [2.291, -2.102, 49.938], [0.023, -0.943, -0.331, 0.000], [0, 0, 0, 0], [ 9E9, 9E9, 9E9, 9E9, 9E9, 9E9] ], v1000, fine, pen\WObj:=platform;
    
    !!1.6555916333577734, 0.04159999999999997;
    MoveL [ [6.271, 6.902, 49.302], [0.083, 0.827, -0.556, 0.000], [0, 0, 0, 0], [ 9E9, 9E9, 9E9, 9E9, 9E9, 9E9] ], v1000, fine, pen\WObj:=platform;
    MoveL [ [1.656, 0.042, -0.010], [0.083, 0.827, -0.556, 0.000], [0, 0, 0, 0], [ 9E9, 9E9, 9E9, 9E9, 9E9, 9E9] ], v30, fine, pen\WObj:=platform;
    MoveL [ [6.271, 6.902, 49.302], [0.083, 0.827, -0.556, 0.000], [0, 0, 0, 0], [ 9E9, 9E9, 9E9, 9E9, 9E9, 9E9] ], v1000, fine, pen\WObj:=platform;
    
    !!1.77267826794943, 0.04159999999999997;
    MoveL [ [6.291, 6.937, 49.306], [0.083, 0.834, -0.546, 0.000], [0, 0, 0, 0], [ 9E9, 9E9, 9E9, 9E9, 9E9, 9E9] ], v1000, fine, pen\WObj:=platform;
    MoveL [ [1.773, 0.042, -0.010], [0.083, 0.834, -0.546, 0.000], [0, 0, 0, 0], [ 9E9, 9E9, 9E9, 9E9, 9E9, 9E9] ], v30, fine, pen\WObj:=platform;
    MoveL [ [6.291, 6.937, 49.306], [0.083, 0.834, -0.546, 0.000], [0, 0, 0, 0], [ 9E9, 9E9, 9E9, 9E9, 9E9, 9E9] ], v1000, fine, pen\WObj:=platform;
    
    !!1.8897649025410856, 0.04159999999999997;
    MoveL [ [6.311, 6.971, 49.310], [0.082, 0.840, -0.536, 0.000], [0, 0, 0, 0], [ 9E9, 9E9, 9E9, 9E9, 9E9, 9E9] ], v1000, fine, pen\WObj:=platform;
    MoveL [ [1.890, 0.042, -0.010], [0.082, 0.840, -0.536, 0.000], [0, 0, 0, 0], [ 9E9, 9E9, 9E9, 9E9, 9E9, 9E9] ], v30, fine, pen\WObj:=platform;
    MoveL [ [6.311, 6.971, 49.310], [0.082, 0.840, -0.536, 0.000], [0, 0, 0, 0], [ 9E9, 9E9, 9E9, 9E9, 9E9, 9E9] ], v1000, fine, pen\WObj:=platform;
    
    !!2.006851537132742, 0.04159999999999997;
    MoveL [ [6.331, 7.006, 49.313], [0.082, 0.847, -0.526, 0.000], [0, 0, 0, 0], [ 9E9, 9E9, 9E9, 9E9, 9E9, 9E9] ], v1000, fine, pen\WObj:=platform;
    MoveL [ [2.007, 0.042, -0.010], [0.082, 0.847, -0.526, 0.000], [0, 0, 0, 0], [ 9E9, 9E9, 9E9, 9E9, 9E9, 9E9] ], v30, fine, pen\WObj:=platform;
    MoveL [ [6.331, 7.006, 49.313], [0.082, 0.847, -0.526, 0.000], [0, 0, 0, 0], [ 9E9, 9E9, 9E9, 9E9, 9E9, 9E9] ], v1000, fine, pen\WObj:=platform;
    
    !!2.123938171724398, 0.04159999999999997;
    MoveL [ [6.351, 7.040, 49.317], [0.082, 0.853, -0.515, 0.000], [0, 0, 0, 0], [ 9E9, 9E9, 9E9, 9E9, 9E9, 9E9] ], v1000, fine, pen\WObj:=platform;
    MoveL [ [2.124, 0.042, -0.010], [0.082, 0.853, -0.515, 0.000], [0, 0, 0, 0], [ 9E9, 9E9, 9E9, 9E9, 9E9, 9E9] ], v30, fine, pen\WObj:=platform;
    MoveL [ [6.351, 7.040, 49.317], [0.082, 0.853, -0.515, 0.000], [0, 0, 0, 0], [ 9E9, 9E9, 9E9, 9E9, 9E9, 9E9] ], v1000, fine, pen\WObj:=platform;
    
    !!2.2410248063160547, 0.04159999999999997;
    MoveL [ [6.371, 7.075, 49.320], [0.082, 0.859, -0.505, 0.000], [0, 0, 0, 0], [ 9E9, 9E9, 9E9, 9E9, 9E9, 9E9] ], v1000, fine, pen\WObj:=platform;
    MoveL [ [2.241, 0.042, -0.010], [0.082, 0.859, -0.505, 0.000], [0, 0, 0, 0], [ 9E9, 9E9, 9E9, 9E9, 9E9, 9E9] ], v30, fine, pen\WObj:=platform;
    MoveL [ [6.371, 7.075, 49.320], [0.082, 0.859, -0.505, 0.000], [0, 0, 0, 0], [ 9E9, 9E9, 9E9, 9E9, 9E9, 9E9] ], v1000, fine, pen\WObj:=platform;
    
    !!2.3581114409077113, 0.04159999999999997;
    MoveL [ [6.391, 7.109, 49.323], [0.082, 0.866, -0.494, 0.000], [0, 0, 0, 0], [ 9E9, 9E9, 9E9, 9E9, 9E9, 9E9] ], v1000, fine, pen\WObj:=platform;
    MoveL [ [2.358, 0.042, -0.010], [0.082, 0.866, -0.494, 0.000], [0, 0, 0, 0], [ 9E9, 9E9, 9E9, 9E9, 9E9, 9E9] ], v30, fine, pen\WObj:=platform;
    MoveL [ [6.391, 7.109, 49.323], [0.082, 0.866, -0.494, 0.000], [0, 0, 0, 0], [ 9E9, 9E9, 9E9, 9E9, 9E9, 9E9] ], v1000, fine, pen\WObj:=platform;
    
    !!2.4751980754993657, 0.04159999999999997;
    MoveL [ [6.410, 7.144, 49.326], [0.081, 0.872, -0.483, 0.000], [0, 0, 0, 0], [ 9E9, 9E9, 9E9, 9E9, 9E9, 9E9] ], v1000, fine, pen\WObj:=platform;
    MoveL [ [2.475, 0.042, -0.010], [0.081, 0.872, -0.483, 0.000], [0, 0, 0, 0], [ 9E9, 9E9, 9E9, 9E9, 9E9, 9E9] ], v30, fine, pen\WObj:=platform;
    MoveL [ [6.410, 7.144, 49.326], [0.081, 0.872, -0.483, 0.000], [0, 0, 0, 0], [ 9E9, 9E9, 9E9, 9E9, 9E9, 9E9] ], v1000, fine, pen\WObj:=platform;
    
    !!2.5922847100910222, 0.04159999999999997;
    MoveL [ [6.430, 7.178, 49.329], [0.081, 0.878, -0.472, 0.000], [0, 0, 0, 0], [ 9E9, 9E9, 9E9, 9E9, 9E9, 9E9] ], v1000, fine, pen\WObj:=platform;
    MoveL [ [2.592, 0.042, -0.010], [0.081, 0.878, -0.472, 0.000], [0, 0, 0, 0], [ 9E9, 9E9, 9E9, 9E9, 9E9, 9E9] ], v30, fine, pen\WObj:=platform;
    MoveL [ [6.430, 7.178, 49.329], [0.081, 0.878, -0.472, 0.000], [0, 0, 0, 0], [ 9E9, 9E9, 9E9, 9E9, 9E9, 9E9] ], v1000, fine, pen\WObj:=platform;
    
    !!2.7093713446826784, 0.04159999999999997;
    MoveL [ [6.449, 7.213, 49.332], [0.081, 0.884, -0.461, 0.000], [0, 0, 0, 0], [ 9E9, 9E9, 9E9, 9E9, 9E9, 9E9] ], v1000, fine, pen\WObj:=platform;
    MoveL [ [2.709, 0.042, -0.010], [0.081, 0.884, -0.461, 0.000], [0, 0, 0, 0], [ 9E9, 9E9, 9E9, 9E9, 9E9, 9E9] ], v30, fine, pen\WObj:=platform;
    MoveL [ [6.449, 7.213, 49.332], [0.081, 0.884, -0.461, 0.000], [0, 0, 0, 0], [ 9E9, 9E9, 9E9, 9E9, 9E9, 9E9] ], v1000, fine, pen\WObj:=platform;
    
    !!2.826457979274335, 0.04159999999999997;
    MoveL [ [6.468, 7.247, 49.334], [0.081, 0.890, -0.450, 0.000], [0, 0, 0, 0], [ 9E9, 9E9, 9E9, 9E9, 9E9, 9E9] ], v1000, fine, pen\WObj:=platform;
    MoveL [ [2.826, 0.042, -0.010], [0.081, 0.890, -0.450, 0.000], [0, 0, 0, 0], [ 9E9, 9E9, 9E9, 9E9, 9E9, 9E9] ], v30, fine, pen\WObj:=platform;
    MoveL [ [6.468, 7.247, 49.334], [0.081, 0.890, -0.450, 0.000], [0, 0, 0, 0], [ 9E9, 9E9, 9E9, 9E9, 9E9, 9E9] ], v1000, fine, pen\WObj:=platform;
    
    !!2.94354461386599, 0.04159999999999997;
    MoveL [ [6.487, 7.282, 49.336], [0.081, 0.895, -0.438, 0.000], [0, 0, 0, 0], [ 9E9, 9E9, 9E9, 9E9, 9E9, 9E9] ], v1000, fine, pen\WObj:=platform;
    MoveL [ [2.944, 0.042, -0.010], [0.081, 0.895, -0.438, 0.000], [0, 0, 0, 0], [ 9E9, 9E9, 9E9, 9E9, 9E9, 9E9] ], v30, fine, pen\WObj:=platform;
    MoveL [ [6.487, 7.282, 49.336], [0.081, 0.895, -0.438, 0.000], [0, 0, 0, 0], [ 9E9, 9E9, 9E9, 9E9, 9E9, 9E9] ], v1000, fine, pen\WObj:=platform;
    
    !!3.0606312484576472, 0.04159999999999997;
    MoveL [ [6.506, 7.317, 49.338], [0.081, 0.901, -0.427, 0.000], [0, 0, 0, 0], [ 9E9, 9E9, 9E9, 9E9, 9E9, 9E9] ], v1000, fine, pen\WObj:=platform;
    MoveL [ [3.061, 0.042, -0.010], [0.081, 0.901, -0.427, 0.000], [0, 0, 0, 0], [ 9E9, 9E9, 9E9, 9E9, 9E9, 9E9] ], v30, fine, pen\WObj:=platform;
    MoveL [ [6.506, 7.317, 49.338], [0.081, 0.901, -0.427, 0.000], [0, 0, 0, 0], [ 9E9, 9E9, 9E9, 9E9, 9E9, 9E9] ], v1000, fine, pen\WObj:=platform;
    
    !!3.177717883049303, 0.04159999999999997;
    MoveL [ [6.524, 7.351, 49.339], [0.081, 0.906, -0.415, 0.000], [0, 0, 0, 0], [ 9E9, 9E9, 9E9, 9E9, 9E9, 9E9] ], v1000, fine, pen\WObj:=platform;
    MoveL [ [3.178, 0.042, -0.010], [0.081, 0.906, -0.415, 0.000], [0, 0, 0, 0], [ 9E9, 9E9, 9E9, 9E9, 9E9, 9E9] ], v30, fine, pen\WObj:=platform;
    MoveL [ [6.524, 7.351, 49.339], [0.081, 0.906, -0.415, 0.000], [0, 0, 0, 0], [ 9E9, 9E9, 9E9, 9E9, 9E9, 9E9] ], v1000, fine, pen\WObj:=platform;
    
    !!3.2948045176409595, 0.04159999999999997;
    MoveL [ [-1.062, -1.936, 49.761], [0.048, -0.413, 0.910, 0.000], [0, 0, 0, 0], [ 9E9, 9E9, 9E9, 9E9, 9E9, 9E9] ], v1000, fine, pen\WObj:=platform;
    MoveL [ [3.295, 0.042, -0.010], [0.048, -0.413, 0.910, 0.000], [0, 0, 0, 0], [ 9E9, 9E9, 9E9, 9E9, 9E9, 9E9] ], v30, fine, pen\WObj:=platform;
    MoveL [ [-1.062, -1.936, 49.761], [0.048, -0.413, 0.910, 0.000], [0, 0, 0, 0], [ 9E9, 9E9, 9E9, 9E9, 9E9, 9E9] ], v1000, fine, pen\WObj:=platform;
    
    !!3.411891152232616, 0.04159999999999997;
    MoveL [ [-3.803, -6.657, 49.011], [0.099, -0.677, 0.729, 0.000], [0, 0, 0, 0], [ 9E9, 9E9, 9E9, 9E9, 9E9, 9E9] ], v1000, fine, pen\WObj:=platform;
    MoveL [ [3.412, 0.042, -0.010], [0.099, -0.677, 0.729, 0.000], [0, 0, 0, 0], [ 9E9, 9E9, 9E9, 9E9, 9E9, 9E9] ], v30, fine, pen\WObj:=platform;
    MoveL [ [-3.803, -6.657, 49.011], [0.099, -0.677, 0.729, 0.000], [0, 0, 0, 0], [ 9E9, 9E9, 9E9, 9E9, 9E9, 9E9] ], v1000, fine, pen\WObj:=platform;
    
    !!3.528977786824271, 0.04159999999999997;
    MoveL [ [-1.021, -1.924, 49.744], [0.050, -0.396, 0.917, 0.000], [0, 0, 0, 0], [ 9E9, 9E9, 9E9, 9E9, 9E9, 9E9] ], v1000, fine, pen\WObj:=platform;
    MoveL [ [3.529, 0.042, -0.010], [0.050, -0.396, 0.917, 0.000], [0, 0, 0, 0], [ 9E9, 9E9, 9E9, 9E9, 9E9, 9E9] ], v30, fine, pen\WObj:=platform;
    MoveL [ [-1.021, -1.924, 49.744], [0.050, -0.396, 0.917, 0.000], [0, 0, 0, 0], [ 9E9, 9E9, 9E9, 9E9, 9E9, 9E9] ], v1000, fine, pen\WObj:=platform;
    
    !!3.646064421415928, 0.04159999999999997;
    MoveL [ [2.011, 5.354, 49.680], [0.056, 0.954, 0.294, 0.000], [0, 0, 0, 0], [ 9E9, 9E9, 9E9, 9E9, 9E9, 9E9] ], v1000, fine, pen\WObj:=platform;
    MoveL [ [3.646, 0.042, -0.010], [0.056, 0.954, 0.294, 0.000], [0, 0, 0, 0], [ 9E9, 9E9, 9E9, 9E9, 9E9, 9E9] ], v30, fine, pen\WObj:=platform;
    MoveL [ [2.011, 5.354, 49.680], [0.056, 0.954, 0.294, 0.000], [0, 0, 0, 0], [ 9E9, 9E9, 9E9, 9E9, 9E9, 9E9] ], v1000, fine, pen\WObj:=platform;
    
    !!3.763151056007583, 0.04159999999999997;
    MoveL [ [6.615, 7.525, 49.344], [0.080, 0.931, -0.355, 0.000], [0, 0, 0, 0], [ 9E9, 9E9, 9E9, 9E9, 9E9, 9E9] ], v1000, fine, pen\WObj:=platform;
    MoveL [ [3.763, 0.042, -0.010], [0.080, 0.931, -0.355, 0.000], [0, 0, 0, 0], [ 9E9, 9E9, 9E9, 9E9, 9E9, 9E9] ], v30, fine, pen\WObj:=platform;
    MoveL [ [6.615, 7.525, 49.344], [0.080, 0.931, -0.355, 0.000], [0, 0, 0, 0], [ 9E9, 9E9, 9E9, 9E9, 9E9, 9E9] ], v1000, fine, pen\WObj:=platform;
    
    !!3.8802376905992397, 0.04159999999999997;
    MoveL [ [6.633, 7.560, 49.345], [0.080, 0.936, -0.343, 0.000], [0, 0, 0, 0], [ 9E9, 9E9, 9E9, 9E9, 9E9, 9E9] ], v1000, fine, pen\WObj:=platform;
    MoveL [ [3.880, 0.042, -0.010], [0.080, 0.936, -0.343, 0.000], [0, 0, 0, 0], [ 9E9, 9E9, 9E9, 9E9, 9E9, 9E9] ], v30, fine, pen\WObj:=platform;
    MoveL [ [6.633, 7.560, 49.345], [0.080, 0.936, -0.343, 0.000], [0, 0, 0, 0], [ 9E9, 9E9, 9E9, 9E9, 9E9, 9E9] ], v1000, fine, pen\WObj:=platform;
    
    !!3.997324325190896, 0.04159999999999997;
    MoveL [ [6.650, 7.595, 49.345], [0.080, 0.940, -0.330, 0.000], [0, 0, 0, 0], [ 9E9, 9E9, 9E9, 9E9, 9E9, 9E9] ], v1000, fine, pen\WObj:=platform;
    MoveL [ [3.997, 0.042, -0.010], [0.080, 0.940, -0.330, 0.000], [0, 0, 0, 0], [ 9E9, 9E9, 9E9, 9E9, 9E9, 9E9] ], v30, fine, pen\WObj:=platform;
    MoveL [ [6.650, 7.595, 49.345], [0.080, 0.940, -0.330, 0.000], [0, 0, 0, 0], [ 9E9, 9E9, 9E9, 9E9, 9E9, 9E9] ], v1000, fine, pen\WObj:=platform;
    
    !!4.1144109597825524, 0.04159999999999997;
    MoveL [ [6.668, 7.630, 49.345], [0.080, 0.945, -0.318, 0.000], [0, 0, 0, 0], [ 9E9, 9E9, 9E9, 9E9, 9E9, 9E9] ], v1000, fine, pen\WObj:=platform;
    MoveL [ [4.114, 0.042, -0.010], [0.080, 0.945, -0.318, 0.000], [0, 0, 0, 0], [ 9E9, 9E9, 9E9, 9E9, 9E9, 9E9] ], v30, fine, pen\WObj:=platform;
    MoveL [ [6.668, 7.630, 49.345], [0.080, 0.945, -0.318, 0.000], [0, 0, 0, 0], [ 9E9, 9E9, 9E9, 9E9, 9E9, 9E9] ], v1000, fine, pen\WObj:=platform;
    
    !!4.231497594374208, 0.04159999999999997;
    MoveL [ [6.685, 7.664, 49.345], [0.080, 0.949, -0.305, 0.000], [0, 0, 0, 0], [ 9E9, 9E9, 9E9, 9E9, 9E9, 9E9] ], v1000, fine, pen\WObj:=platform;
    MoveL [ [4.231, 0.042, -0.010], [0.080, 0.949, -0.305, 0.000], [0, 0, 0, 0], [ 9E9, 9E9, 9E9, 9E9, 9E9, 9E9] ], v30, fine, pen\WObj:=platform;
    MoveL [ [6.685, 7.664, 49.345], [0.080, 0.949, -0.305, 0.000], [0, 0, 0, 0], [ 9E9, 9E9, 9E9, 9E9, 9E9, 9E9] ], v1000, fine, pen\WObj:=platform;
    
    !!4.348584228965865, 0.04159999999999997;
    MoveL [ [6.702, 7.699, 49.344], [0.080, 0.953, -0.293, 0.000], [0, 0, 0, 0], [ 9E9, 9E9, 9E9, 9E9, 9E9, 9E9] ], v1000, fine, pen\WObj:=platform;
    MoveL [ [4.349, 0.042, -0.010], [0.080, 0.953, -0.293, 0.000], [0, 0, 0, 0], [ 9E9, 9E9, 9E9, 9E9, 9E9, 9E9] ], v30, fine, pen\WObj:=platform;
    MoveL [ [6.702, 7.699, 49.344], [0.080, 0.953, -0.293, 0.000], [0, 0, 0, 0], [ 9E9, 9E9, 9E9, 9E9, 9E9, 9E9] ], v1000, fine, pen\WObj:=platform;
    
    !!4.46567086355752, 0.04159999999999997;
    MoveL [ [6.719, 7.734, 49.343], [0.080, 0.957, -0.280, 0.000], [0, 0, 0, 0], [ 9E9, 9E9, 9E9, 9E9, 9E9, 9E9] ], v1000, fine, pen\WObj:=platform;
    MoveL [ [4.466, 0.042, -0.010], [0.080, 0.957, -0.280, 0.000], [0, 0, 0, 0], [ 9E9, 9E9, 9E9, 9E9, 9E9, 9E9] ], v30, fine, pen\WObj:=platform;
    MoveL [ [6.719, 7.734, 49.343], [0.080, 0.957, -0.280, 0.000], [0, 0, 0, 0], [ 9E9, 9E9, 9E9, 9E9, 9E9, 9E9] ], v1000, fine, pen\WObj:=platform;
    
    !!-4.491456682704173, -0.05979999999999985;
    MoveL [ [5.057, 5.269, 48.780], [0.110, 0.484, -0.868, 0.000], [0, 0, 0, 0], [ 9E9, 9E9, 9E9, 9E9, 9E9, 9E9] ], v1000, fine, pen\WObj:=platform;
    MoveL [ [-4.491, -0.060, -0.010], [0.110, 0.484, -0.868, 0.000], [0, 0, 0, 0], [ 9E9, 9E9, 9E9, 9E9, 9E9, 9E9] ], v30, fine, pen\WObj:=platform;
    MoveL [ [5.057, 5.269, 48.780], [0.110, 0.484, -0.868, 0.000], [0, 0, 0, 0], [ 9E9, 9E9, 9E9, 9E9, 9E9, 9E9] ], v1000, fine, pen\WObj:=platform;
    
    !!-4.3743700481125165, -0.05979999999999985;
    MoveL [ [5.081, 5.301, 48.794], [0.109, 0.490, -0.865, 0.000], [0, 0, 0, 0], [ 9E9, 9E9, 9E9, 9E9, 9E9, 9E9] ], v1000, fine, pen\WObj:=platform;
    MoveL [ [-4.374, -0.060, -0.010], [0.109, 0.490, -0.865, 0.000], [0, 0, 0, 0], [ 9E9, 9E9, 9E9, 9E9, 9E9, 9E9] ], v30, fine, pen\WObj:=platform;
    MoveL [ [5.081, 5.301, 48.794], [0.109, 0.490, -0.865, 0.000], [0, 0, 0, 0], [ 9E9, 9E9, 9E9, 9E9, 9E9, 9E9] ], v1000, fine, pen\WObj:=platform;
    
    !!-4.2572834135208595, -0.05979999999999985;
    MoveL [ [5.105, 5.333, 48.809], [0.109, 0.496, -0.861, 0.000], [0, 0, 0, 0], [ 9E9, 9E9, 9E9, 9E9, 9E9, 9E9] ], v1000, fine, pen\WObj:=platform;
    MoveL [ [-4.257, -0.060, -0.010], [0.109, 0.496, -0.861, 0.000], [0, 0, 0, 0], [ 9E9, 9E9, 9E9, 9E9, 9E9, 9E9] ], v30, fine, pen\WObj:=platform;
    MoveL [ [5.105, 5.333, 48.809], [0.109, 0.496, -0.861, 0.000], [0, 0, 0, 0], [ 9E9, 9E9, 9E9, 9E9, 9E9, 9E9] ], v1000, fine, pen\WObj:=platform;
    
    !!-4.140196778929203, -0.05979999999999985;
    MoveL [ [5.129, 5.364, 48.823], [0.108, 0.502, -0.858, 0.000], [0, 0, 0, 0], [ 9E9, 9E9, 9E9, 9E9, 9E9, 9E9] ], v1000, fine, pen\WObj:=platform;
    MoveL [ [-4.140, -0.060, -0.010], [0.108, 0.502, -0.858, 0.000], [0, 0, 0, 0], [ 9E9, 9E9, 9E9, 9E9, 9E9, 9E9] ], v30, fine, pen\WObj:=platform;
    MoveL [ [5.129, 5.364, 48.823], [0.108, 0.502, -0.858, 0.000], [0, 0, 0, 0], [ 9E9, 9E9, 9E9, 9E9, 9E9, 9E9] ], v1000, fine, pen\WObj:=platform;
    
    !!-4.023110144337548, -0.05979999999999985;
    MoveL [ [5.152, 5.396, 48.837], [0.107, 0.508, -0.855, 0.000], [0, 0, 0, 0], [ 9E9, 9E9, 9E9, 9E9, 9E9, 9E9] ], v1000, fine, pen\WObj:=platform;
    MoveL [ [-4.023, -0.060, -0.010], [0.107, 0.508, -0.855, 0.000], [0, 0, 0, 0], [ 9E9, 9E9, 9E9, 9E9, 9E9, 9E9] ], v30, fine, pen\WObj:=platform;
    MoveL [ [5.152, 5.396, 48.837], [0.107, 0.508, -0.855, 0.000], [0, 0, 0, 0], [ 9E9, 9E9, 9E9, 9E9, 9E9, 9E9] ], v1000, fine, pen\WObj:=platform;
    
    !!-3.906023509745892, -0.05979999999999985;
    MoveL [ [5.176, 5.428, 48.851], [0.107, 0.514, -0.851, 0.000], [0, 0, 0, 0], [ 9E9, 9E9, 9E9, 9E9, 9E9, 9E9] ], v1000, fine, pen\WObj:=platform;
    MoveL [ [-3.906, -0.060, -0.010], [0.107, 0.514, -0.851, 0.000], [0, 0, 0, 0], [ 9E9, 9E9, 9E9, 9E9, 9E9, 9E9] ], v30, fine, pen\WObj:=platform;
    MoveL [ [5.176, 5.428, 48.851], [0.107, 0.514, -0.851, 0.000], [0, 0, 0, 0], [ 9E9, 9E9, 9E9, 9E9, 9E9, 9E9] ], v1000, fine, pen\WObj:=platform;
    
    !!-3.788936875154235, -0.05979999999999985;
    MoveL [ [5.200, 5.460, 48.865], [0.106, 0.520, -0.847, 0.000], [0, 0, 0, 0], [ 9E9, 9E9, 9E9, 9E9, 9E9, 9E9] ], v1000, fine, pen\WObj:=platform;
    MoveL [ [-3.789, -0.060, -0.010], [0.106, 0.520, -0.847, 0.000], [0, 0, 0, 0], [ 9E9, 9E9, 9E9, 9E9, 9E9, 9E9] ], v30, fine, pen\WObj:=platform;
    MoveL [ [5.200, 5.460, 48.865], [0.106, 0.520, -0.847, 0.000], [0, 0, 0, 0], [ 9E9, 9E9, 9E9, 9E9, 9E9, 9E9] ], v1000, fine, pen\WObj:=platform;
    
    !!-3.6718502405625792, -0.05979999999999985;
    MoveL [ [5.224, 5.492, 48.878], [0.105, 0.527, -0.844, 0.000], [0, 0, 0, 0], [ 9E9, 9E9, 9E9, 9E9, 9E9, 9E9] ], v1000, fine, pen\WObj:=platform;
    MoveL [ [-3.672, -0.060, -0.010], [0.105, 0.527, -0.844, 0.000], [0, 0, 0, 0], [ 9E9, 9E9, 9E9, 9E9, 9E9, 9E9] ], v30, fine, pen\WObj:=platform;
    MoveL [ [5.224, 5.492, 48.878], [0.105, 0.527, -0.844, 0.000], [0, 0, 0, 0], [ 9E9, 9E9, 9E9, 9E9, 9E9, 9E9] ], v1000, fine, pen\WObj:=platform;
    
    !!-3.554763605970923, -0.05979999999999985;
    MoveL [ [5.247, 5.524, 48.891], [0.105, 0.533, -0.840, 0.000], [0, 0, 0, 0], [ 9E9, 9E9, 9E9, 9E9, 9E9, 9E9] ], v1000, fine, pen\WObj:=platform;
    MoveL [ [-3.555, -0.060, -0.010], [0.105, 0.533, -0.840, 0.000], [0, 0, 0, 0], [ 9E9, 9E9, 9E9, 9E9, 9E9, 9E9] ], v30, fine, pen\WObj:=platform;
    MoveL [ [5.247, 5.524, 48.891], [0.105, 0.533, -0.840, 0.000], [0, 0, 0, 0], [ 9E9, 9E9, 9E9, 9E9, 9E9, 9E9] ], v1000, fine, pen\WObj:=platform;
    
    !!-3.437676971379267, -0.05979999999999985;
    MoveL [ [5.271, 5.556, 48.904], [0.104, 0.539, -0.836, 0.000], [0, 0, 0, 0], [ 9E9, 9E9, 9E9, 9E9, 9E9, 9E9] ], v1000, fine, pen\WObj:=platform;
    MoveL [ [-3.438, -0.060, -0.010], [0.104, 0.539, -0.836, 0.000], [0, 0, 0, 0], [ 9E9, 9E9, 9E9, 9E9, 9E9, 9E9] ], v30, fine, pen\WObj:=platform;
    MoveL [ [5.271, 5.556, 48.904], [0.104, 0.539, -0.836, 0.000], [0, 0, 0, 0], [ 9E9, 9E9, 9E9, 9E9, 9E9, 9E9] ], v1000, fine, pen\WObj:=platform;
    
    !!-3.3205903367876113, -0.05979999999999985;
    MoveL [ [5.294, 5.589, 48.917], [0.104, 0.545, -0.832, 0.000], [0, 0, 0, 0], [ 9E9, 9E9, 9E9, 9E9, 9E9, 9E9] ], v1000, fine, pen\WObj:=platform;
    MoveL [ [-3.321, -0.060, -0.010], [0.104, 0.545, -0.832, 0.000], [0, 0, 0, 0], [ 9E9, 9E9, 9E9, 9E9, 9E9, 9E9] ], v30, fine, pen\WObj:=platform;
    MoveL [ [5.294, 5.589, 48.917], [0.104, 0.545, -0.832, 0.000], [0, 0, 0, 0], [ 9E9, 9E9, 9E9, 9E9, 9E9, 9E9] ], v1000, fine, pen\WObj:=platform;
    
    !!-3.203503702195955, -0.05979999999999985;
    MoveL [ [5.318, 5.621, 48.930], [0.103, 0.552, -0.828, 0.000], [0, 0, 0, 0], [ 9E9, 9E9, 9E9, 9E9, 9E9, 9E9] ], v1000, fine, pen\WObj:=platform;
    MoveL [ [-3.204, -0.060, -0.010], [0.103, 0.552, -0.828, 0.000], [0, 0, 0, 0], [ 9E9, 9E9, 9E9, 9E9, 9E9, 9E9] ], v30, fine, pen\WObj:=platform;
    MoveL [ [5.318, 5.621, 48.930], [0.103, 0.552, -0.828, 0.000], [0, 0, 0, 0], [ 9E9, 9E9, 9E9, 9E9, 9E9, 9E9] ], v1000, fine, pen\WObj:=platform;
    
    !!-3.086417067604299, -0.05979999999999985;
    MoveL [ [5.341, 5.653, 48.942], [0.102, 0.558, -0.823, 0.000], [0, 0, 0, 0], [ 9E9, 9E9, 9E9, 9E9, 9E9, 9E9] ], v1000, fine, pen\WObj:=platform;
    MoveL [ [-3.086, -0.060, -0.010], [0.102, 0.558, -0.823, 0.000], [0, 0, 0, 0], [ 9E9, 9E9, 9E9, 9E9, 9E9, 9E9] ], v30, fine, pen\WObj:=platform;
    MoveL [ [5.341, 5.653, 48.942], [0.102, 0.558, -0.823, 0.000], [0, 0, 0, 0], [ 9E9, 9E9, 9E9, 9E9, 9E9, 9E9] ], v1000, fine, pen\WObj:=platform;
    
    !!-2.9693304330126424, -0.05979999999999985;
    MoveL [ [5.365, 5.686, 48.955], [0.102, 0.565, -0.819, 0.000], [0, 0, 0, 0], [ 9E9, 9E9, 9E9, 9E9, 9E9, 9E9] ], v1000, fine, pen\WObj:=platform;
    MoveL [ [-2.969, -0.060, -0.010], [0.102, 0.565, -0.819, 0.000], [0, 0, 0, 0], [ 9E9, 9E9, 9E9, 9E9, 9E9, 9E9] ], v30, fine, pen\WObj:=platform;
    MoveL [ [5.365, 5.686, 48.955], [0.102, 0.565, -0.819, 0.000], [0, 0, 0, 0], [ 9E9, 9E9, 9E9, 9E9, 9E9, 9E9] ], v1000, fine, pen\WObj:=platform;
    
    !!-2.8522437984209863, -0.05979999999999985;
    MoveL [ [5.388, 5.718, 48.967], [0.101, 0.571, -0.815, 0.000], [0, 0, 0, 0], [ 9E9, 9E9, 9E9, 9E9, 9E9, 9E9] ], v1000, fine, pen\WObj:=platform;
    MoveL [ [-2.852, -0.060, -0.010], [0.101, 0.571, -0.815, 0.000], [0, 0, 0, 0], [ 9E9, 9E9, 9E9, 9E9, 9E9, 9E9] ], v30, fine, pen\WObj:=platform;
    MoveL [ [5.388, 5.718, 48.967], [0.101, 0.571, -0.815, 0.000], [0, 0, 0, 0], [ 9E9, 9E9, 9E9, 9E9, 9E9, 9E9] ], v1000, fine, pen\WObj:=platform;
    
    !!-2.735157163829331, -0.05979999999999985;
    MoveL [ [1.039, 4.263, 49.660], [0.057, 0.752, -0.657, 0.000], [0, 0, 0, 0], [ 9E9, 9E9, 9E9, 9E9, 9E9, 9E9] ], v1000, fine, pen\WObj:=platform;
    MoveL [ [-2.735, -0.060, -0.010], [0.057, 0.752, -0.657, 0.000], [0, 0, 0, 0], [ 9E9, 9E9, 9E9, 9E9, 9E9, 9E9] ], v30, fine, pen\WObj:=platform;
    MoveL [ [1.039, 4.263, 49.660], [0.057, 0.752, -0.657, 0.000], [0, 0, 0, 0], [ 9E9, 9E9, 9E9, 9E9, 9E9, 9E9] ], v1000, fine, pen\WObj:=platform;
    
    !!-2.6180705292376745, -0.05979999999999985;
    MoveL [ [1.573, -2.251, 49.766], [0.047, -0.463, -0.885, 0.000], [0, 0, 0, 0], [ 9E9, 9E9, 9E9, 9E9, 9E9, 9E9] ], v1000, fine, pen\WObj:=platform;
    MoveL [ [-2.618, -0.060, -0.010], [0.047, -0.463, -0.885, 0.000], [0, 0, 0, 0], [ 9E9, 9E9, 9E9, 9E9, 9E9, 9E9] ], v30, fine, pen\WObj:=platform;
    MoveL [ [1.573, -2.251, 49.766], [0.047, -0.463, -0.885, 0.000], [0, 0, 0, 0], [ 9E9, 9E9, 9E9, 9E9, 9E9, 9E9] ], v1000, fine, pen\WObj:=platform;
    
    !!-2.5009838946460183, -0.05979999999999985;
    MoveL [ [1.594, -2.245, 49.774], [0.046, -0.470, -0.881, 0.000], [0, 0, 0, 0], [ 9E9, 9E9, 9E9, 9E9, 9E9, 9E9] ], v1000, fine, pen\WObj:=platform;
    MoveL [ [-2.501, -0.060, -0.010], [0.046, -0.470, -0.881, 0.000], [0, 0, 0, 0], [ 9E9, 9E9, 9E9, 9E9, 9E9, 9E9] ], v30, fine, pen\WObj:=platform;
    MoveL [ [1.594, -2.245, 49.774], [0.046, -0.470, -0.881, 0.000], [0, 0, 0, 0], [ 9E9, 9E9, 9E9, 9E9, 9E9, 9E9] ], v1000, fine, pen\WObj:=platform;
    
    !!-2.3838972600543618, -0.05979999999999985;
    MoveL [ [1.093, 4.328, 49.676], [0.056, 0.783, -0.620, 0.000], [0, 0, 0, 0], [ 9E9, 9E9, 9E9, 9E9, 9E9, 9E9] ], v1000, fine, pen\WObj:=platform;
    MoveL [ [-2.384, -0.060, -0.010], [0.056, 0.783, -0.620, 0.000], [0, 0, 0, 0], [ 9E9, 9E9, 9E9, 9E9, 9E9, 9E9] ], v30, fine, pen\WObj:=platform;
    MoveL [ [1.093, 4.328, 49.676], [0.056, 0.783, -0.620, 0.000], [0, 0, 0, 0], [ 9E9, 9E9, 9E9, 9E9, 9E9, 9E9] ], v1000, fine, pen\WObj:=platform;
    
    !!-2.2668106254627056, -0.05979999999999985;
    MoveL [ [5.505, 5.882, 49.024], [0.098, 0.604, -0.791, 0.000], [0, 0, 0, 0], [ 9E9, 9E9, 9E9, 9E9, 9E9, 9E9] ], v1000, fine, pen\WObj:=platform;
    MoveL [ [-2.267, -0.060, -0.010], [0.098, 0.604, -0.791, 0.000], [0, 0, 0, 0], [ 9E9, 9E9, 9E9, 9E9, 9E9, 9E9] ], v30, fine, pen\WObj:=platform;
    MoveL [ [5.505, 5.882, 49.024], [0.098, 0.604, -0.791, 0.000], [0, 0, 0, 0], [ 9E9, 9E9, 9E9, 9E9, 9E9, 9E9] ], v1000, fine, pen\WObj:=platform;
    
    !!-2.1497239908710495, -0.05979999999999985;
    MoveL [ [5.528, 5.915, 49.034], [0.098, 0.611, -0.785, 0.000], [0, 0, 0, 0], [ 9E9, 9E9, 9E9, 9E9, 9E9, 9E9] ], v1000, fine, pen\WObj:=platform;
    MoveL [ [-2.150, -0.060, -0.010], [0.098, 0.611, -0.785, 0.000], [0, 0, 0, 0], [ 9E9, 9E9, 9E9, 9E9, 9E9, 9E9] ], v30, fine, pen\WObj:=platform;
    MoveL [ [5.528, 5.915, 49.034], [0.098, 0.611, -0.785, 0.000], [0, 0, 0, 0], [ 9E9, 9E9, 9E9, 9E9, 9E9, 9E9] ], v1000, fine, pen\WObj:=platform;
    
    !!-2.032637356279394, -0.05979999999999985;
    MoveL [ [5.551, 5.948, 49.045], [0.097, 0.618, -0.780, 0.000], [0, 0, 0, 0], [ 9E9, 9E9, 9E9, 9E9, 9E9, 9E9] ], v1000, fine, pen\WObj:=platform;
    MoveL [ [-2.033, -0.060, -0.010], [0.097, 0.618, -0.780, 0.000], [0, 0, 0, 0], [ 9E9, 9E9, 9E9, 9E9, 9E9, 9E9] ], v30, fine, pen\WObj:=platform;
    MoveL [ [5.551, 5.948, 49.045], [0.097, 0.618, -0.780, 0.000], [0, 0, 0, 0], [ 9E9, 9E9, 9E9, 9E9, 9E9, 9E9] ], v1000, fine, pen\WObj:=platform;
    
    !!-1.9155507216877377, -0.05979999999999985;
    MoveL [ [5.574, 5.981, 49.055], [0.097, 0.625, -0.775, 0.000], [0, 0, 0, 0], [ 9E9, 9E9, 9E9, 9E9, 9E9, 9E9] ], v1000, fine, pen\WObj:=platform;
    MoveL [ [-1.916, -0.060, -0.010], [0.097, 0.625, -0.775, 0.000], [0, 0, 0, 0], [ 9E9, 9E9, 9E9, 9E9, 9E9, 9E9] ], v30, fine, pen\WObj:=platform;
    MoveL [ [5.574, 5.981, 49.055], [0.097, 0.625, -0.775, 0.000], [0, 0, 0, 0], [ 9E9, 9E9, 9E9, 9E9, 9E9, 9E9] ], v1000, fine, pen\WObj:=platform;
    
    !!-1.7984640870960813, -0.05979999999999985;
    MoveL [ [5.597, 6.014, 49.066], [0.096, 0.632, -0.769, 0.000], [0, 0, 0, 0], [ 9E9, 9E9, 9E9, 9E9, 9E9, 9E9] ], v1000, fine, pen\WObj:=platform;
    MoveL [ [-1.798, -0.060, -0.010], [0.096, 0.632, -0.769, 0.000], [0, 0, 0, 0], [ 9E9, 9E9, 9E9, 9E9, 9E9, 9E9] ], v30, fine, pen\WObj:=platform;
    MoveL [ [5.597, 6.014, 49.066], [0.096, 0.632, -0.769, 0.000], [0, 0, 0, 0], [ 9E9, 9E9, 9E9, 9E9, 9E9, 9E9] ], v1000, fine, pen\WObj:=platform;
    
    !!-1.6813774525044254, -0.05979999999999985;
    MoveL [ [1.202, 4.458, 49.702], [0.054, 0.842, -0.537, 0.000], [0, 0, 0, 0], [ 9E9, 9E9, 9E9, 9E9, 9E9, 9E9] ], v1000, fine, pen\WObj:=platform;
    MoveL [ [-1.681, -0.060, -0.010], [0.054, 0.842, -0.537, 0.000], [0, 0, 0, 0], [ 9E9, 9E9, 9E9, 9E9, 9E9, 9E9] ], v30, fine, pen\WObj:=platform;
    MoveL [ [1.202, 4.458, 49.702], [0.054, 0.842, -0.537, 0.000], [0, 0, 0, 0], [ 9E9, 9E9, 9E9, 9E9, 9E9, 9E9] ], v1000, fine, pen\WObj:=platform;
    
    !!-1.5642908179127697, -0.05979999999999985;
    MoveL [ [1.220, 4.479, 49.706], [0.053, 0.851, -0.522, 0.000], [0, 0, 0, 0], [ 9E9, 9E9, 9E9, 9E9, 9E9, 9E9] ], v1000, fine, pen\WObj:=platform;
    MoveL [ [-1.564, -0.060, -0.010], [0.053, 0.851, -0.522, 0.000], [0, 0, 0, 0], [ 9E9, 9E9, 9E9, 9E9, 9E9, 9E9] ], v30, fine, pen\WObj:=platform;
    MoveL [ [1.220, 4.479, 49.706], [0.053, 0.851, -0.522, 0.000], [0, 0, 0, 0], [ 9E9, 9E9, 9E9, 9E9, 9E9, 9E9] ], v1000, fine, pen\WObj:=platform;
    
    !!-1.4472041833211136, -0.05979999999999985;
    MoveL [ [5.666, 6.113, 49.095], [0.095, 0.653, -0.752, 0.000], [0, 0, 0, 0], [ 9E9, 9E9, 9E9, 9E9, 9E9, 9E9] ], v1000, fine, pen\WObj:=platform;
    MoveL [ [-1.447, -0.060, -0.010], [0.095, 0.653, -0.752, 0.000], [0, 0, 0, 0], [ 9E9, 9E9, 9E9, 9E9, 9E9, 9E9] ], v30, fine, pen\WObj:=platform;
    MoveL [ [5.666, 6.113, 49.095], [0.095, 0.653, -0.752, 0.000], [0, 0, 0, 0], [ 9E9, 9E9, 9E9, 9E9, 9E9, 9E9] ], v1000, fine, pen\WObj:=platform;
    
    !!-1.3301175487294572, -0.05979999999999985;
    MoveL [ [5.688, 6.146, 49.104], [0.094, 0.659, -0.746, 0.000], [0, 0, 0, 0], [ 9E9, 9E9, 9E9, 9E9, 9E9, 9E9] ], v1000, fine, pen\WObj:=platform;
    MoveL [ [-1.330, -0.060, -0.010], [0.094, 0.659, -0.746, 0.000], [0, 0, 0, 0], [ 9E9, 9E9, 9E9, 9E9, 9E9, 9E9] ], v30, fine, pen\WObj:=platform;
    MoveL [ [5.688, 6.146, 49.104], [0.094, 0.659, -0.746, 0.000], [0, 0, 0, 0], [ 9E9, 9E9, 9E9, 9E9, 9E9, 9E9] ], v1000, fine, pen\WObj:=platform;
    
    !!-1.213030914137801, -0.05979999999999985;
    MoveL [ [5.711, 6.180, 49.114], [0.094, 0.667, -0.740, 0.000], [0, 0, 0, 0], [ 9E9, 9E9, 9E9, 9E9, 9E9, 9E9] ], v1000, fine, pen\WObj:=platform;
    MoveL [ [-1.213, -0.060, -0.010], [0.094, 0.667, -0.740, 0.000], [0, 0, 0, 0], [ 9E9, 9E9, 9E9, 9E9, 9E9, 9E9] ], v30, fine, pen\WObj:=platform;
    MoveL [ [5.711, 6.180, 49.114], [0.094, 0.667, -0.740, 0.000], [0, 0, 0, 0], [ 9E9, 9E9, 9E9, 9E9, 9E9, 9E9] ], v1000, fine, pen\WObj:=platform;
    
    !!-1.0959442795461445, -0.05979999999999985;
    MoveL [ [5.734, 6.213, 49.123], [0.093, 0.674, -0.733, 0.000], [0, 0, 0, 0], [ 9E9, 9E9, 9E9, 9E9, 9E9, 9E9] ], v1000, fine, pen\WObj:=platform;
    MoveL [ [-1.096, -0.060, -0.010], [0.093, 0.674, -0.733, 0.000], [0, 0, 0, 0], [ 9E9, 9E9, 9E9, 9E9, 9E9, 9E9] ], v30, fine, pen\WObj:=platform;
    MoveL [ [5.734, 6.213, 49.123], [0.093, 0.674, -0.733, 0.000], [0, 0, 0, 0], [ 9E9, 9E9, 9E9, 9E9, 9E9, 9E9] ], v1000, fine, pen\WObj:=platform;
    
    !!-0.9788576449544888, -0.05979999999999985;
    MoveL [ [5.756, 6.247, 49.131], [0.093, 0.681, -0.727, 0.000], [0, 0, 0, 0], [ 9E9, 9E9, 9E9, 9E9, 9E9, 9E9] ], v1000, fine, pen\WObj:=platform;
    MoveL [ [-0.979, -0.060, -0.010], [0.093, 0.681, -0.727, 0.000], [0, 0, 0, 0], [ 9E9, 9E9, 9E9, 9E9, 9E9, 9E9] ], v30, fine, pen\WObj:=platform;
    MoveL [ [5.756, 6.247, 49.131], [0.093, 0.681, -0.727, 0.000], [0, 0, 0, 0], [ 9E9, 9E9, 9E9, 9E9, 9E9, 9E9] ], v1000, fine, pen\WObj:=platform;
    
    !!-0.8617710103628327, -0.05979999999999985;
    MoveL [ [5.779, 6.280, 49.140], [0.092, 0.688, -0.720, 0.000], [0, 0, 0, 0], [ 9E9, 9E9, 9E9, 9E9, 9E9, 9E9] ], v1000, fine, pen\WObj:=platform;
    MoveL [ [-0.862, -0.060, -0.010], [0.092, 0.688, -0.720, 0.000], [0, 0, 0, 0], [ 9E9, 9E9, 9E9, 9E9, 9E9, 9E9] ], v30, fine, pen\WObj:=platform;
    MoveL [ [5.779, 6.280, 49.140], [0.092, 0.688, -0.720, 0.000], [0, 0, 0, 0], [ 9E9, 9E9, 9E9, 9E9, 9E9, 9E9] ], v1000, fine, pen\WObj:=platform;
    
    !!-0.7446843757711764, -0.05979999999999985;
    MoveL [ [5.801, 6.314, 49.148], [0.092, 0.695, -0.713, 0.000], [0, 0, 0, 0], [ 9E9, 9E9, 9E9, 9E9, 9E9, 9E9] ], v1000, fine, pen\WObj:=platform;
    MoveL [ [-0.745, -0.060, -0.010], [0.092, 0.695, -0.713, 0.000], [0, 0, 0, 0], [ 9E9, 9E9, 9E9, 9E9, 9E9, 9E9] ], v30, fine, pen\WObj:=platform;
    MoveL [ [5.801, 6.314, 49.148], [0.092, 0.695, -0.713, 0.000], [0, 0, 0, 0], [ 9E9, 9E9, 9E9, 9E9, 9E9, 9E9] ], v1000, fine, pen\WObj:=platform;
    
    !!-0.6275977411795203, -0.05979999999999985;
    MoveL [ [5.823, 6.347, 49.156], [0.091, 0.702, -0.707, 0.000], [0, 0, 0, 0], [ 9E9, 9E9, 9E9, 9E9, 9E9, 9E9] ], v1000, fine, pen\WObj:=platform;
    MoveL [ [-0.628, -0.060, -0.010], [0.091, 0.702, -0.707, 0.000], [0, 0, 0, 0], [ 9E9, 9E9, 9E9, 9E9, 9E9, 9E9] ], v30, fine, pen\WObj:=platform;
    MoveL [ [5.823, 6.347, 49.156], [0.091, 0.702, -0.707, 0.000], [0, 0, 0, 0], [ 9E9, 9E9, 9E9, 9E9, 9E9, 9E9] ], v1000, fine, pen\WObj:=platform;
    
    !!-0.5105111065878647, -0.05979999999999985;
    MoveL [ [5.845, 6.381, 49.164], [0.091, 0.709, -0.699, 0.000], [0, 0, 0, 0], [ 9E9, 9E9, 9E9, 9E9, 9E9, 9E9] ], v1000, fine, pen\WObj:=platform;
    MoveL [ [-0.511, -0.060, -0.010], [0.091, 0.709, -0.699, 0.000], [0, 0, 0, 0], [ 9E9, 9E9, 9E9, 9E9, 9E9, 9E9] ], v30, fine, pen\WObj:=platform;
    MoveL [ [5.845, 6.381, 49.164], [0.091, 0.709, -0.699, 0.000], [0, 0, 0, 0], [ 9E9, 9E9, 9E9, 9E9, 9E9, 9E9] ], v1000, fine, pen\WObj:=platform;
    
    !!-0.3934244719962085, -0.05979999999999985;
    MoveL [ [5.868, 6.415, 49.172], [0.090, 0.716, -0.692, 0.000], [0, 0, 0, 0], [ 9E9, 9E9, 9E9, 9E9, 9E9, 9E9] ], v1000, fine, pen\WObj:=platform;
    MoveL [ [-0.393, -0.060, -0.010], [0.090, 0.716, -0.692, 0.000], [0, 0, 0, 0], [ 9E9, 9E9, 9E9, 9E9, 9E9, 9E9] ], v30, fine, pen\WObj:=platform;
    MoveL [ [5.868, 6.415, 49.172], [0.090, 0.716, -0.692, 0.000], [0, 0, 0, 0], [ 9E9, 9E9, 9E9, 9E9, 9E9, 9E9] ], v1000, fine, pen\WObj:=platform;
    
    !!-0.2763378374045523, -0.05979999999999985;
    MoveL [ [5.890, 6.449, 49.180], [0.090, 0.723, -0.685, 0.000], [0, 0, 0, 0], [ 9E9, 9E9, 9E9, 9E9, 9E9, 9E9] ], v1000, fine, pen\WObj:=platform;
    MoveL [ [-0.276, -0.060, -0.010], [0.090, 0.723, -0.685, 0.000], [0, 0, 0, 0], [ 9E9, 9E9, 9E9, 9E9, 9E9, 9E9] ], v30, fine, pen\WObj:=platform;
    MoveL [ [5.890, 6.449, 49.180], [0.090, 0.723, -0.685, 0.000], [0, 0, 0, 0], [ 9E9, 9E9, 9E9, 9E9, 9E9, 9E9] ], v1000, fine, pen\WObj:=platform;
    
    !!-0.15925120281289615, -0.05979999999999985;
    MoveL [ [5.912, 6.482, 49.187], [0.090, 0.730, -0.677, 0.000], [0, 0, 0, 0], [ 9E9, 9E9, 9E9, 9E9, 9E9, 9E9] ], v1000, fine, pen\WObj:=platform;
    MoveL [ [-0.159, -0.060, -0.010], [0.090, 0.730, -0.677, 0.000], [0, 0, 0, 0], [ 9E9, 9E9, 9E9, 9E9, 9E9, 9E9] ], v30, fine, pen\WObj:=platform;
    MoveL [ [5.912, 6.482, 49.187], [0.090, 0.730, -0.677, 0.000], [0, 0, 0, 0], [ 9E9, 9E9, 9E9, 9E9, 9E9, 9E9] ], v1000, fine, pen\WObj:=platform;
    
    !!-0.04216456822123998, -0.05979999999999985;
    MoveL [ [5.933, 6.516, 49.194], [0.089, 0.737, -0.670, 0.000], [0, 0, 0, 0], [ 9E9, 9E9, 9E9, 9E9, 9E9, 9E9] ], v1000, fine, pen\WObj:=platform;
    MoveL [ [-0.042, -0.060, -0.010], [0.089, 0.737, -0.670, 0.000], [0, 0, 0, 0], [ 9E9, 9E9, 9E9, 9E9, 9E9, 9E9] ], v30, fine, pen\WObj:=platform;
    MoveL [ [5.933, 6.516, 49.194], [0.089, 0.737, -0.670, 0.000], [0, 0, 0, 0], [ 9E9, 9E9, 9E9, 9E9, 9E9, 9E9] ], v1000, fine, pen\WObj:=platform;
    
    !!0.07492206637041618, -0.05979999999999985;
    MoveL [ [5.955, 6.550, 49.201], [0.089, 0.744, -0.662, 0.000], [0, 0, 0, 0], [ 9E9, 9E9, 9E9, 9E9, 9E9, 9E9] ], v1000, fine, pen\WObj:=platform;
    MoveL [ [0.075, -0.060, -0.010], [0.089, 0.744, -0.662, 0.000], [0, 0, 0, 0], [ 9E9, 9E9, 9E9, 9E9, 9E9, 9E9] ], v30, fine, pen\WObj:=platform;
    MoveL [ [5.955, 6.550, 49.201], [0.089, 0.744, -0.662, 0.000], [0, 0, 0, 0], [ 9E9, 9E9, 9E9, 9E9, 9E9, 9E9] ], v1000, fine, pen\WObj:=platform;
    
    !!0.19200870096207287, -0.05979999999999985;
    MoveL [ [5.977, 6.584, 49.208], [0.088, 0.751, -0.654, 0.000], [0, 0, 0, 0], [ 9E9, 9E9, 9E9, 9E9, 9E9, 9E9] ], v1000, fine, pen\WObj:=platform;
    MoveL [ [0.192, -0.060, -0.010], [0.088, 0.751, -0.654, 0.000], [0, 0, 0, 0], [ 9E9, 9E9, 9E9, 9E9, 9E9, 9E9] ], v30, fine, pen\WObj:=platform;
    MoveL [ [5.977, 6.584, 49.208], [0.088, 0.751, -0.654, 0.000], [0, 0, 0, 0], [ 9E9, 9E9, 9E9, 9E9, 9E9, 9E9] ], v1000, fine, pen\WObj:=platform;
    
    !!0.3090953355537275, -0.05979999999999985;
    MoveL [ [5.999, 6.618, 49.214], [0.088, 0.758, -0.646, 0.000], [0, 0, 0, 0], [ 9E9, 9E9, 9E9, 9E9, 9E9, 9E9] ], v1000, fine, pen\WObj:=platform;
    MoveL [ [0.309, -0.060, -0.010], [0.088, 0.758, -0.646, 0.000], [0, 0, 0, 0], [ 9E9, 9E9, 9E9, 9E9, 9E9, 9E9] ], v30, fine, pen\WObj:=platform;
    MoveL [ [5.999, 6.618, 49.214], [0.088, 0.758, -0.646, 0.000], [0, 0, 0, 0], [ 9E9, 9E9, 9E9, 9E9, 9E9, 9E9] ], v1000, fine, pen\WObj:=platform;
    
    !!0.42618197014538417, -0.05979999999999985;
    MoveL [ [6.020, 6.652, 49.221], [0.088, 0.765, -0.638, 0.000], [0, 0, 0, 0], [ 9E9, 9E9, 9E9, 9E9, 9E9, 9E9] ], v1000, fine, pen\WObj:=platform;
    MoveL [ [0.426, -0.060, -0.010], [0.088, 0.765, -0.638, 0.000], [0, 0, 0, 0], [ 9E9, 9E9, 9E9, 9E9, 9E9, 9E9] ], v30, fine, pen\WObj:=platform;
    MoveL [ [6.020, 6.652, 49.221], [0.088, 0.765, -0.638, 0.000], [0, 0, 0, 0], [ 9E9, 9E9, 9E9, 9E9, 9E9, 9E9] ], v1000, fine, pen\WObj:=platform;
    
    !!0.5432686047370409, -0.05979999999999985;
    MoveL [ [6.042, 6.686, 49.227], [0.087, 0.772, -0.629, 0.000], [0, 0, 0, 0], [ 9E9, 9E9, 9E9, 9E9, 9E9, 9E9] ], v1000, fine, pen\WObj:=platform;
    MoveL [ [0.543, -0.060, -0.010], [0.087, 0.772, -0.629, 0.000], [0, 0, 0, 0], [ 9E9, 9E9, 9E9, 9E9, 9E9, 9E9] ], v30, fine, pen\WObj:=platform;
    MoveL [ [6.042, 6.686, 49.227], [0.087, 0.772, -0.629, 0.000], [0, 0, 0, 0], [ 9E9, 9E9, 9E9, 9E9, 9E9, 9E9] ], v1000, fine, pen\WObj:=platform;
    
    !!0.6603552393286966, -0.05979999999999985;
    MoveL [ [6.063, 6.720, 49.233], [0.087, 0.779, -0.621, 0.000], [0, 0, 0, 0], [ 9E9, 9E9, 9E9, 9E9, 9E9, 9E9] ], v1000, fine, pen\WObj:=platform;
    MoveL [ [0.660, -0.060, -0.010], [0.087, 0.779, -0.621, 0.000], [0, 0, 0, 0], [ 9E9, 9E9, 9E9, 9E9, 9E9, 9E9] ], v30, fine, pen\WObj:=platform;
    MoveL [ [6.063, 6.720, 49.233], [0.087, 0.779, -0.621, 0.000], [0, 0, 0, 0], [ 9E9, 9E9, 9E9, 9E9, 9E9, 9E9] ], v1000, fine, pen\WObj:=platform;
    
    !!0.7774418739203531, -0.05979999999999985;
    MoveL [ [6.084, 6.754, 49.238], [0.087, 0.786, -0.612, 0.000], [0, 0, 0, 0], [ 9E9, 9E9, 9E9, 9E9, 9E9, 9E9] ], v1000, fine, pen\WObj:=platform;
    MoveL [ [0.777, -0.060, -0.010], [0.087, 0.786, -0.612, 0.000], [0, 0, 0, 0], [ 9E9, 9E9, 9E9, 9E9, 9E9, 9E9] ], v30, fine, pen\WObj:=platform;
    MoveL [ [6.084, 6.754, 49.238], [0.087, 0.786, -0.612, 0.000], [0, 0, 0, 0], [ 9E9, 9E9, 9E9, 9E9, 9E9, 9E9] ], v1000, fine, pen\WObj:=platform;
    
    !!0.8945285085120089, -0.05979999999999985;
    MoveL [ [6.105, 6.789, 49.244], [0.086, 0.793, -0.603, 0.000], [0, 0, 0, 0], [ 9E9, 9E9, 9E9, 9E9, 9E9, 9E9] ], v1000, fine, pen\WObj:=platform;
    MoveL [ [0.895, -0.060, -0.010], [0.086, 0.793, -0.603, 0.000], [0, 0, 0, 0], [ 9E9, 9E9, 9E9, 9E9, 9E9, 9E9] ], v30, fine, pen\WObj:=platform;
    MoveL [ [6.105, 6.789, 49.244], [0.086, 0.793, -0.603, 0.000], [0, 0, 0, 0], [ 9E9, 9E9, 9E9, 9E9, 9E9, 9E9] ], v1000, fine, pen\WObj:=platform;
    
    !!1.0116151431036655, -0.05979999999999985;
    MoveL [ [6.126, 6.823, 49.249], [0.086, 0.800, -0.594, 0.000], [0, 0, 0, 0], [ 9E9, 9E9, 9E9, 9E9, 9E9, 9E9] ], v1000, fine, pen\WObj:=platform;
    MoveL [ [1.012, -0.060, -0.010], [0.086, 0.800, -0.594, 0.000], [0, 0, 0, 0], [ 9E9, 9E9, 9E9, 9E9, 9E9, 9E9] ], v30, fine, pen\WObj:=platform;
    MoveL [ [6.126, 6.823, 49.249], [0.086, 0.800, -0.594, 0.000], [0, 0, 0, 0], [ 9E9, 9E9, 9E9, 9E9, 9E9, 9E9] ], v1000, fine, pen\WObj:=platform;
    
    !!1.1287017776953212, -0.05979999999999985;
    MoveL [ [6.147, 6.857, 49.254], [0.086, 0.806, -0.585, 0.000], [0, 0, 0, 0], [ 9E9, 9E9, 9E9, 9E9, 9E9, 9E9] ], v1000, fine, pen\WObj:=platform;
    MoveL [ [1.129, -0.060, -0.010], [0.086, 0.806, -0.585, 0.000], [0, 0, 0, 0], [ 9E9, 9E9, 9E9, 9E9, 9E9, 9E9] ], v30, fine, pen\WObj:=platform;
    MoveL [ [6.147, 6.857, 49.254], [0.086, 0.806, -0.585, 0.000], [0, 0, 0, 0], [ 9E9, 9E9, 9E9, 9E9, 9E9, 9E9] ], v1000, fine, pen\WObj:=platform;
    
    !!1.245788412286978, -0.05979999999999985;
    MoveL [ [6.168, 6.892, 49.259], [0.085, 0.813, -0.576, 0.000], [0, 0, 0, 0], [ 9E9, 9E9, 9E9, 9E9, 9E9, 9E9] ], v1000, fine, pen\WObj:=platform;
    MoveL [ [1.246, -0.060, -0.010], [0.085, 0.813, -0.576, 0.000], [0, 0, 0, 0], [ 9E9, 9E9, 9E9, 9E9, 9E9, 9E9] ], v30, fine, pen\WObj:=platform;
    MoveL [ [6.168, 6.892, 49.259], [0.085, 0.813, -0.576, 0.000], [0, 0, 0, 0], [ 9E9, 9E9, 9E9, 9E9, 9E9, 9E9] ], v1000, fine, pen\WObj:=platform;
    
    !!1.3628750468786324, -0.05979999999999985;
    MoveL [ [6.188, 6.926, 49.264], [0.085, 0.820, -0.566, 0.000], [0, 0, 0, 0], [ 9E9, 9E9, 9E9, 9E9, 9E9, 9E9] ], v1000, fine, pen\WObj:=platform;
    MoveL [ [1.363, -0.060, -0.010], [0.085, 0.820, -0.566, 0.000], [0, 0, 0, 0], [ 9E9, 9E9, 9E9, 9E9, 9E9, 9E9] ], v30, fine, pen\WObj:=platform;
    MoveL [ [6.188, 6.926, 49.264], [0.085, 0.820, -0.566, 0.000], [0, 0, 0, 0], [ 9E9, 9E9, 9E9, 9E9, 9E9, 9E9] ], v1000, fine, pen\WObj:=platform;
    
    !!1.4799616814702894, -0.05979999999999985;
    MoveL [ [7.212, -2.157, 49.616], [0.061, -0.343, -0.937, 0.000], [0, 0, 0, 0], [ 9E9, 9E9, 9E9, 9E9, 9E9, 9E9] ], v1000, fine, pen\WObj:=platform;
    MoveL [ [1.480, -0.060, -0.010], [0.061, -0.343, -0.937, 0.000], [0, 0, 0, 0], [ 9E9, 9E9, 9E9, 9E9, 9E9, 9E9] ], v30, fine, pen\WObj:=platform;
    MoveL [ [7.212, -2.157, 49.616], [0.061, -0.343, -0.937, 0.000], [0, 0, 0, 0], [ 9E9, 9E9, 9E9, 9E9, 9E9, 9E9] ], v1000, fine, pen\WObj:=platform;
    
    !!1.597048316061946, -0.05979999999999985;
    MoveL [ [-1.736, 3.710, 49.736], [0.050, 0.748, 0.662, 0.000], [0, 0, 0, 0], [ 9E9, 9E9, 9E9, 9E9, 9E9, 9E9] ], v1000, fine, pen\WObj:=platform;
    MoveL [ [1.597, -0.060, -0.010], [0.050, 0.748, 0.662, 0.000], [0, 0, 0, 0], [ 9E9, 9E9, 9E9, 9E9, 9E9, 9E9] ], v30, fine, pen\WObj:=platform;
    MoveL [ [-1.736, 3.710, 49.736], [0.050, 0.748, 0.662, 0.000], [0, 0, 0, 0], [ 9E9, 9E9, 9E9, 9E9, 9E9, 9E9] ], v1000, fine, pen\WObj:=platform;
    
    !!1.7141349506536017, -0.05979999999999985;
    MoveL [ [6.250, 7.029, 49.277], [0.084, 0.839, -0.537, 0.000], [0, 0, 0, 0], [ 9E9, 9E9, 9E9, 9E9, 9E9, 9E9] ], v1000, fine, pen\WObj:=platform;
    MoveL [ [1.714, -0.060, -0.010], [0.084, 0.839, -0.537, 0.000], [0, 0, 0, 0], [ 9E9, 9E9, 9E9, 9E9, 9E9, 9E9] ], v30, fine, pen\WObj:=platform;
    MoveL [ [6.250, 7.029, 49.277], [0.084, 0.839, -0.537, 0.000], [0, 0, 0, 0], [ 9E9, 9E9, 9E9, 9E9, 9E9, 9E9] ], v1000, fine, pen\WObj:=platform;
    
    !!1.8312215852452582, -0.05979999999999985;
    MoveL [ [6.270, 7.064, 49.281], [0.084, 0.846, -0.527, 0.000], [0, 0, 0, 0], [ 9E9, 9E9, 9E9, 9E9, 9E9, 9E9] ], v1000, fine, pen\WObj:=platform;
    MoveL [ [1.831, -0.060, -0.010], [0.084, 0.846, -0.527, 0.000], [0, 0, 0, 0], [ 9E9, 9E9, 9E9, 9E9, 9E9, 9E9] ], v30, fine, pen\WObj:=platform;
    MoveL [ [6.270, 7.064, 49.281], [0.084, 0.846, -0.527, 0.000], [0, 0, 0, 0], [ 9E9, 9E9, 9E9, 9E9, 9E9, 9E9] ], v1000, fine, pen\WObj:=platform;
    
    !!1.948308219836914, -0.05979999999999985;
    MoveL [ [6.290, 7.098, 49.284], [0.084, 0.852, -0.517, 0.000], [0, 0, 0, 0], [ 9E9, 9E9, 9E9, 9E9, 9E9, 9E9] ], v1000, fine, pen\WObj:=platform;
    MoveL [ [1.948, -0.060, -0.010], [0.084, 0.852, -0.517, 0.000], [0, 0, 0, 0], [ 9E9, 9E9, 9E9, 9E9, 9E9, 9E9] ], v30, fine, pen\WObj:=platform;
    MoveL [ [6.290, 7.098, 49.284], [0.084, 0.852, -0.517, 0.000], [0, 0, 0, 0], [ 9E9, 9E9, 9E9, 9E9, 9E9, 9E9] ], v1000, fine, pen\WObj:=platform;
    
    !!2.0653948544285705, -0.05979999999999985;
    MoveL [ [6.310, 7.133, 49.288], [0.084, 0.858, -0.506, 0.000], [0, 0, 0, 0], [ 9E9, 9E9, 9E9, 9E9, 9E9, 9E9] ], v1000, fine, pen\WObj:=platform;
    MoveL [ [2.065, -0.060, -0.010], [0.084, 0.858, -0.506, 0.000], [0, 0, 0, 0], [ 9E9, 9E9, 9E9, 9E9, 9E9, 9E9] ], v30, fine, pen\WObj:=platform;
    MoveL [ [6.310, 7.133, 49.288], [0.084, 0.858, -0.506, 0.000], [0, 0, 0, 0], [ 9E9, 9E9, 9E9, 9E9, 9E9, 9E9] ], v1000, fine, pen\WObj:=platform;
    
    !!2.182481489020226, -0.05979999999999985;
    MoveL [ [6.330, 7.167, 49.291], [0.084, 0.864, -0.496, 0.000], [0, 0, 0, 0], [ 9E9, 9E9, 9E9, 9E9, 9E9, 9E9] ], v1000, fine, pen\WObj:=platform;
    MoveL [ [2.182, -0.060, -0.010], [0.084, 0.864, -0.496, 0.000], [0, 0, 0, 0], [ 9E9, 9E9, 9E9, 9E9, 9E9, 9E9] ], v30, fine, pen\WObj:=platform;
    MoveL [ [6.330, 7.167, 49.291], [0.084, 0.864, -0.496, 0.000], [0, 0, 0, 0], [ 9E9, 9E9, 9E9, 9E9, 9E9, 9E9] ], v1000, fine, pen\WObj:=platform;
    
    !!2.299568123611883, -0.05979999999999985;
    MoveL [ [6.349, 7.202, 49.294], [0.083, 0.870, -0.485, 0.000], [0, 0, 0, 0], [ 9E9, 9E9, 9E9, 9E9, 9E9, 9E9] ], v1000, fine, pen\WObj:=platform;
    MoveL [ [2.300, -0.060, -0.010], [0.083, 0.870, -0.485, 0.000], [0, 0, 0, 0], [ 9E9, 9E9, 9E9, 9E9, 9E9, 9E9] ], v30, fine, pen\WObj:=platform;
    MoveL [ [6.349, 7.202, 49.294], [0.083, 0.870, -0.485, 0.000], [0, 0, 0, 0], [ 9E9, 9E9, 9E9, 9E9, 9E9, 9E9] ], v1000, fine, pen\WObj:=platform;
    
    !!2.4166547582035376, -0.05979999999999985;
    MoveL [ [6.369, 7.236, 49.297], [0.083, 0.876, -0.475, 0.000], [0, 0, 0, 0], [ 9E9, 9E9, 9E9, 9E9, 9E9, 9E9] ], v1000, fine, pen\WObj:=platform;
    MoveL [ [2.417, -0.060, -0.010], [0.083, 0.876, -0.475, 0.000], [0, 0, 0, 0], [ 9E9, 9E9, 9E9, 9E9, 9E9, 9E9] ], v30, fine, pen\WObj:=platform;
    MoveL [ [6.369, 7.236, 49.297], [0.083, 0.876, -0.475, 0.000], [0, 0, 0, 0], [ 9E9, 9E9, 9E9, 9E9, 9E9, 9E9] ], v1000, fine, pen\WObj:=platform;
    
    !!2.533741392795194, -0.05979999999999985;
    MoveL [ [6.388, 7.271, 49.299], [0.083, 0.882, -0.464, 0.000], [0, 0, 0, 0], [ 9E9, 9E9, 9E9, 9E9, 9E9, 9E9] ], v1000, fine, pen\WObj:=platform;
    MoveL [ [2.534, -0.060, -0.010], [0.083, 0.882, -0.464, 0.000], [0, 0, 0, 0], [ 9E9, 9E9, 9E9, 9E9, 9E9, 9E9] ], v30, fine, pen\WObj:=platform;
    MoveL [ [6.388, 7.271, 49.299], [0.083, 0.882, -0.464, 0.000], [0, 0, 0, 0], [ 9E9, 9E9, 9E9, 9E9, 9E9, 9E9] ], v1000, fine, pen\WObj:=platform;
    
    !!2.65082802738685, -0.05979999999999985;
    MoveL [ [6.407, 7.306, 49.302], [0.083, 0.888, -0.453, 0.000], [0, 0, 0, 0], [ 9E9, 9E9, 9E9, 9E9, 9E9, 9E9] ], v1000, fine, pen\WObj:=platform;
    MoveL [ [2.651, -0.060, -0.010], [0.083, 0.888, -0.453, 0.000], [0, 0, 0, 0], [ 9E9, 9E9, 9E9, 9E9, 9E9, 9E9] ], v30, fine, pen\WObj:=platform;
    MoveL [ [6.407, 7.306, 49.302], [0.083, 0.888, -0.453, 0.000], [0, 0, 0, 0], [ 9E9, 9E9, 9E9, 9E9, 9E9, 9E9] ], v1000, fine, pen\WObj:=platform;
    
    !!2.767914661978507, -0.05979999999999985;
    MoveL [ [1.868, 5.272, 49.697], [0.054, 0.985, 0.166, 0.000], [0, 0, 0, 0], [ 9E9, 9E9, 9E9, 9E9, 9E9, 9E9] ], v1000, fine, pen\WObj:=platform;
    MoveL [ [2.768, -0.060, -0.010], [0.054, 0.985, 0.166, 0.000], [0, 0, 0, 0], [ 9E9, 9E9, 9E9, 9E9, 9E9, 9E9] ], v30, fine, pen\WObj:=platform;
    MoveL [ [1.868, 5.272, 49.697], [0.054, 0.985, 0.166, 0.000], [0, 0, 0, 0], [ 9E9, 9E9, 9E9, 9E9, 9E9, 9E9] ], v1000, fine, pen\WObj:=platform;
    
    !!2.885001296570163, -0.05979999999999985;
    MoveL [ [2.505, -1.943, 49.953], [0.019, -0.980, 0.198, 0.000], [0, 0, 0, 0], [ 9E9, 9E9, 9E9, 9E9, 9E9, 9E9] ], v1000, fine, pen\WObj:=platform;
    MoveL [ [2.885, -0.060, -0.010], [0.019, -0.980, 0.198, 0.000], [0, 0, 0, 0], [ 9E9, 9E9, 9E9, 9E9, 9E9, 9E9] ], v30, fine, pen\WObj:=platform;
    MoveL [ [2.505, -1.943, 49.953], [0.019, -0.980, 0.198, 0.000], [0, 0, 0, 0], [ 9E9, 9E9, 9E9, 9E9, 9E9, 9E9] ], v1000, fine, pen\WObj:=platform;
    
    !!3.0020879311618187, -0.05979999999999985;
    MoveL [ [1.902, 5.314, 49.688], [0.055, 0.978, 0.200, 0.000], [0, 0, 0, 0], [ 9E9, 9E9, 9E9, 9E9, 9E9, 9E9] ], v1000, fine, pen\WObj:=platform;
    MoveL [ [3.002, -0.060, -0.010], [0.055, 0.978, 0.200, 0.000], [0, 0, 0, 0], [ 9E9, 9E9, 9E9, 9E9, 9E9, 9E9] ], v30, fine, pen\WObj:=platform;
    MoveL [ [1.902, 5.314, 49.688], [0.055, 0.978, 0.200, 0.000], [0, 0, 0, 0], [ 9E9, 9E9, 9E9, 9E9, 9E9, 9E9] ], v1000, fine, pen\WObj:=platform;
    
    !!3.1191745657534753, -0.05979999999999985;
    MoveL [ [1.918, 5.335, 49.684], [0.055, 0.975, 0.217, 0.000], [0, 0, 0, 0], [ 9E9, 9E9, 9E9, 9E9, 9E9, 9E9] ], v1000, fine, pen\WObj:=platform;
    MoveL [ [3.119, -0.060, -0.010], [0.055, 0.975, 0.217, 0.000], [0, 0, 0, 0], [ 9E9, 9E9, 9E9, 9E9, 9E9, 9E9] ], v30, fine, pen\WObj:=platform;
    MoveL [ [1.918, 5.335, 49.684], [0.055, 0.975, 0.217, 0.000], [0, 0, 0, 0], [ 9E9, 9E9, 9E9, 9E9, 9E9, 9E9] ], v1000, fine, pen\WObj:=platform;
    
    !!3.2362612003451314, -0.05979999999999985;
    MoveL [ [-1.077, -1.884, 49.770], [0.047, -0.389, 0.920, 0.000], [0, 0, 0, 0], [ 9E9, 9E9, 9E9, 9E9, 9E9, 9E9] ], v1000, fine, pen\WObj:=platform;
    MoveL [ [3.236, -0.060, -0.010], [0.047, -0.389, 0.920, 0.000], [0, 0, 0, 0], [ 9E9, 9E9, 9E9, 9E9, 9E9, 9E9] ], v30, fine, pen\WObj:=platform;
    MoveL [ [-1.077, -1.884, 49.770], [0.047, -0.389, 0.920, 0.000], [0, 0, 0, 0], [ 9E9, 9E9, 9E9, 9E9, 9E9, 9E9] ], v1000, fine, pen\WObj:=platform;
    
    !!3.353347834936788, -0.05979999999999985;
    MoveL [ [-3.816, -6.624, 49.036], [0.098, -0.672, 0.734, 0.000], [0, 0, 0, 0], [ 9E9, 9E9, 9E9, 9E9, 9E9, 9E9] ], v1000, fine, pen\WObj:=platform;
    MoveL [ [3.353, -0.060, -0.010], [0.098, -0.672, 0.734, 0.000], [0, 0, 0, 0], [ 9E9, 9E9, 9E9, 9E9, 9E9, 9E9] ], v30, fine, pen\WObj:=platform;
    MoveL [ [-3.816, -6.624, 49.036], [0.098, -0.672, 0.734, 0.000], [0, 0, 0, 0], [ 9E9, 9E9, 9E9, 9E9, 9E9, 9E9] ], v1000, fine, pen\WObj:=platform;
    
    !!3.4704344695284433, -0.05979999999999985;
    MoveL [ [-1.036, -1.872, 49.753], [0.049, -0.373, 0.927, 0.000], [0, 0, 0, 0], [ 9E9, 9E9, 9E9, 9E9, 9E9, 9E9] ], v1000, fine, pen\WObj:=platform;
    MoveL [ [3.470, -0.060, -0.010], [0.049, -0.373, 0.927, 0.000], [0, 0, 0, 0], [ 9E9, 9E9, 9E9, 9E9, 9E9, 9E9] ], v30, fine, pen\WObj:=platform;
    MoveL [ [-1.036, -1.872, 49.753], [0.049, -0.373, 0.927, 0.000], [0, 0, 0, 0], [ 9E9, 9E9, 9E9, 9E9, 9E9, 9E9] ], v1000, fine, pen\WObj:=platform;
    
    !!3.5875211041200994, -0.05979999999999985;
    MoveL [ [6.556, 7.584, 49.313], [0.082, 0.929, -0.361, 0.000], [0, 0, 0, 0], [ 9E9, 9E9, 9E9, 9E9, 9E9, 9E9] ], v1000, fine, pen\WObj:=platform;
    MoveL [ [3.588, -0.060, -0.010], [0.082, 0.929, -0.361, 0.000], [0, 0, 0, 0], [ 9E9, 9E9, 9E9, 9E9, 9E9, 9E9] ], v30, fine, pen\WObj:=platform;
    MoveL [ [6.556, 7.584, 49.313], [0.082, 0.929, -0.361, 0.000], [0, 0, 0, 0], [ 9E9, 9E9, 9E9, 9E9, 9E9, 9E9] ], v1000, fine, pen\WObj:=platform;
    
    !!3.704607738711755, -0.05979999999999985;
    MoveL [ [6.574, 7.619, 49.314], [0.082, 0.934, -0.349, 0.000], [0, 0, 0, 0], [ 9E9, 9E9, 9E9, 9E9, 9E9, 9E9] ], v1000, fine, pen\WObj:=platform;
    MoveL [ [3.705, -0.060, -0.010], [0.082, 0.934, -0.349, 0.000], [0, 0, 0, 0], [ 9E9, 9E9, 9E9, 9E9, 9E9, 9E9] ], v30, fine, pen\WObj:=platform;
    MoveL [ [6.574, 7.619, 49.314], [0.082, 0.934, -0.349, 0.000], [0, 0, 0, 0], [ 9E9, 9E9, 9E9, 9E9, 9E9, 9E9] ], v1000, fine, pen\WObj:=platform;
    
    !!3.821694373303411, -0.05979999999999985;
    MoveL [ [6.591, 7.654, 49.314], [0.082, 0.938, -0.337, 0.000], [0, 0, 0, 0], [ 9E9, 9E9, 9E9, 9E9, 9E9, 9E9] ], v1000, fine, pen\WObj:=platform;
    MoveL [ [3.822, -0.060, -0.010], [0.082, 0.938, -0.337, 0.000], [0, 0, 0, 0], [ 9E9, 9E9, 9E9, 9E9, 9E9, 9E9] ], v30, fine, pen\WObj:=platform;
    MoveL [ [6.591, 7.654, 49.314], [0.082, 0.938, -0.337, 0.000], [0, 0, 0, 0], [ 9E9, 9E9, 9E9, 9E9, 9E9, 9E9] ], v1000, fine, pen\WObj:=platform;
    
    !!3.9387810078950682, -0.05979999999999985;
    MoveL [ [6.609, 7.688, 49.314], [0.082, 0.942, -0.325, 0.000], [0, 0, 0, 0], [ 9E9, 9E9, 9E9, 9E9, 9E9, 9E9] ], v1000, fine, pen\WObj:=platform;
    MoveL [ [3.939, -0.060, -0.010], [0.082, 0.942, -0.325, 0.000], [0, 0, 0, 0], [ 9E9, 9E9, 9E9, 9E9, 9E9, 9E9] ], v30, fine, pen\WObj:=platform;
    MoveL [ [6.609, 7.688, 49.314], [0.082, 0.942, -0.325, 0.000], [0, 0, 0, 0], [ 9E9, 9E9, 9E9, 9E9, 9E9, 9E9] ], v1000, fine, pen\WObj:=platform;
    
    !!4.055867642486724, -0.05979999999999985;
    MoveL [ [6.626, 7.723, 49.314], [0.082, 0.946, -0.313, 0.000], [0, 0, 0, 0], [ 9E9, 9E9, 9E9, 9E9, 9E9, 9E9] ], v1000, fine, pen\WObj:=platform;
    MoveL [ [4.056, -0.060, -0.010], [0.082, 0.946, -0.313, 0.000], [0, 0, 0, 0], [ 9E9, 9E9, 9E9, 9E9, 9E9, 9E9] ], v30, fine, pen\WObj:=platform;
    MoveL [ [6.626, 7.723, 49.314], [0.082, 0.946, -0.313, 0.000], [0, 0, 0, 0], [ 9E9, 9E9, 9E9, 9E9, 9E9, 9E9] ], v1000, fine, pen\WObj:=platform;
    
    !!4.1729542770783805, -0.05979999999999985;
    MoveL [ [6.643, 7.758, 49.313], [0.082, 0.950, -0.300, 0.000], [0, 0, 0, 0], [ 9E9, 9E9, 9E9, 9E9, 9E9, 9E9] ], v1000, fine, pen\WObj:=platform;
    MoveL [ [4.173, -0.060, -0.010], [0.082, 0.950, -0.300, 0.000], [0, 0, 0, 0], [ 9E9, 9E9, 9E9, 9E9, 9E9, 9E9] ], v30, fine, pen\WObj:=platform;
    MoveL [ [6.643, 7.758, 49.313], [0.082, 0.950, -0.300, 0.000], [0, 0, 0, 0], [ 9E9, 9E9, 9E9, 9E9, 9E9, 9E9] ], v1000, fine, pen\WObj:=platform;
    
    !!4.290040911670036, -0.05979999999999985;
    MoveL [ [6.660, 7.793, 49.313], [0.082, 0.954, -0.288, 0.000], [0, 0, 0, 0], [ 9E9, 9E9, 9E9, 9E9, 9E9, 9E9] ], v1000, fine, pen\WObj:=platform;
    MoveL [ [4.290, -0.060, -0.010], [0.082, 0.954, -0.288, 0.000], [0, 0, 0, 0], [ 9E9, 9E9, 9E9, 9E9, 9E9, 9E9] ], v30, fine, pen\WObj:=platform;
    MoveL [ [6.660, 7.793, 49.313], [0.082, 0.954, -0.288, 0.000], [0, 0, 0, 0], [ 9E9, 9E9, 9E9, 9E9, 9E9, 9E9] ], v1000, fine, pen\WObj:=platform;
    
    !!4.407127546261693, -0.05979999999999985;
    MoveL [ [6.677, 7.828, 49.312], [0.082, 0.958, -0.276, 0.000], [0, 0, 0, 0], [ 9E9, 9E9, 9E9, 9E9, 9E9, 9E9] ], v1000, fine, pen\WObj:=platform;
    MoveL [ [4.407, -0.060, -0.010], [0.082, 0.958, -0.276, 0.000], [0, 0, 0, 0], [ 9E9, 9E9, 9E9, 9E9, 9E9, 9E9] ], v30, fine, pen\WObj:=platform;
    MoveL [ [6.677, 7.828, 49.312], [0.082, 0.958, -0.276, 0.000], [0, 0, 0, 0], [ 9E9, 9E9, 9E9, 9E9, 9E9, 9E9] ], v1000, fine, pen\WObj:=platform;
    
    !!4.524214180853349, -0.05979999999999985;
    MoveL [ [6.694, 7.863, 49.311], [0.082, 0.961, -0.263, 0.000], [0, 0, 0, 0], [ 9E9, 9E9, 9E9, 9E9, 9E9, 9E9] ], v1000, fine, pen\WObj:=platform;
    MoveL [ [4.524, -0.060, -0.010], [0.082, 0.961, -0.263, 0.000], [0, 0, 0, 0], [ 9E9, 9E9, 9E9, 9E9, 9E9, 9E9] ], v30, fine, pen\WObj:=platform;
    MoveL [ [6.694, 7.863, 49.311], [0.082, 0.961, -0.263, 0.000], [0, 0, 0, 0], [ 9E9, 9E9, 9E9, 9E9, 9E9, 9E9] ], v1000, fine, pen\WObj:=platform;
    
    !!-4.55, -0.16120000000000023;
    MoveL [ [5.018, 5.357, 48.755], [0.111, 0.496, -0.861, 0.000], [0, 0, 0, 0], [ 9E9, 9E9, 9E9, 9E9, 9E9, 9E9] ], v1000, fine, pen\WObj:=platform;
    MoveL [ [-4.550, -0.161, -0.010], [0.111, 0.496, -0.861, 0.000], [0, 0, 0, 0], [ 9E9, 9E9, 9E9, 9E9, 9E9, 9E9] ], v30, fine, pen\WObj:=platform;
    MoveL [ [5.018, 5.357, 48.755], [0.111, 0.496, -0.861, 0.000], [0, 0, 0, 0], [ 9E9, 9E9, 9E9, 9E9, 9E9, 9E9] ], v1000, fine, pen\WObj:=platform;
    
    !!-4.432913365408345, -0.16120000000000023;
    MoveL [ [5.042, 5.388, 48.769], [0.110, 0.502, -0.858, 0.000], [0, 0, 0, 0], [ 9E9, 9E9, 9E9, 9E9, 9E9, 9E9] ], v1000, fine, pen\WObj:=platform;
    MoveL [ [-4.433, -0.161, -0.010], [0.110, 0.502, -0.858, 0.000], [0, 0, 0, 0], [ 9E9, 9E9, 9E9, 9E9, 9E9, 9E9] ], v30, fine, pen\WObj:=platform;
    MoveL [ [5.042, 5.388, 48.769], [0.110, 0.502, -0.858, 0.000], [0, 0, 0, 0], [ 9E9, 9E9, 9E9, 9E9, 9E9, 9E9] ], v1000, fine, pen\WObj:=platform;
    
    !!-4.3158267308166876, -0.16120000000000023;
    MoveL [ [5.065, 5.420, 48.784], [0.110, 0.508, -0.854, 0.000], [0, 0, 0, 0], [ 9E9, 9E9, 9E9, 9E9, 9E9, 9E9] ], v1000, fine, pen\WObj:=platform;
    MoveL [ [-4.316, -0.161, -0.010], [0.110, 0.508, -0.854, 0.000], [0, 0, 0, 0], [ 9E9, 9E9, 9E9, 9E9, 9E9, 9E9] ], v30, fine, pen\WObj:=platform;
    MoveL [ [5.065, 5.420, 48.784], [0.110, 0.508, -0.854, 0.000], [0, 0, 0, 0], [ 9E9, 9E9, 9E9, 9E9, 9E9, 9E9] ], v1000, fine, pen\WObj:=platform;
    
    !!-4.198740096225031, -0.16120000000000023;
    MoveL [ [5.089, 5.452, 48.798], [0.109, 0.514, -0.851, 0.000], [0, 0, 0, 0], [ 9E9, 9E9, 9E9, 9E9, 9E9, 9E9] ], v1000, fine, pen\WObj:=platform;
    MoveL [ [-4.199, -0.161, -0.010], [0.109, 0.514, -0.851, 0.000], [0, 0, 0, 0], [ 9E9, 9E9, 9E9, 9E9, 9E9, 9E9] ], v30, fine, pen\WObj:=platform;
    MoveL [ [5.089, 5.452, 48.798], [0.109, 0.514, -0.851, 0.000], [0, 0, 0, 0], [ 9E9, 9E9, 9E9, 9E9, 9E9, 9E9] ], v1000, fine, pen\WObj:=platform;
    
    !!-4.081653461633375, -0.16120000000000023;
    MoveL [ [5.113, 5.484, 48.812], [0.109, 0.520, -0.847, 0.000], [0, 0, 0, 0], [ 9E9, 9E9, 9E9, 9E9, 9E9, 9E9] ], v1000, fine, pen\WObj:=platform;
    MoveL [ [-4.082, -0.161, -0.010], [0.109, 0.520, -0.847, 0.000], [0, 0, 0, 0], [ 9E9, 9E9, 9E9, 9E9, 9E9, 9E9] ], v30, fine, pen\WObj:=platform;
    MoveL [ [5.113, 5.484, 48.812], [0.109, 0.520, -0.847, 0.000], [0, 0, 0, 0], [ 9E9, 9E9, 9E9, 9E9, 9E9, 9E9] ], v1000, fine, pen\WObj:=platform;
    
    !!-3.96456682704172, -0.16120000000000023;
    MoveL [ [5.137, 5.516, 48.826], [0.108, 0.526, -0.844, 0.000], [0, 0, 0, 0], [ 9E9, 9E9, 9E9, 9E9, 9E9, 9E9] ], v1000, fine, pen\WObj:=platform;
    MoveL [ [-3.965, -0.161, -0.010], [0.108, 0.526, -0.844, 0.000], [0, 0, 0, 0], [ 9E9, 9E9, 9E9, 9E9, 9E9, 9E9] ], v30, fine, pen\WObj:=platform;
    MoveL [ [5.137, 5.516, 48.826], [0.108, 0.526, -0.844, 0.000], [0, 0, 0, 0], [ 9E9, 9E9, 9E9, 9E9, 9E9, 9E9] ], v1000, fine, pen\WObj:=platform;
    
    !!-3.8474801924500635, -0.16120000000000023;
    MoveL [ [5.160, 5.548, 48.839], [0.107, 0.532, -0.840, 0.000], [0, 0, 0, 0], [ 9E9, 9E9, 9E9, 9E9, 9E9, 9E9] ], v1000, fine, pen\WObj:=platform;
    MoveL [ [-3.847, -0.161, -0.010], [0.107, 0.532, -0.840, 0.000], [0, 0, 0, 0], [ 9E9, 9E9, 9E9, 9E9, 9E9, 9E9] ], v30, fine, pen\WObj:=platform;
    MoveL [ [5.160, 5.548, 48.839], [0.107, 0.532, -0.840, 0.000], [0, 0, 0, 0], [ 9E9, 9E9, 9E9, 9E9, 9E9, 9E9] ], v1000, fine, pen\WObj:=platform;
    
    !!-3.7303935578584073, -0.16120000000000023;
    MoveL [ [5.184, 5.580, 48.853], [0.107, 0.538, -0.836, 0.000], [0, 0, 0, 0], [ 9E9, 9E9, 9E9, 9E9, 9E9, 9E9] ], v1000, fine, pen\WObj:=platform;
    MoveL [ [-3.730, -0.161, -0.010], [0.107, 0.538, -0.836, 0.000], [0, 0, 0, 0], [ 9E9, 9E9, 9E9, 9E9, 9E9, 9E9] ], v30, fine, pen\WObj:=platform;
    MoveL [ [5.184, 5.580, 48.853], [0.107, 0.538, -0.836, 0.000], [0, 0, 0, 0], [ 9E9, 9E9, 9E9, 9E9, 9E9, 9E9] ], v1000, fine, pen\WObj:=platform;
    
    !!-3.6133069232667516, -0.16120000000000023;
    MoveL [ [5.207, 5.612, 48.866], [0.106, 0.545, -0.832, 0.000], [0, 0, 0, 0], [ 9E9, 9E9, 9E9, 9E9, 9E9, 9E9] ], v1000, fine, pen\WObj:=platform;
    MoveL [ [-3.613, -0.161, -0.010], [0.106, 0.545, -0.832, 0.000], [0, 0, 0, 0], [ 9E9, 9E9, 9E9, 9E9, 9E9, 9E9] ], v30, fine, pen\WObj:=platform;
    MoveL [ [5.207, 5.612, 48.866], [0.106, 0.545, -0.832, 0.000], [0, 0, 0, 0], [ 9E9, 9E9, 9E9, 9E9, 9E9, 9E9] ], v1000, fine, pen\WObj:=platform;
    
    !!-3.4962202886750955, -0.16120000000000023;
    MoveL [ [5.231, 5.644, 48.879], [0.105, 0.551, -0.828, 0.000], [0, 0, 0, 0], [ 9E9, 9E9, 9E9, 9E9, 9E9, 9E9] ], v1000, fine, pen\WObj:=platform;
    MoveL [ [-3.496, -0.161, -0.010], [0.105, 0.551, -0.828, 0.000], [0, 0, 0, 0], [ 9E9, 9E9, 9E9, 9E9, 9E9, 9E9] ], v30, fine, pen\WObj:=platform;
    MoveL [ [5.231, 5.644, 48.879], [0.105, 0.551, -0.828, 0.000], [0, 0, 0, 0], [ 9E9, 9E9, 9E9, 9E9, 9E9, 9E9] ], v1000, fine, pen\WObj:=platform;
    
    !!-3.379133654083439, -0.16120000000000023;
    MoveL [ [5.254, 5.677, 48.892], [0.105, 0.557, -0.824, 0.000], [0, 0, 0, 0], [ 9E9, 9E9, 9E9, 9E9, 9E9, 9E9] ], v1000, fine, pen\WObj:=platform;
    MoveL [ [-3.379, -0.161, -0.010], [0.105, 0.557, -0.824, 0.000], [0, 0, 0, 0], [ 9E9, 9E9, 9E9, 9E9, 9E9, 9E9] ], v30, fine, pen\WObj:=platform;
    MoveL [ [5.254, 5.677, 48.892], [0.105, 0.557, -0.824, 0.000], [0, 0, 0, 0], [ 9E9, 9E9, 9E9, 9E9, 9E9, 9E9] ], v1000, fine, pen\WObj:=platform;
    
    !!-3.2620470194917828, -0.16120000000000023;
    MoveL [ [5.278, 5.709, 48.904], [0.104, 0.563, -0.820, 0.000], [0, 0, 0, 0], [ 9E9, 9E9, 9E9, 9E9, 9E9, 9E9] ], v1000, fine, pen\WObj:=platform;
    MoveL [ [-3.262, -0.161, -0.010], [0.104, 0.563, -0.820, 0.000], [0, 0, 0, 0], [ 9E9, 9E9, 9E9, 9E9, 9E9, 9E9] ], v30, fine, pen\WObj:=platform;
    MoveL [ [5.278, 5.709, 48.904], [0.104, 0.563, -0.820, 0.000], [0, 0, 0, 0], [ 9E9, 9E9, 9E9, 9E9, 9E9, 9E9] ], v1000, fine, pen\WObj:=platform;
    
    !!-3.144960384900127, -0.16120000000000023;
    MoveL [ [5.301, 5.742, 48.917], [0.104, 0.570, -0.815, 0.000], [0, 0, 0, 0], [ 9E9, 9E9, 9E9, 9E9, 9E9, 9E9] ], v1000, fine, pen\WObj:=platform;
    MoveL [ [-3.145, -0.161, -0.010], [0.104, 0.570, -0.815, 0.000], [0, 0, 0, 0], [ 9E9, 9E9, 9E9, 9E9, 9E9, 9E9] ], v30, fine, pen\WObj:=platform;
    MoveL [ [5.301, 5.742, 48.917], [0.104, 0.570, -0.815, 0.000], [0, 0, 0, 0], [ 9E9, 9E9, 9E9, 9E9, 9E9, 9E9] ], v1000, fine, pen\WObj:=platform;
    
    !!-3.027873750308471, -0.16120000000000023;
    MoveL [ [5.325, 5.774, 48.929], [0.103, 0.576, -0.811, 0.000], [0, 0, 0, 0], [ 9E9, 9E9, 9E9, 9E9, 9E9, 9E9] ], v1000, fine, pen\WObj:=platform;
    MoveL [ [-3.028, -0.161, -0.010], [0.103, 0.576, -0.811, 0.000], [0, 0, 0, 0], [ 9E9, 9E9, 9E9, 9E9, 9E9, 9E9] ], v30, fine, pen\WObj:=platform;
    MoveL [ [5.325, 5.774, 48.929], [0.103, 0.576, -0.811, 0.000], [0, 0, 0, 0], [ 9E9, 9E9, 9E9, 9E9, 9E9, 9E9] ], v1000, fine, pen\WObj:=platform;
    
    !!-2.910787115716815, -0.16120000000000023;
    MoveL [ [5.348, 5.807, 48.941], [0.102, 0.583, -0.806, 0.000], [0, 0, 0, 0], [ 9E9, 9E9, 9E9, 9E9, 9E9, 9E9] ], v1000, fine, pen\WObj:=platform;
    MoveL [ [-2.911, -0.161, -0.010], [0.102, 0.583, -0.806, 0.000], [0, 0, 0, 0], [ 9E9, 9E9, 9E9, 9E9, 9E9, 9E9] ], v30, fine, pen\WObj:=platform;
    MoveL [ [5.348, 5.807, 48.941], [0.102, 0.583, -0.806, 0.000], [0, 0, 0, 0], [ 9E9, 9E9, 9E9, 9E9, 9E9, 9E9] ], v1000, fine, pen\WObj:=platform;
    
    !!-2.7937004811251587, -0.16120000000000023;
    MoveL [ [5.371, 5.839, 48.952], [0.102, 0.589, -0.802, 0.000], [0, 0, 0, 0], [ 9E9, 9E9, 9E9, 9E9, 9E9, 9E9] ], v1000, fine, pen\WObj:=platform;
    MoveL [ [-2.794, -0.161, -0.010], [0.102, 0.589, -0.802, 0.000], [0, 0, 0, 0], [ 9E9, 9E9, 9E9, 9E9, 9E9, 9E9] ], v30, fine, pen\WObj:=platform;
    MoveL [ [5.371, 5.839, 48.952], [0.102, 0.589, -0.802, 0.000], [0, 0, 0, 0], [ 9E9, 9E9, 9E9, 9E9, 9E9, 9E9] ], v1000, fine, pen\WObj:=platform;
    
    !!-2.6766138465335025, -0.16120000000000023;
    MoveL [ [5.395, 5.872, 48.964], [0.101, 0.596, -0.797, 0.000], [0, 0, 0, 0], [ 9E9, 9E9, 9E9, 9E9, 9E9, 9E9] ], v1000, fine, pen\WObj:=platform;
    MoveL [ [-2.677, -0.161, -0.010], [0.101, 0.596, -0.797, 0.000], [0, 0, 0, 0], [ 9E9, 9E9, 9E9, 9E9, 9E9, 9E9] ], v30, fine, pen\WObj:=platform;
    MoveL [ [5.395, 5.872, 48.964], [0.101, 0.596, -0.797, 0.000], [0, 0, 0, 0], [ 9E9, 9E9, 9E9, 9E9, 9E9, 9E9] ], v1000, fine, pen\WObj:=platform;
    
    !!-2.559527211941846, -0.16120000000000023;
    MoveL [ [-4.996, -6.539, 49.522], [0.068, -0.932, 0.356, 0.000], [0, 0, 0, 0], [ 9E9, 9E9, 9E9, 9E9, 9E9, 9E9] ], v1000, fine, pen\WObj:=platform;
    MoveL [ [-2.560, -0.161, -0.010], [0.068, -0.932, 0.356, 0.000], [0, 0, 0, 0], [ 9E9, 9E9, 9E9, 9E9, 9E9, 9E9] ], v30, fine, pen\WObj:=platform;
    MoveL [ [-4.996, -6.539, 49.522], [0.068, -0.932, 0.356, 0.000], [0, 0, 0, 0], [ 9E9, 9E9, 9E9, 9E9, 9E9, 9E9] ], v1000, fine, pen\WObj:=platform;
    
    !!-2.4424405773501903, -0.16120000000000023;
    MoveL [ [1.066, 4.392, 49.659], [0.058, 0.791, -0.609, 0.000], [0, 0, 0, 0], [ 9E9, 9E9, 9E9, 9E9, 9E9, 9E9] ], v1000, fine, pen\WObj:=platform;
    MoveL [ [-2.442, -0.161, -0.010], [0.058, 0.791, -0.609, 0.000], [0, 0, 0, 0], [ 9E9, 9E9, 9E9, 9E9, 9E9, 9E9] ], v30, fine, pen\WObj:=platform;
    MoveL [ [1.066, 4.392, 49.659], [0.058, 0.791, -0.609, 0.000], [0, 0, 0, 0], [ 9E9, 9E9, 9E9, 9E9, 9E9, 9E9] ], v1000, fine, pen\WObj:=platform;
    
    !!-2.325353942758534, -0.16120000000000023;
    MoveL [ [5.464, 5.971, 48.997], [0.100, 0.615, -0.782, 0.000], [0, 0, 0, 0], [ 9E9, 9E9, 9E9, 9E9, 9E9, 9E9] ], v1000, fine, pen\WObj:=platform;
    MoveL [ [-2.325, -0.161, -0.010], [0.100, 0.615, -0.782, 0.000], [0, 0, 0, 0], [ 9E9, 9E9, 9E9, 9E9, 9E9, 9E9] ], v30, fine, pen\WObj:=platform;
    MoveL [ [5.464, 5.971, 48.997], [0.100, 0.615, -0.782, 0.000], [0, 0, 0, 0], [ 9E9, 9E9, 9E9, 9E9, 9E9, 9E9] ], v1000, fine, pen\WObj:=platform;
    
    !!-2.2082673081668776, -0.16120000000000023;
    MoveL [ [5.487, 6.004, 49.008], [0.099, 0.622, -0.777, 0.000], [0, 0, 0, 0], [ 9E9, 9E9, 9E9, 9E9, 9E9, 9E9] ], v1000, fine, pen\WObj:=platform;
    MoveL [ [-2.208, -0.161, -0.010], [0.099, 0.622, -0.777, 0.000], [0, 0, 0, 0], [ 9E9, 9E9, 9E9, 9E9, 9E9, 9E9] ], v30, fine, pen\WObj:=platform;
    MoveL [ [5.487, 6.004, 49.008], [0.099, 0.622, -0.777, 0.000], [0, 0, 0, 0], [ 9E9, 9E9, 9E9, 9E9, 9E9, 9E9] ], v1000, fine, pen\WObj:=platform;
    
    !!-2.0911806735752223, -0.16120000000000023;
    MoveL [ [5.510, 6.037, 49.019], [0.099, 0.629, -0.771, 0.000], [0, 0, 0, 0], [ 9E9, 9E9, 9E9, 9E9, 9E9, 9E9] ], v1000, fine, pen\WObj:=platform;
    MoveL [ [-2.091, -0.161, -0.010], [0.099, 0.629, -0.771, 0.000], [0, 0, 0, 0], [ 9E9, 9E9, 9E9, 9E9, 9E9, 9E9] ], v30, fine, pen\WObj:=platform;
    MoveL [ [5.510, 6.037, 49.019], [0.099, 0.629, -0.771, 0.000], [0, 0, 0, 0], [ 9E9, 9E9, 9E9, 9E9, 9E9, 9E9] ], v1000, fine, pen\WObj:=platform;
    
    !!-1.974094038983566, -0.16120000000000023;
    MoveL [ [5.533, 6.070, 49.029], [0.098, 0.636, -0.766, 0.000], [0, 0, 0, 0], [ 9E9, 9E9, 9E9, 9E9, 9E9, 9E9] ], v1000, fine, pen\WObj:=platform;
    MoveL [ [-1.974, -0.161, -0.010], [0.098, 0.636, -0.766, 0.000], [0, 0, 0, 0], [ 9E9, 9E9, 9E9, 9E9, 9E9, 9E9] ], v30, fine, pen\WObj:=platform;
    MoveL [ [5.533, 6.070, 49.029], [0.098, 0.636, -0.766, 0.000], [0, 0, 0, 0], [ 9E9, 9E9, 9E9, 9E9, 9E9, 9E9] ], v1000, fine, pen\WObj:=platform;
    
    !!-1.85700740439191, -0.16120000000000023;
    MoveL [ [5.556, 6.103, 49.039], [0.098, 0.642, -0.760, 0.000], [0, 0, 0, 0], [ 9E9, 9E9, 9E9, 9E9, 9E9, 9E9] ], v1000, fine, pen\WObj:=platform;
    MoveL [ [-1.857, -0.161, -0.010], [0.098, 0.642, -0.760, 0.000], [0, 0, 0, 0], [ 9E9, 9E9, 9E9, 9E9, 9E9, 9E9] ], v30, fine, pen\WObj:=platform;
    MoveL [ [5.556, 6.103, 49.039], [0.098, 0.642, -0.760, 0.000], [0, 0, 0, 0], [ 9E9, 9E9, 9E9, 9E9, 9E9, 9E9] ], v1000, fine, pen\WObj:=platform;
    
    !!-1.7399207698002537, -0.16120000000000023;
    MoveL [ [5.579, 6.136, 49.049], [0.097, 0.649, -0.754, 0.000], [0, 0, 0, 0], [ 9E9, 9E9, 9E9, 9E9, 9E9, 9E9] ], v1000, fine, pen\WObj:=platform;
    MoveL [ [-1.740, -0.161, -0.010], [0.097, 0.649, -0.754, 0.000], [0, 0, 0, 0], [ 9E9, 9E9, 9E9, 9E9, 9E9, 9E9] ], v30, fine, pen\WObj:=platform;
    MoveL [ [5.579, 6.136, 49.049], [0.097, 0.649, -0.754, 0.000], [0, 0, 0, 0], [ 9E9, 9E9, 9E9, 9E9, 9E9, 9E9] ], v1000, fine, pen\WObj:=platform;
    
    !!-1.622834135208597, -0.16120000000000023;
    MoveL [ [1.192, 4.543, 49.689], [0.055, 0.857, -0.513, 0.000], [0, 0, 0, 0], [ 9E9, 9E9, 9E9, 9E9, 9E9, 9E9] ], v1000, fine, pen\WObj:=platform;
    MoveL [ [-1.623, -0.161, -0.010], [0.055, 0.857, -0.513, 0.000], [0, 0, 0, 0], [ 9E9, 9E9, 9E9, 9E9, 9E9, 9E9] ], v30, fine, pen\WObj:=platform;
    MoveL [ [1.192, 4.543, 49.689], [0.055, 0.857, -0.513, 0.000], [0, 0, 0, 0], [ 9E9, 9E9, 9E9, 9E9, 9E9, 9E9] ], v1000, fine, pen\WObj:=platform;
    
    !!-1.5057475006169412, -0.16120000000000023;
    MoveL [ [1.210, 4.565, 49.692], [0.055, 0.866, -0.497, 0.000], [0, 0, 0, 0], [ 9E9, 9E9, 9E9, 9E9, 9E9, 9E9] ], v1000, fine, pen\WObj:=platform;
    MoveL [ [-1.506, -0.161, -0.010], [0.055, 0.866, -0.497, 0.000], [0, 0, 0, 0], [ 9E9, 9E9, 9E9, 9E9, 9E9, 9E9] ], v30, fine, pen\WObj:=platform;
    MoveL [ [1.210, 4.565, 49.692], [0.055, 0.866, -0.497, 0.000], [0, 0, 0, 0], [ 9E9, 9E9, 9E9, 9E9, 9E9, 9E9] ], v1000, fine, pen\WObj:=platform;
    
    !!-1.3886608660252853, -0.16120000000000023;
    MoveL [ [5.647, 6.236, 49.077], [0.096, 0.670, -0.737, 0.000], [0, 0, 0, 0], [ 9E9, 9E9, 9E9, 9E9, 9E9, 9E9] ], v1000, fine, pen\WObj:=platform;
    MoveL [ [-1.389, -0.161, -0.010], [0.096, 0.670, -0.737, 0.000], [0, 0, 0, 0], [ 9E9, 9E9, 9E9, 9E9, 9E9, 9E9] ], v30, fine, pen\WObj:=platform;
    MoveL [ [5.647, 6.236, 49.077], [0.096, 0.670, -0.737, 0.000], [0, 0, 0, 0], [ 9E9, 9E9, 9E9, 9E9, 9E9, 9E9] ], v1000, fine, pen\WObj:=platform;
    
    !!-1.271574231433629, -0.16120000000000023;
    MoveL [ [5.670, 6.270, 49.086], [0.095, 0.677, -0.730, 0.000], [0, 0, 0, 0], [ 9E9, 9E9, 9E9, 9E9, 9E9, 9E9] ], v1000, fine, pen\WObj:=platform;
    MoveL [ [-1.272, -0.161, -0.010], [0.095, 0.677, -0.730, 0.000], [0, 0, 0, 0], [ 9E9, 9E9, 9E9, 9E9, 9E9, 9E9] ], v30, fine, pen\WObj:=platform;
    MoveL [ [5.670, 6.270, 49.086], [0.095, 0.677, -0.730, 0.000], [0, 0, 0, 0], [ 9E9, 9E9, 9E9, 9E9, 9E9, 9E9] ], v1000, fine, pen\WObj:=platform;
    
    !!-1.1544875968419728, -0.16120000000000023;
    MoveL [ [5.693, 6.303, 49.095], [0.095, 0.683, -0.724, 0.000], [0, 0, 0, 0], [ 9E9, 9E9, 9E9, 9E9, 9E9, 9E9] ], v1000, fine, pen\WObj:=platform;
    MoveL [ [-1.154, -0.161, -0.010], [0.095, 0.683, -0.724, 0.000], [0, 0, 0, 0], [ 9E9, 9E9, 9E9, 9E9, 9E9, 9E9] ], v30, fine, pen\WObj:=platform;
    MoveL [ [5.693, 6.303, 49.095], [0.095, 0.683, -0.724, 0.000], [0, 0, 0, 0], [ 9E9, 9E9, 9E9, 9E9, 9E9, 9E9] ], v1000, fine, pen\WObj:=platform;
    
    !!-1.037400962250317, -0.16120000000000023;
    MoveL [ [5.715, 6.337, 49.104], [0.094, 0.690, -0.717, 0.000], [0, 0, 0, 0], [ 9E9, 9E9, 9E9, 9E9, 9E9, 9E9] ], v1000, fine, pen\WObj:=platform;
    MoveL [ [-1.037, -0.161, -0.010], [0.094, 0.690, -0.717, 0.000], [0, 0, 0, 0], [ 9E9, 9E9, 9E9, 9E9, 9E9, 9E9] ], v30, fine, pen\WObj:=platform;
    MoveL [ [5.715, 6.337, 49.104], [0.094, 0.690, -0.717, 0.000], [0, 0, 0, 0], [ 9E9, 9E9, 9E9, 9E9, 9E9, 9E9] ], v1000, fine, pen\WObj:=platform;
    
    !!-0.9203143276586611, -0.16120000000000023;
    MoveL [ [5.737, 6.370, 49.112], [0.094, 0.697, -0.711, 0.000], [0, 0, 0, 0], [ 9E9, 9E9, 9E9, 9E9, 9E9, 9E9] ], v1000, fine, pen\WObj:=platform;
    MoveL [ [-0.920, -0.161, -0.010], [0.094, 0.697, -0.711, 0.000], [0, 0, 0, 0], [ 9E9, 9E9, 9E9, 9E9, 9E9, 9E9] ], v30, fine, pen\WObj:=platform;
    MoveL [ [5.737, 6.370, 49.112], [0.094, 0.697, -0.711, 0.000], [0, 0, 0, 0], [ 9E9, 9E9, 9E9, 9E9, 9E9, 9E9] ], v1000, fine, pen\WObj:=platform;
    
    !!-0.8032276930670048, -0.16120000000000023;
    MoveL [ [5.760, 6.404, 49.121], [0.093, 0.704, -0.704, 0.000], [0, 0, 0, 0], [ 9E9, 9E9, 9E9, 9E9, 9E9, 9E9] ], v1000, fine, pen\WObj:=platform;
    MoveL [ [-0.803, -0.161, -0.010], [0.093, 0.704, -0.704, 0.000], [0, 0, 0, 0], [ 9E9, 9E9, 9E9, 9E9, 9E9, 9E9] ], v30, fine, pen\WObj:=platform;
    MoveL [ [5.760, 6.404, 49.121], [0.093, 0.704, -0.704, 0.000], [0, 0, 0, 0], [ 9E9, 9E9, 9E9, 9E9, 9E9, 9E9] ], v1000, fine, pen\WObj:=platform;
    
    !!-0.6861410584753487, -0.16120000000000023;
    MoveL [ [5.782, 6.438, 49.129], [0.093, 0.711, -0.697, 0.000], [0, 0, 0, 0], [ 9E9, 9E9, 9E9, 9E9, 9E9, 9E9] ], v1000, fine, pen\WObj:=platform;
    MoveL [ [-0.686, -0.161, -0.010], [0.093, 0.711, -0.697, 0.000], [0, 0, 0, 0], [ 9E9, 9E9, 9E9, 9E9, 9E9, 9E9] ], v30, fine, pen\WObj:=platform;
    MoveL [ [5.782, 6.438, 49.129], [0.093, 0.711, -0.697, 0.000], [0, 0, 0, 0], [ 9E9, 9E9, 9E9, 9E9, 9E9, 9E9] ], v1000, fine, pen\WObj:=platform;
    
    !!-0.569054423883692, -0.16120000000000023;
    MoveL [ [5.804, 6.471, 49.137], [0.092, 0.718, -0.690, 0.000], [0, 0, 0, 0], [ 9E9, 9E9, 9E9, 9E9, 9E9, 9E9] ], v1000, fine, pen\WObj:=platform;
    MoveL [ [-0.569, -0.161, -0.010], [0.092, 0.718, -0.690, 0.000], [0, 0, 0, 0], [ 9E9, 9E9, 9E9, 9E9, 9E9, 9E9] ], v30, fine, pen\WObj:=platform;
    MoveL [ [5.804, 6.471, 49.137], [0.092, 0.718, -0.690, 0.000], [0, 0, 0, 0], [ 9E9, 9E9, 9E9, 9E9, 9E9, 9E9] ], v1000, fine, pen\WObj:=platform;
    
    !!-0.4519677892920363, -0.16120000000000023;
    MoveL [ [5.826, 6.505, 49.144], [0.092, 0.725, -0.683, 0.000], [0, 0, 0, 0], [ 9E9, 9E9, 9E9, 9E9, 9E9, 9E9] ], v1000, fine, pen\WObj:=platform;
    MoveL [ [-0.452, -0.161, -0.010], [0.092, 0.725, -0.683, 0.000], [0, 0, 0, 0], [ 9E9, 9E9, 9E9, 9E9, 9E9, 9E9] ], v30, fine, pen\WObj:=platform;
    MoveL [ [5.826, 6.505, 49.144], [0.092, 0.725, -0.683, 0.000], [0, 0, 0, 0], [ 9E9, 9E9, 9E9, 9E9, 9E9, 9E9] ], v1000, fine, pen\WObj:=platform;
    
    !!-0.33488115470038016, -0.16120000000000023;
    MoveL [ [5.848, 6.539, 49.152], [0.092, 0.732, -0.675, 0.000], [0, 0, 0, 0], [ 9E9, 9E9, 9E9, 9E9, 9E9, 9E9] ], v1000, fine, pen\WObj:=platform;
    MoveL [ [-0.335, -0.161, -0.010], [0.092, 0.732, -0.675, 0.000], [0, 0, 0, 0], [ 9E9, 9E9, 9E9, 9E9, 9E9, 9E9] ], v30, fine, pen\WObj:=platform;
    MoveL [ [5.848, 6.539, 49.152], [0.092, 0.732, -0.675, 0.000], [0, 0, 0, 0], [ 9E9, 9E9, 9E9, 9E9, 9E9, 9E9] ], v1000, fine, pen\WObj:=platform;
    
    !!-0.21779452010872397, -0.16120000000000023;
    MoveL [ [1.407, 4.802, 49.716], [0.052, 0.949, -0.311, 0.000], [0, 0, 0, 0], [ 9E9, 9E9, 9E9, 9E9, 9E9, 9E9] ], v1000, fine, pen\WObj:=platform;
    MoveL [ [-0.218, -0.161, -0.010], [0.052, 0.949, -0.311, 0.000], [0, 0, 0, 0], [ 9E9, 9E9, 9E9, 9E9, 9E9, 9E9] ], v30, fine, pen\WObj:=platform;
    MoveL [ [1.407, 4.802, 49.716], [0.052, 0.949, -0.311, 0.000], [0, 0, 0, 0], [ 9E9, 9E9, 9E9, 9E9, 9E9, 9E9] ], v1000, fine, pen\WObj:=platform;
    
    !!-0.10070788551706782, -0.16120000000000023;
    MoveL [ [1.425, 4.824, 49.717], [0.052, 0.955, -0.292, 0.000], [0, 0, 0, 0], [ 9E9, 9E9, 9E9, 9E9, 9E9, 9E9] ], v1000, fine, pen\WObj:=platform;
    MoveL [ [-0.101, -0.161, -0.010], [0.052, 0.955, -0.292, 0.000], [0, 0, 0, 0], [ 9E9, 9E9, 9E9, 9E9, 9E9, 9E9] ], v30, fine, pen\WObj:=platform;
    MoveL [ [1.425, 4.824, 49.717], [0.052, 0.955, -0.292, 0.000], [0, 0, 0, 0], [ 9E9, 9E9, 9E9, 9E9, 9E9, 9E9] ], v1000, fine, pen\WObj:=platform;
    
    !!0.01637874907458886, -0.16120000000000023;
    MoveL [ [5.914, 6.641, 49.173], [0.090, 0.752, -0.652, 0.000], [0, 0, 0, 0], [ 9E9, 9E9, 9E9, 9E9, 9E9, 9E9] ], v1000, fine, pen\WObj:=platform;
    MoveL [ [0.016, -0.161, -0.010], [0.090, 0.752, -0.652, 0.000], [0, 0, 0, 0], [ 9E9, 9E9, 9E9, 9E9, 9E9, 9E9] ], v30, fine, pen\WObj:=platform;
    MoveL [ [5.914, 6.641, 49.173], [0.090, 0.752, -0.652, 0.000], [0, 0, 0, 0], [ 9E9, 9E9, 9E9, 9E9, 9E9, 9E9] ], v1000, fine, pen\WObj:=platform;
    
    !!0.13346538366624452, -0.16120000000000023;
    MoveL [ [1.460, 4.867, 49.719], [0.052, 0.966, -0.255, 0.000], [0, 0, 0, 0], [ 9E9, 9E9, 9E9, 9E9, 9E9, 9E9] ], v1000, fine, pen\WObj:=platform;
    MoveL [ [0.133, -0.161, -0.010], [0.052, 0.966, -0.255, 0.000], [0, 0, 0, 0], [ 9E9, 9E9, 9E9, 9E9, 9E9, 9E9] ], v30, fine, pen\WObj:=platform;
    MoveL [ [1.460, 4.867, 49.719], [0.052, 0.966, -0.255, 0.000], [0, 0, 0, 0], [ 9E9, 9E9, 9E9, 9E9, 9E9, 9E9] ], v1000, fine, pen\WObj:=platform;
    
    !!0.2505520182579012, -0.16120000000000023;
    MoveL [ [1.478, 4.888, 49.719], [0.052, 0.970, -0.236, 0.000], [0, 0, 0, 0], [ 9E9, 9E9, 9E9, 9E9, 9E9, 9E9] ], v1000, fine, pen\WObj:=platform;
    MoveL [ [0.251, -0.161, -0.010], [0.052, 0.970, -0.236, 0.000], [0, 0, 0, 0], [ 9E9, 9E9, 9E9, 9E9, 9E9, 9E9] ], v30, fine, pen\WObj:=platform;
    MoveL [ [1.478, 4.888, 49.719], [0.052, 0.970, -0.236, 0.000], [0, 0, 0, 0], [ 9E9, 9E9, 9E9, 9E9, 9E9, 9E9] ], v1000, fine, pen\WObj:=platform;
    
    !!0.3676386528495559, -0.16120000000000023;
    MoveL [ [1.496, 4.910, 49.719], [0.052, 0.975, -0.217, 0.000], [0, 0, 0, 0], [ 9E9, 9E9, 9E9, 9E9, 9E9, 9E9] ], v1000, fine, pen\WObj:=platform;
    MoveL [ [0.368, -0.161, -0.010], [0.052, 0.975, -0.217, 0.000], [0, 0, 0, 0], [ 9E9, 9E9, 9E9, 9E9, 9E9, 9E9] ], v30, fine, pen\WObj:=platform;
    MoveL [ [1.496, 4.910, 49.719], [0.052, 0.975, -0.217, 0.000], [0, 0, 0, 0], [ 9E9, 9E9, 9E9, 9E9, 9E9, 9E9] ], v1000, fine, pen\WObj:=platform;
    
    !!0.4847252874412125, -0.16120000000000023;
    MoveL [ [1.513, 4.931, 49.719], [0.052, 0.979, -0.198, 0.000], [0, 0, 0, 0], [ 9E9, 9E9, 9E9, 9E9, 9E9, 9E9] ], v1000, fine, pen\WObj:=platform;
    MoveL [ [0.485, -0.161, -0.010], [0.052, 0.979, -0.198, 0.000], [0, 0, 0, 0], [ 9E9, 9E9, 9E9, 9E9, 9E9, 9E9] ], v30, fine, pen\WObj:=platform;
