MODULE MainModule
  PERS wobjdata platform := [ FALSE, TRUE, "", [ [800, 0, 600], [1, 0, 0 ,0] ], [ [0, 0, 0], [1, 0, 0 ,0] ] ];
  PERS tooldata pen := [ TRUE, [[0, 0, 100], [1, 0, 0 ,0]], [0.8,[0, 0, 30], [1, 0, 0, 0], 0, 0, 0]];
  PROC main()
    ConfL\Off;
    ConfJ\Off;
    SingArea\Wrist;
    !!-4.550561797752809, 0.056179775280899014;
    MoveL [ [-6.502, 4.282, 49.763], [0.047, 0.907, 0.419, 0.000], [0, 0, 0, 0], [ 9E9, 9E9, 9E9, 9E9, 9E9, 9E9] ], v1000, fine, pen\WObj:=platform;
    MoveL [ [-4.551, 0.056, -0.020], [0.047, 0.907, 0.419, 0.000], [0, 0, 0, 0], [ 9E9, 9E9, 9E9, 9E9, 9E9, 9E9] ], v30, fine, pen\WObj:=platform;
    MoveL [ [-6.502, 4.282, 49.763], [0.047, 0.907, 0.419, 0.000], [0, 0, 0, 0], [ 9E9, 9E9, 9E9, 9E9, 9E9, 9E9] ], v1000, fine, pen\WObj:=platform;
    
    !!-4.438202247191011, 0.056179775280899014;
    MoveL [ [-6.612, -14.799, 47.673], [0.152, -0.978, 0.143, 0.000], [0, 0, 0, 0], [ 9E9, 9E9, 9E9, 9E9, 9E9, 9E9] ], v1000, fine, pen\WObj:=platform;
    MoveL [ [-4.438, 0.056, -0.020], [0.152, -0.978, 0.143, 0.000], [0, 0, 0, 0], [ 9E9, 9E9, 9E9, 9E9, 9E9, 9E9] ], v30, fine, pen\WObj:=platform;
    MoveL [ [-6.612, -14.799, 47.673], [0.152, -0.978, 0.143, 0.000], [0, 0, 0, 0], [ 9E9, 9E9, 9E9, 9E9, 9E9, 9E9] ], v1000, fine, pen\WObj:=platform;
    
    !!-4.325842696629214, 0.056179775280899014;
    MoveL [ [-6.200, -5.921, 49.586], [0.063, -0.952, 0.299, 0.000], [0, 0, 0, 0], [ 9E9, 9E9, 9E9, 9E9, 9E9, 9E9] ], v1000, fine, pen\WObj:=platform;
    MoveL [ [-4.326, 0.056, -0.020], [0.063, -0.952, 0.299, 0.000], [0, 0, 0, 0], [ 9E9, 9E9, 9E9, 9E9, 9E9, 9E9] ], v30, fine, pen\WObj:=platform;
    MoveL [ [-6.200, -5.921, 49.586], [0.063, -0.952, 0.299, 0.000], [0, 0, 0, 0], [ 9E9, 9E9, 9E9, 9E9, 9E9, 9E9] ], v1000, fine, pen\WObj:=platform;
    
    !!-4.213483146067415, 0.056179775280899014;
    MoveL [ [-7.773, -9.813, 48.867], [0.106, -0.935, 0.337, 0.000], [0, 0, 0, 0], [ 9E9, 9E9, 9E9, 9E9, 9E9, 9E9] ], v1000, fine, pen\WObj:=platform;
    MoveL [ [-4.213, 0.056, -0.020], [0.106, -0.935, 0.337, 0.000], [0, 0, 0, 0], [ 9E9, 9E9, 9E9, 9E9, 9E9, 9E9] ], v30, fine, pen\WObj:=platform;
    MoveL [ [-7.773, -9.813, 48.867], [0.106, -0.935, 0.337, 0.000], [0, 0, 0, 0], [ 9E9, 9E9, 9E9, 9E9, 9E9, 9E9] ], v1000, fine, pen\WObj:=platform;
    
    !!-4.101123595505618, 0.056179775280899014;
    MoveL [ [-3.123, -11.493, 48.618], [0.117, -0.990, -0.084, 0.000], [0, 0, 0, 0], [ 9E9, 9E9, 9E9, 9E9, 9E9, 9E9] ], v1000, fine, pen\WObj:=platform;
    MoveL [ [-4.101, 0.056, -0.020], [0.117, -0.990, -0.084, 0.000], [0, 0, 0, 0], [ 9E9, 9E9, 9E9, 9E9, 9E9, 9E9] ], v30, fine, pen\WObj:=platform;
    MoveL [ [-3.123, -11.493, 48.618], [0.117, -0.990, -0.084, 0.000], [0, 0, 0, 0], [ 9E9, 9E9, 9E9, 9E9, 9E9, 9E9] ], v1000, fine, pen\WObj:=platform;
    
    !!-3.98876404494382, 0.056179775280899014;
    MoveL [ [1.651, -2.577, 49.591], [0.062, -0.422, -0.904, 0.000], [0, 0, 0, 0], [ 9E9, 9E9, 9E9, 9E9, 9E9, 9E9] ], v1000, fine, pen\WObj:=platform;
    MoveL [ [-3.989, 0.056, -0.020], [0.062, -0.422, -0.904, 0.000], [0, 0, 0, 0], [ 9E9, 9E9, 9E9, 9E9, 9E9, 9E9] ], v30, fine, pen\WObj:=platform;
    MoveL [ [1.651, -2.577, 49.591], [0.062, -0.422, -0.904, 0.000], [0, 0, 0, 0], [ 9E9, 9E9, 9E9, 9E9, 9E9, 9E9] ], v1000, fine, pen\WObj:=platform;
    
    !!-3.8764044943820224, 0.056179775280899014;
    MoveL [ [-7.333, -3.936, 49.700], [0.053, -0.755, 0.654, 0.000], [0, 0, 0, 0], [ 9E9, 9E9, 9E9, 9E9, 9E9, 9E9] ], v1000, fine, pen\WObj:=platform;
    MoveL [ [-3.876, 0.056, -0.020], [0.053, -0.755, 0.654, 0.000], [0, 0, 0, 0], [ 9E9, 9E9, 9E9, 9E9, 9E9, 9E9] ], v30, fine, pen\WObj:=platform;
    MoveL [ [-7.333, -3.936, 49.700], [0.053, -0.755, 0.654, 0.000], [0, 0, 0, 0], [ 9E9, 9E9, 9E9, 9E9, 9E9, 9E9] ], v1000, fine, pen\WObj:=platform;
    
    !!-3.7640449438202244, 0.056179775280899014;
    MoveL [ [-3.573, 2.427, 49.923], [0.024, 0.996, -0.080, 0.000], [0, 0, 0, 0], [ 9E9, 9E9, 9E9, 9E9, 9E9, 9E9] ], v1000, fine, pen\WObj:=platform;
    MoveL [ [-3.764, 0.056, -0.020], [0.024, 0.996, -0.080, 0.000], [0, 0, 0, 0], [ 9E9, 9E9, 9E9, 9E9, 9E9, 9E9] ], v30, fine, pen\WObj:=platform;
    MoveL [ [-3.573, 2.427, 49.923], [0.024, 0.996, -0.080, 0.000], [0, 0, 0, 0], [ 9E9, 9E9, 9E9, 9E9, 9E9, 9E9] ], v1000, fine, pen\WObj:=platform;
    
    !!-3.202247191011236, 0.056179775280899014;
    MoveL [ [-7.591, -6.802, 49.313], [0.082, -0.839, 0.537, 0.000], [0, 0, 0, 0], [ 9E9, 9E9, 9E9, 9E9, 9E9, 9E9] ], v1000, fine, pen\WObj:=platform;
    MoveL [ [-3.202, 0.056, -0.020], [0.082, -0.839, 0.537, 0.000], [0, 0, 0, 0], [ 9E9, 9E9, 9E9, 9E9, 9E9, 9E9] ], v30, fine, pen\WObj:=platform;
    MoveL [ [-7.591, -6.802, 49.313], [0.082, -0.839, 0.537, 0.000], [0, 0, 0, 0], [ 9E9, 9E9, 9E9, 9E9, 9E9, 9E9] ], v1000, fine, pen\WObj:=platform;
    
    !!-3.089887640449438, 0.056179775280899014;
    MoveL [ [-2.743, -7.676, 49.377], [0.078, -0.996, -0.045, 0.000], [0, 0, 0, 0], [ 9E9, 9E9, 9E9, 9E9, 9E9, 9E9] ], v1000, fine, pen\WObj:=platform;
    MoveL [ [-3.090, 0.056, -0.020], [0.078, -0.996, -0.045, 0.000], [0, 0, 0, 0], [ 9E9, 9E9, 9E9, 9E9, 9E9, 9E9] ], v30, fine, pen\WObj:=platform;
    MoveL [ [-2.743, -7.676, 49.377], [0.078, -0.996, -0.045, 0.000], [0, 0, 0, 0], [ 9E9, 9E9, 9E9, 9E9, 9E9, 9E9] ], v1000, fine, pen\WObj:=platform;
    
    !!-2.9775280898876404, 0.056179775280899014;
    MoveL [ [-10.341, 2.239, 49.387], [0.077, 0.283, 0.956, 0.000], [0, 0, 0, 0], [ 9E9, 9E9, 9E9, 9E9, 9E9, 9E9] ], v1000, fine, pen\WObj:=platform;
    MoveL [ [-2.978, 0.056, -0.020], [0.077, 0.283, 0.956, 0.000], [0, 0, 0, 0], [ 9E9, 9E9, 9E9, 9E9, 9E9, 9E9] ], v30, fine, pen\WObj:=platform;
    MoveL [ [-10.341, 2.239, 49.387], [0.077, 0.283, 0.956, 0.000], [0, 0, 0, 0], [ 9E9, 9E9, 9E9, 9E9, 9E9, 9E9] ], v1000, fine, pen\WObj:=platform;
    
    !!-2.8651685393258424, 0.056179775280899014;
    MoveL [ [-4.791, -5.690, 49.611], [0.061, -0.946, 0.317, 0.000], [0, 0, 0, 0], [ 9E9, 9E9, 9E9, 9E9, 9E9, 9E9] ], v1000, fine, pen\WObj:=platform;
    MoveL [ [-2.865, 0.056, -0.020], [0.061, -0.946, 0.317, 0.000], [0, 0, 0, 0], [ 9E9, 9E9, 9E9, 9E9, 9E9, 9E9] ], v30, fine, pen\WObj:=platform;
    MoveL [ [-4.791, -5.690, 49.611], [0.061, -0.946, 0.317, 0.000], [0, 0, 0, 0], [ 9E9, 9E9, 9E9, 9E9, 9E9, 9E9] ], v1000, fine, pen\WObj:=platform;
    
    !!-2.752808988764045, 0.056179775280899014;
    MoveL [ [-9.928, 4.248, 49.285], [0.083, 0.503, 0.860, 0.000], [0, 0, 0, 0], [ 9E9, 9E9, 9E9, 9E9, 9E9, 9E9] ], v1000, fine, pen\WObj:=platform;
    MoveL [ [-2.753, 0.056, -0.020], [0.083, 0.503, 0.860, 0.000], [0, 0, 0, 0], [ 9E9, 9E9, 9E9, 9E9, 9E9, 9E9] ], v30, fine, pen\WObj:=platform;
    MoveL [ [-9.928, 4.248, 49.285], [0.083, 0.503, 0.860, 0.000], [0, 0, 0, 0], [ 9E9, 9E9, 9E9, 9E9, 9E9, 9E9] ], v1000, fine, pen\WObj:=platform;
    
    !!-2.640449438202247, 0.056179775280899014;
    MoveL [ [-0.770, 8.681, 49.195], [0.089, 0.973, -0.211, 0.000], [0, 0, 0, 0], [ 9E9, 9E9, 9E9, 9E9, 9E9, 9E9] ], v1000, fine, pen\WObj:=platform;
    MoveL [ [-2.640, 0.056, -0.020], [0.089, 0.973, -0.211, 0.000], [0, 0, 0, 0], [ 9E9, 9E9, 9E9, 9E9, 9E9, 9E9] ], v30, fine, pen\WObj:=platform;
    MoveL [ [-0.770, 8.681, 49.195], [0.089, 0.973, -0.211, 0.000], [0, 0, 0, 0], [ 9E9, 9E9, 9E9, 9E9, 9E9, 9E9] ], v1000, fine, pen\WObj:=platform;
    
    !!-2.5280898876404496, 0.056179775280899014;
    MoveL [ [-7.713, -5.291, 49.422], [0.075, -0.716, 0.694, 0.000], [0, 0, 0, 0], [ 9E9, 9E9, 9E9, 9E9, 9E9, 9E9] ], v1000, fine, pen\WObj:=platform;
    MoveL [ [-2.528, 0.056, -0.020], [0.075, -0.716, 0.694, 0.000], [0, 0, 0, 0], [ 9E9, 9E9, 9E9, 9E9, 9E9, 9E9] ], v30, fine, pen\WObj:=platform;
    MoveL [ [-7.713, -5.291, 49.422], [0.075, -0.716, 0.694, 0.000], [0, 0, 0, 0], [ 9E9, 9E9, 9E9, 9E9, 9E9, 9E9] ], v1000, fine, pen\WObj:=platform;
    
    !!-1.853932584269663, 0.056179775280899014;
    MoveL [ [2.561, -1.476, 49.761], [0.047, -0.327, -0.944, 0.000], [0, 0, 0, 0], [ 9E9, 9E9, 9E9, 9E9, 9E9, 9E9] ], v1000, fine, pen\WObj:=platform;
    MoveL [ [-1.854, 0.056, -0.020], [0.047, -0.327, -0.944, 0.000], [0, 0, 0, 0], [ 9E9, 9E9, 9E9, 9E9, 9E9, 9E9] ], v30, fine, pen\WObj:=platform;
    MoveL [ [2.561, -1.476, 49.761], [0.047, -0.327, -0.944, 0.000], [0, 0, 0, 0], [ 9E9, 9E9, 9E9, 9E9, 9E9, 9E9] ], v1000, fine, pen\WObj:=platform;
    
    !!-1.7415730337078652, 0.056179775280899014;
    MoveL [ [-7.325, 6.405, 49.260], [0.085, 0.748, 0.658, 0.000], [0, 0, 0, 0], [ 9E9, 9E9, 9E9, 9E9, 9E9, 9E9] ], v1000, fine, pen\WObj:=platform;
    MoveL [ [-1.742, 0.056, -0.020], [0.085, 0.748, 0.658, 0.000], [0, 0, 0, 0], [ 9E9, 9E9, 9E9, 9E9, 9E9, 9E9] ], v30, fine, pen\WObj:=platform;
    MoveL [ [-7.325, 6.405, 49.260], [0.085, 0.748, 0.658, 0.000], [0, 0, 0, 0], [ 9E9, 9E9, 9E9, 9E9, 9E9, 9E9] ], v1000, fine, pen\WObj:=platform;
    
    !!-1.6292134831460676, 0.056179775280899014;
    MoveL [ [-8.803, 1.549, 49.440], [0.073, 0.203, 0.976, 0.000], [0, 0, 0, 0], [ 9E9, 9E9, 9E9, 9E9, 9E9, 9E9] ], v1000, fine, pen\WObj:=platform;
    MoveL [ [-1.629, 0.056, -0.020], [0.073, 0.203, 0.976, 0.000], [0, 0, 0, 0], [ 9E9, 9E9, 9E9, 9E9, 9E9, 9E9] ], v30, fine, pen\WObj:=platform;
    MoveL [ [-8.803, 1.549, 49.440], [0.073, 0.203, 0.976, 0.000], [0, 0, 0, 0], [ 9E9, 9E9, 9E9, 9E9, 9E9, 9E9] ], v1000, fine, pen\WObj:=platform;
    
    !!-1.5168539325842698, 0.056179775280899014;
    MoveL [ [0.164, 5.563, 49.647], [0.058, 0.955, -0.291, 0.000], [0, 0, 0, 0], [ 9E9, 9E9, 9E9, 9E9, 9E9, 9E9] ], v1000, fine, pen\WObj:=platform;
    MoveL [ [-1.517, 0.056, -0.020], [0.058, 0.955, -0.291, 0.000], [0, 0, 0, 0], [ 9E9, 9E9, 9E9, 9E9, 9E9, 9E9] ], v30, fine, pen\WObj:=platform;
    MoveL [ [0.164, 5.563, 49.647], [0.058, 0.955, -0.291, 0.000], [0, 0, 0, 0], [ 9E9, 9E9, 9E9, 9E9, 9E9, 9E9] ], v1000, fine, pen\WObj:=platform;
    
    !!-1.404494382022472, 0.056179775280899014;
    MoveL [ [-2.903, 3.376, 49.847], [0.036, 0.911, 0.411, 0.000], [0, 0, 0, 0], [ 9E9, 9E9, 9E9, 9E9, 9E9, 9E9] ], v1000, fine, pen\WObj:=platform;
    MoveL [ [-1.404, 0.056, -0.020], [0.036, 0.911, 0.411, 0.000], [0, 0, 0, 0], [ 9E9, 9E9, 9E9, 9E9, 9E9, 9E9] ], v30, fine, pen\WObj:=platform;
    MoveL [ [-2.903, 3.376, 49.847], [0.036, 0.911, 0.411, 0.000], [0, 0, 0, 0], [ 9E9, 9E9, 9E9, 9E9, 9E9, 9E9] ], v1000, fine, pen\WObj:=platform;
    
    !!-1.2921348314606742, 0.056179775280899014;
    MoveL [ [-9.131, 4.713, 49.142], [0.092, 0.509, 0.856, 0.000], [0, 0, 0, 0], [ 9E9, 9E9, 9E9, 9E9, 9E9, 9E9] ], v1000, fine, pen\WObj:=platform;
    MoveL [ [-1.292, 0.056, -0.020], [0.092, 0.509, 0.856, 0.000], [0, 0, 0, 0], [ 9E9, 9E9, 9E9, 9E9, 9E9, 9E9] ], v30, fine, pen\WObj:=platform;
    MoveL [ [-9.131, 4.713, 49.142], [0.092, 0.509, 0.856, 0.000], [0, 0, 0, 0], [ 9E9, 9E9, 9E9, 9E9, 9E9, 9E9] ], v1000, fine, pen\WObj:=platform;
    
    !!-0.7303370786516854, 0.056179775280899014;
    MoveL [ [-8.650, -0.372, 49.347], [0.080, -0.054, 0.995, 0.000], [0, 0, 0, 0], [ 9E9, 9E9, 9E9, 9E9, 9E9, 9E9] ], v1000, fine, pen\WObj:=platform;
    MoveL [ [-0.730, 0.056, -0.020], [0.080, -0.054, 0.995, 0.000], [0, 0, 0, 0], [ 9E9, 9E9, 9E9, 9E9, 9E9, 9E9] ], v30, fine, pen\WObj:=platform;
    MoveL [ [-8.650, -0.372, 49.347], [0.080, -0.054, 0.995, 0.000], [0, 0, 0, 0], [ 9E9, 9E9, 9E9, 9E9, 9E9, 9E9] ], v1000, fine, pen\WObj:=platform;
    
    !!-0.6179775280898876, 0.056179775280899014;
    MoveL [ [-1.485, 2.336, 49.920], [0.024, 0.934, 0.355, 0.000], [0, 0, 0, 0], [ 9E9, 9E9, 9E9, 9E9, 9E9, 9E9] ], v1000, fine, pen\WObj:=platform;
    MoveL [ [-0.618, 0.056, -0.020], [0.024, 0.934, 0.355, 0.000], [0, 0, 0, 0], [ 9E9, 9E9, 9E9, 9E9, 9E9, 9E9] ], v30, fine, pen\WObj:=platform;
    MoveL [ [-1.485, 2.336, 49.920], [0.024, 0.934, 0.355, 0.000], [0, 0, 0, 0], [ 9E9, 9E9, 9E9, 9E9, 9E9, 9E9] ], v1000, fine, pen\WObj:=platform;
    
    !!0.2808988764044944, 0.056179775280899014;
    MoveL [ [-8.676, -8.919, 48.346], [0.128, -0.702, 0.701, 0.000], [0, 0, 0, 0], [ 9E9, 9E9, 9E9, 9E9, 9E9, 9E9] ], v1000, fine, pen\WObj:=platform;
    MoveL [ [0.281, 0.056, -0.020], [0.128, -0.702, 0.701, 0.000], [0, 0, 0, 0], [ 9E9, 9E9, 9E9, 9E9, 9E9, 9E9] ], v30, fine, pen\WObj:=platform;
    MoveL [ [-8.676, -8.919, 48.346], [0.128, -0.702, 0.701, 0.000], [0, 0, 0, 0], [ 9E9, 9E9, 9E9, 9E9, 9E9, 9E9] ], v1000, fine, pen\WObj:=platform;
    
    !!0.3932584269662921, 0.056179775280899014;
    MoveL [ [-7.475, -8.938, 48.531], [0.120, -0.747, 0.654, 0.000], [0, 0, 0, 0], [ 9E9, 9E9, 9E9, 9E9, 9E9, 9E9] ], v1000, fine, pen\WObj:=platform;
    MoveL [ [0.393, 0.056, -0.020], [0.120, -0.747, 0.654, 0.000], [0, 0, 0, 0], [ 9E9, 9E9, 9E9, 9E9, 9E9, 9E9] ], v30, fine, pen\WObj:=platform;
    MoveL [ [-7.475, -8.938, 48.531], [0.120, -0.747, 0.654, 0.000], [0, 0, 0, 0], [ 9E9, 9E9, 9E9, 9E9, 9E9, 9E9] ], v1000, fine, pen\WObj:=platform;
    
    !!0.9550561797752809, 0.056179775280899014;
    MoveL [ [-27.932, 40.733, 3.283], [0.683, 0.595, 0.423, 0.000], [0, 0, 0, 0], [ 9E9, 9E9, 9E9, 9E9, 9E9, 9E9] ], v1000, fine, pen\WObj:=platform;
    MoveL [ [0.955, 0.056, -0.020], [0.683, 0.595, 0.423, 0.000], [0, 0, 0, 0], [ 9E9, 9E9, 9E9, 9E9, 9E9, 9E9] ], v30, fine, pen\WObj:=platform;
    MoveL [ [-27.932, 40.733, 3.283], [0.683, 0.595, 0.423, 0.000], [0, 0, 0, 0], [ 9E9, 9E9, 9E9, 9E9, 9E9, 9E9] ], v1000, fine, pen\WObj:=platform;
    
    !!1.0674157303370786, 0.056179775280899014;
    MoveL [ [-1.331, -0.322, 49.921], [0.024, -0.156, 0.988, 0.000], [0, 0, 0, 0], [ 9E9, 9E9, 9E9, 9E9, 9E9, 9E9] ], v1000, fine, pen\WObj:=platform;
    MoveL [ [1.067, 0.056, -0.020], [0.024, -0.156, 0.988, 0.000], [0, 0, 0, 0], [ 9E9, 9E9, 9E9, 9E9, 9E9, 9E9] ], v30, fine, pen\WObj:=platform;
    MoveL [ [-1.331, -0.322, 49.921], [0.024, -0.156, 0.988, 0.000], [0, 0, 0, 0], [ 9E9, 9E9, 9E9, 9E9, 9E9, 9E9] ], v1000, fine, pen\WObj:=platform;
    
    !!1.1797752808988764, 0.056179775280899014;
    MoveL [ [-9.608, 6.958, 48.312], [0.129, 0.534, 0.835, 0.000], [0, 0, 0, 0], [ 9E9, 9E9, 9E9, 9E9, 9E9, 9E9] ], v1000, fine, pen\WObj:=platform;
    MoveL [ [1.180, 0.056, -0.020], [0.129, 0.534, 0.835, 0.000], [0, 0, 0, 0], [ 9E9, 9E9, 9E9, 9E9, 9E9, 9E9] ], v30, fine, pen\WObj:=platform;
    MoveL [ [-9.608, 6.958, 48.312], [0.129, 0.534, 0.835, 0.000], [0, 0, 0, 0], [ 9E9, 9E9, 9E9, 9E9, 9E9, 9E9] ], v1000, fine, pen\WObj:=platform;
    
    !!1.2921348314606742, 0.056179775280899014;
    MoveL [ [-10.155, 6.343, 48.244], [0.132, 0.477, 0.869, 0.000], [0, 0, 0, 0], [ 9E9, 9E9, 9E9, 9E9, 9E9, 9E9] ], v1000, fine, pen\WObj:=platform;
    MoveL [ [1.292, 0.056, -0.020], [0.132, 0.477, 0.869, 0.000], [0, 0, 0, 0], [ 9E9, 9E9, 9E9, 9E9, 9E9, 9E9] ], v30, fine, pen\WObj:=platform;
    MoveL [ [-10.155, 6.343, 48.244], [0.132, 0.477, 0.869, 0.000], [0, 0, 0, 0], [ 9E9, 9E9, 9E9, 9E9, 9E9, 9E9] ], v1000, fine, pen\WObj:=platform;
    
    !!1.404494382022472, 0.056179775280899014;
    MoveL [ [2.391, 5.870, 49.631], [0.059, 0.984, -0.167, 0.000], [0, 0, 0, 0], [ 9E9, 9E9, 9E9, 9E9, 9E9, 9E9] ], v1000, fine, pen\WObj:=platform;
    MoveL [ [1.404, 0.056, -0.020], [0.059, 0.984, -0.167, 0.000], [0, 0, 0, 0], [ 9E9, 9E9, 9E9, 9E9, 9E9, 9E9] ], v30, fine, pen\WObj:=platform;
    MoveL [ [2.391, 5.870, 49.631], [0.059, 0.984, -0.167, 0.000], [0, 0, 0, 0], [ 9E9, 9E9, 9E9, 9E9, 9E9, 9E9] ], v1000, fine, pen\WObj:=platform;
    
    !!1.5168539325842698, 0.056179775280899014;
    MoveL [ [-9.504, 2.947, 48.665], [0.115, 0.252, 0.961, 0.000], [0, 0, 0, 0], [ 9E9, 9E9, 9E9, 9E9, 9E9, 9E9] ], v1000, fine, pen\WObj:=platform;
    MoveL [ [1.517, 0.056, -0.020], [0.115, 0.252, 0.961, 0.000], [0, 0, 0, 0], [ 9E9, 9E9, 9E9, 9E9, 9E9, 9E9] ], v30, fine, pen\WObj:=platform;
    MoveL [ [-9.504, 2.947, 48.665], [0.115, 0.252, 0.961, 0.000], [0, 0, 0, 0], [ 9E9, 9E9, 9E9, 9E9, 9E9, 9E9] ], v1000, fine, pen\WObj:=platform;
    
    !!1.6292134831460676, 0.056179775280899014;
    MoveL [ [-8.240, 4.651, 48.780], [0.110, 0.420, 0.901, 0.000], [0, 0, 0, 0], [ 9E9, 9E9, 9E9, 9E9, 9E9, 9E9] ], v1000, fine, pen\WObj:=platform;
    MoveL [ [1.629, 0.056, -0.020], [0.110, 0.420, 0.901, 0.000], [0, 0, 0, 0], [ 9E9, 9E9, 9E9, 9E9, 9E9, 9E9] ], v30, fine, pen\WObj:=platform;
    MoveL [ [-8.240, 4.651, 48.780], [0.110, 0.420, 0.901, 0.000], [0, 0, 0, 0], [ 9E9, 9E9, 9E9, 9E9, 9E9, 9E9] ], v1000, fine, pen\WObj:=platform;
    
    !!2.1910112359550564, 0.056179775280899014;
    MoveL [ [-7.249, 8.020, 48.431], [0.124, 0.640, 0.758, 0.000], [0, 0, 0, 0], [ 9E9, 9E9, 9E9, 9E9, 9E9, 9E9] ], v1000, fine, pen\WObj:=platform;
    MoveL [ [2.191, 0.056, -0.020], [0.124, 0.640, 0.758, 0.000], [0, 0, 0, 0], [ 9E9, 9E9, 9E9, 9E9, 9E9, 9E9] ], v30, fine, pen\WObj:=platform;
    MoveL [ [-7.249, 8.020, 48.431], [0.124, 0.640, 0.758, 0.000], [0, 0, 0, 0], [ 9E9, 9E9, 9E9, 9E9, 9E9, 9E9] ], v1000, fine, pen\WObj:=platform;
    
    !!2.303370786516854, 0.056179775280899014;
    MoveL [ [-8.389, 8.583, 48.073], [0.138, 0.618, 0.774, 0.000], [0, 0, 0, 0], [ 9E9, 9E9, 9E9, 9E9, 9E9, 9E9] ], v1000, fine, pen\WObj:=platform;
    MoveL [ [2.303, 0.056, -0.020], [0.138, 0.618, 0.774, 0.000], [0, 0, 0, 0], [ 9E9, 9E9, 9E9, 9E9, 9E9, 9E9] ], v30, fine, pen\WObj:=platform;
    MoveL [ [-8.389, 8.583, 48.073], [0.138, 0.618, 0.774, 0.000], [0, 0, 0, 0], [ 9E9, 9E9, 9E9, 9E9, 9E9, 9E9] ], v1000, fine, pen\WObj:=platform;
    
    !!2.4157303370786516, 0.056179775280899014;
    MoveL [ [-6.406, 6.714, 48.743], [0.111, 0.599, 0.793, 0.000], [0, 0, 0, 0], [ 9E9, 9E9, 9E9, 9E9, 9E9, 9E9] ], v1000, fine, pen\WObj:=platform;
    MoveL [ [2.416, 0.056, -0.020], [0.111, 0.599, 0.793, 0.000], [0, 0, 0, 0], [ 9E9, 9E9, 9E9, 9E9, 9E9, 9E9] ], v30, fine, pen\WObj:=platform;
    MoveL [ [-6.406, 6.714, 48.743], [0.111, 0.599, 0.793, 0.000], [0, 0, 0, 0], [ 9E9, 9E9, 9E9, 9E9, 9E9, 9E9] ], v1000, fine, pen\WObj:=platform;
    
    !!2.9775280898876404, 0.056179775280899014;
    MoveL [ [-10.007, -1.050, 48.252], [0.131, -0.084, 0.988, 0.000], [0, 0, 0, 0], [ 9E9, 9E9, 9E9, 9E9, 9E9, 9E9] ], v1000, fine, pen\WObj:=platform;
    MoveL [ [2.978, 0.056, -0.020], [0.131, -0.084, 0.988, 0.000], [0, 0, 0, 0], [ 9E9, 9E9, 9E9, 9E9, 9E9, 9E9] ], v30, fine, pen\WObj:=platform;
    MoveL [ [-10.007, -1.050, 48.252], [0.131, -0.084, 0.988, 0.000], [0, 0, 0, 0], [ 9E9, 9E9, 9E9, 9E9, 9E9, 9E9] ], v1000, fine, pen\WObj:=platform;
    
    !!3.089887640449438, 0.056179775280899014;
    MoveL [ [-9.342, -3.884, 48.249], [0.132, -0.300, 0.945, 0.000], [0, 0, 0, 0], [ 9E9, 9E9, 9E9, 9E9, 9E9, 9E9] ], v1000, fine, pen\WObj:=platform;
    MoveL [ [3.090, 0.056, -0.020], [0.132, -0.300, 0.945, 0.000], [0, 0, 0, 0], [ 9E9, 9E9, 9E9, 9E9, 9E9, 9E9] ], v30, fine, pen\WObj:=platform;
    MoveL [ [-9.342, -3.884, 48.249], [0.132, -0.300, 0.945, 0.000], [0, 0, 0, 0], [ 9E9, 9E9, 9E9, 9E9, 9E9, 9E9] ], v1000, fine, pen\WObj:=platform;
    
    !!3.202247191011236, 0.056179775280899014;
    MoveL [ [-11.152, 2.317, 47.822], [0.147, 0.154, 0.977, 0.000], [0, 0, 0, 0], [ 9E9, 9E9, 9E9, 9E9, 9E9, 9E9] ], v1000, fine, pen\WObj:=platform;
    MoveL [ [3.202, 0.056, -0.020], [0.147, 0.154, 0.977, 0.000], [0, 0, 0, 0], [ 9E9, 9E9, 9E9, 9E9, 9E9, 9E9] ], v30, fine, pen\WObj:=platform;
    MoveL [ [-11.152, 2.317, 47.822], [0.147, 0.154, 0.977, 0.000], [0, 0, 0, 0], [ 9E9, 9E9, 9E9, 9E9, 9E9, 9E9] ], v1000, fine, pen\WObj:=platform;
    
    !!3.5393258426966288, 0.056179775280899014;
    MoveL [ [-4.697, 10.049, 48.274], [0.131, 0.765, 0.631, 0.000], [0, 0, 0, 0], [ 9E9, 9E9, 9E9, 9E9, 9E9, 9E9] ], v1000, fine, pen\WObj:=platform;
    MoveL [ [3.539, 0.056, -0.020], [0.131, 0.765, 0.631, 0.000], [0, 0, 0, 0], [ 9E9, 9E9, 9E9, 9E9, 9E9, 9E9] ], v30, fine, pen\WObj:=platform;
    MoveL [ [-4.697, 10.049, 48.274], [0.131, 0.765, 0.631, 0.000], [0, 0, 0, 0], [ 9E9, 9E9, 9E9, 9E9, 9E9, 9E9] ], v1000, fine, pen\WObj:=platform;
    
    !!3.6516853932584272, 0.056179775280899014;
    MoveL [ [-9.017, -15.105, 45.911], [0.202, -0.752, 0.628, 0.000], [0, 0, 0, 0], [ 9E9, 9E9, 9E9, 9E9, 9E9, 9E9] ], v1000, fine, pen\WObj:=platform;
    MoveL [ [3.652, 0.056, -0.020], [0.202, -0.752, 0.628, 0.000], [0, 0, 0, 0], [ 9E9, 9E9, 9E9, 9E9, 9E9, 9E9] ], v30, fine, pen\WObj:=platform;
    MoveL [ [-9.017, -15.105, 45.911], [0.202, -0.752, 0.628, 0.000], [0, 0, 0, 0], [ 9E9, 9E9, 9E9, 9E9, 9E9, 9E9] ], v1000, fine, pen\WObj:=platform;
    
    !!3.7640449438202244, 0.056179775280899014;
    MoveL [ [-4.179, 4.900, 49.107], [0.093, 0.518, 0.850, 0.000], [0, 0, 0, 0], [ 9E9, 9E9, 9E9, 9E9, 9E9, 9E9] ], v1000, fine, pen\WObj:=platform;
    MoveL [ [3.764, 0.056, -0.020], [0.093, 0.518, 0.850, 0.000], [0, 0, 0, 0], [ 9E9, 9E9, 9E9, 9E9, 9E9, 9E9] ], v30, fine, pen\WObj:=platform;
    MoveL [ [-4.179, 4.900, 49.107], [0.093, 0.518, 0.850, 0.000], [0, 0, 0, 0], [ 9E9, 9E9, 9E9, 9E9, 9E9, 9E9] ], v1000, fine, pen\WObj:=platform;
    
    !!3.8764044943820224, 0.056179775280899014;
    MoveL [ [-7.553, -1.453, 48.633], [0.116, -0.130, 0.985, 0.000], [0, 0, 0, 0], [ 9E9, 9E9, 9E9, 9E9, 9E9, 9E9] ], v1000, fine, pen\WObj:=platform;
    MoveL [ [3.876, 0.056, -0.020], [0.116, -0.130, 0.985, 0.000], [0, 0, 0, 0], [ 9E9, 9E9, 9E9, 9E9, 9E9, 9E9] ], v30, fine, pen\WObj:=platform;
    MoveL [ [-7.553, -1.453, 48.633], [0.116, -0.130, 0.985, 0.000], [0, 0, 0, 0], [ 9E9, 9E9, 9E9, 9E9, 9E9, 9E9] ], v1000, fine, pen\WObj:=platform;
    
    !!3.98876404494382, 0.056179775280899014;
    MoveL [ [-10.746, 6.526, 47.320], [0.163, 0.397, 0.903, 0.000], [0, 0, 0, 0], [ 9E9, 9E9, 9E9, 9E9, 9E9, 9E9] ], v1000, fine, pen\WObj:=platform;
    MoveL [ [3.989, 0.056, -0.020], [0.163, 0.397, 0.903, 0.000], [0, 0, 0, 0], [ 9E9, 9E9, 9E9, 9E9, 9E9, 9E9] ], v30, fine, pen\WObj:=platform;
    MoveL [ [-10.746, 6.526, 47.320], [0.163, 0.397, 0.903, 0.000], [0, 0, 0, 0], [ 9E9, 9E9, 9E9, 9E9, 9E9, 9E9] ], v1000, fine, pen\WObj:=platform;
    
    !!4.101123595505618, 0.056179775280899014;
    MoveL [ [-10.125, 1.612, 47.888], [0.145, 0.108, 0.984, 0.000], [0, 0, 0, 0], [ 9E9, 9E9, 9E9, 9E9, 9E9, 9E9] ], v1000, fine, pen\WObj:=platform;
    MoveL [ [4.101, 0.056, -0.020], [0.145, 0.108, 0.984, 0.000], [0, 0, 0, 0], [ 9E9, 9E9, 9E9, 9E9, 9E9, 9E9] ], v30, fine, pen\WObj:=platform;
    MoveL [ [-10.125, 1.612, 47.888], [0.145, 0.108, 0.984, 0.000], [0, 0, 0, 0], [ 9E9, 9E9, 9E9, 9E9, 9E9, 9E9] ], v1000, fine, pen\WObj:=platform;
    
    !!4.213483146067415, 0.056179775280899014;
    MoveL [ [-8.736, 7.742, 47.658], [0.152, 0.504, 0.850, 0.000], [0, 0, 0, 0], [ 9E9, 9E9, 9E9, 9E9, 9E9, 9E9] ], v1000, fine, pen\WObj:=platform;
    MoveL [ [4.213, 0.056, -0.020], [0.152, 0.504, 0.850, 0.000], [0, 0, 0, 0], [ 9E9, 9E9, 9E9, 9E9, 9E9, 9E9] ], v30, fine, pen\WObj:=platform;
    MoveL [ [-8.736, 7.742, 47.658], [0.152, 0.504, 0.850, 0.000], [0, 0, 0, 0], [ 9E9, 9E9, 9E9, 9E9, 9E9, 9E9] ], v1000, fine, pen\WObj:=platform;
    
    !!4.325842696629214, 0.056179775280899014;
    MoveL [ [-3.322, -4.571, 49.175], [0.090, -0.516, 0.852, 0.000], [0, 0, 0, 0], [ 9E9, 9E9, 9E9, 9E9, 9E9, 9E9] ], v1000, fine, pen\WObj:=platform;
    MoveL [ [4.326, 0.056, -0.020], [0.090, -0.516, 0.852, 0.000], [0, 0, 0, 0], [ 9E9, 9E9, 9E9, 9E9, 9E9, 9E9] ], v30, fine, pen\WObj:=platform;
    MoveL [ [-3.322, -4.571, 49.175], [0.090, -0.516, 0.852, 0.000], [0, 0, 0, 0], [ 9E9, 9E9, 9E9, 9E9, 9E9, 9E9] ], v1000, fine, pen\WObj:=platform;
    
    !!-4.550561797752809, -0.056179775280898736;
    MoveL [ [-4.900, 5.651, 49.652], [0.057, 0.996, 0.061, 0.000], [0, 0, 0, 0], [ 9E9, 9E9, 9E9, 9E9, 9E9, 9E9] ], v1000, fine, pen\WObj:=platform;
    MoveL [ [-4.551, -0.056, -0.020], [0.057, 0.996, 0.061, 0.000], [0, 0, 0, 0], [ 9E9, 9E9, 9E9, 9E9, 9E9, 9E9] ], v30, fine, pen\WObj:=platform;
    MoveL [ [-4.900, 5.651, 49.652], [0.057, 0.996, 0.061, 0.000], [0, 0, 0, 0], [ 9E9, 9E9, 9E9, 9E9, 9E9, 9E9] ], v1000, fine, pen\WObj:=platform;
    
    !!-4.438202247191011, -0.056179775280898736;
    MoveL [ [-6.940, -15.058, 47.611], [0.154, -0.975, 0.163, 0.000], [0, 0, 0, 0], [ 9E9, 9E9, 9E9, 9E9, 9E9, 9E9] ], v1000, fine, pen\WObj:=platform;
    MoveL [ [-4.438, -0.056, -0.020], [0.154, -0.975, 0.163, 0.000], [0, 0, 0, 0], [ 9E9, 9E9, 9E9, 9E9, 9E9, 9E9] ], v30, fine, pen\WObj:=platform;
    MoveL [ [-6.940, -15.058, 47.611], [0.154, -0.975, 0.163, 0.000], [0, 0, 0, 0], [ 9E9, 9E9, 9E9, 9E9, 9E9, 9E9] ], v1000, fine, pen\WObj:=platform;
    
    !!-4.325842696629214, -0.056179775280898736;
    MoveL [ [-1.913, -1.291, 49.906], [0.027, -0.456, -0.890, 0.000], [0, 0, 0, 0], [ 9E9, 9E9, 9E9, 9E9, 9E9, 9E9] ], v1000, fine, pen\WObj:=platform;
    MoveL [ [-4.326, -0.056, -0.020], [0.027, -0.456, -0.890, 0.000], [0, 0, 0, 0], [ 9E9, 9E9, 9E9, 9E9, 9E9, 9E9] ], v30, fine, pen\WObj:=platform;
    MoveL [ [-1.913, -1.291, 49.906], [0.027, -0.456, -0.890, 0.000], [0, 0, 0, 0], [ 9E9, 9E9, 9E9, 9E9, 9E9, 9E9] ], v1000, fine, pen\WObj:=platform;
    
    !!-4.213483146067415, -0.056179775280898736;
    MoveL [ [-2.316, 3.760, 49.798], [0.043, 0.895, -0.445, 0.000], [0, 0, 0, 0], [ 9E9, 9E9, 9E9, 9E9, 9E9, 9E9] ], v1000, fine, pen\WObj:=platform;
    MoveL [ [-4.213, -0.056, -0.020], [0.043, 0.895, -0.445, 0.000], [0, 0, 0, 0], [ 9E9, 9E9, 9E9, 9E9, 9E9, 9E9] ], v30, fine, pen\WObj:=platform;
    MoveL [ [-2.316, 3.760, 49.798], [0.043, 0.895, -0.445, 0.000], [0, 0, 0, 0], [ 9E9, 9E9, 9E9, 9E9, 9E9, 9E9] ], v1000, fine, pen\WObj:=platform;
    
    !!-4.101123595505618, -0.056179775280898736;
    MoveL [ [-4.434, -4.891, 49.745], [0.049, -0.996, 0.069, 0.000], [0, 0, 0, 0], [ 9E9, 9E9, 9E9, 9E9, 9E9, 9E9] ], v1000, fine, pen\WObj:=platform;
    MoveL [ [-4.101, -0.056, -0.020], [0.049, -0.996, 0.069, 0.000], [0, 0, 0, 0], [ 9E9, 9E9, 9E9, 9E9, 9E9, 9E9] ], v30, fine, pen\WObj:=platform;
    MoveL [ [-4.434, -4.891, 49.745], [0.049, -0.996, 0.069, 0.000], [0, 0, 0, 0], [ 9E9, 9E9, 9E9, 9E9, 9E9, 9E9] ], v1000, fine, pen\WObj:=platform;
    
    !!-3.98876404494382, -0.056179775280898736;
    MoveL [ [-5.225, -6.272, 49.577], [0.063, -0.979, 0.195, 0.000], [0, 0, 0, 0], [ 9E9, 9E9, 9E9, 9E9, 9E9, 9E9] ], v1000, fine, pen\WObj:=platform;
    MoveL [ [-3.989, -0.056, -0.020], [0.063, -0.979, 0.195, 0.000], [0, 0, 0, 0], [ 9E9, 9E9, 9E9, 9E9, 9E9, 9E9] ], v30, fine, pen\WObj:=platform;
    MoveL [ [-5.225, -6.272, 49.577], [0.063, -0.979, 0.195, 0.000], [0, 0, 0, 0], [ 9E9, 9E9, 9E9, 9E9, 9E9, 9E9] ], v1000, fine, pen\WObj:=platform;
    
    !!-3.8764044943820224, -0.056179775280898736;
    MoveL [ [-3.211, -7.529, 49.414], [0.075, -0.993, -0.088, 0.000], [0, 0, 0, 0], [ 9E9, 9E9, 9E9, 9E9, 9E9, 9E9] ], v1000, fine, pen\WObj:=platform;
    MoveL [ [-3.876, -0.056, -0.020], [0.075, -0.993, -0.088, 0.000], [0, 0, 0, 0], [ 9E9, 9E9, 9E9, 9E9, 9E9, 9E9] ], v30, fine, pen\WObj:=platform;
    MoveL [ [-3.211, -7.529, 49.414], [0.075, -0.993, -0.088, 0.000], [0, 0, 0, 0], [ 9E9, 9E9, 9E9, 9E9, 9E9, 9E9] ], v1000, fine, pen\WObj:=platform;
    
    !!-3.7640449438202244, -0.056179775280898736;
    MoveL [ [-4.687, 9.263, 49.095], [0.094, 0.991, 0.098, 0.000], [0, 0, 0, 0], [ 9E9, 9E9, 9E9, 9E9, 9E9, 9E9] ], v1000, fine, pen\WObj:=platform;
    MoveL [ [-3.764, -0.056, -0.020], [0.094, 0.991, 0.098, 0.000], [0, 0, 0, 0], [ 9E9, 9E9, 9E9, 9E9, 9E9, 9E9] ], v30, fine, pen\WObj:=platform;
    MoveL [ [-4.687, 9.263, 49.095], [0.094, 0.991, 0.098, 0.000], [0, 0, 0, 0], [ 9E9, 9E9, 9E9, 9E9, 9E9, 9E9] ], v1000, fine, pen\WObj:=platform;
    
    !!-3.6516853932584272, -0.056179775280898736;
    MoveL [ [4.223, 5.296, 49.065], [0.096, 0.560, -0.823, 0.000], [0, 0, 0, 0], [ 9E9, 9E9, 9E9, 9E9, 9E9, 9E9] ], v1000, fine, pen\WObj:=platform;
    MoveL [ [-3.652, -0.056, -0.020], [0.096, 0.560, -0.823, 0.000], [0, 0, 0, 0], [ 9E9, 9E9, 9E9, 9E9, 9E9, 9E9] ], v30, fine, pen\WObj:=platform;
    MoveL [ [4.223, 5.296, 49.065], [0.096, 0.560, -0.823, 0.000], [0, 0, 0, 0], [ 9E9, 9E9, 9E9, 9E9, 9E9, 9E9] ], v1000, fine, pen\WObj:=platform;
    
    !!-3.202247191011236, -0.056179775280898736;
    MoveL [ [-5.227, -4.191, 49.768], [0.046, -0.897, 0.439, 0.000], [0, 0, 0, 0], [ 9E9, 9E9, 9E9, 9E9, 9E9, 9E9] ], v1000, fine, pen\WObj:=platform;
    MoveL [ [-3.202, -0.056, -0.020], [0.046, -0.897, 0.439, 0.000], [0, 0, 0, 0], [ 9E9, 9E9, 9E9, 9E9, 9E9, 9E9] ], v30, fine, pen\WObj:=platform;
    MoveL [ [-5.227, -4.191, 49.768], [0.046, -0.897, 0.439, 0.000], [0, 0, 0, 0], [ 9E9, 9E9, 9E9, 9E9, 9E9, 9E9] ], v1000, fine, pen\WObj:=platform;
    
    !!-3.089887640449438, -0.056179775280898736;
    MoveL [ [-9.702, 2.957, 49.449], [0.073, 0.414, 0.908, 0.000], [0, 0, 0, 0], [ 9E9, 9E9, 9E9, 9E9, 9E9, 9E9] ], v1000, fine, pen\WObj:=platform;
    MoveL [ [-3.090, -0.056, -0.020], [0.073, 0.414, 0.908, 0.000], [0, 0, 0, 0], [ 9E9, 9E9, 9E9, 9E9, 9E9, 9E9] ], v30, fine, pen\WObj:=platform;
    MoveL [ [-9.702, 2.957, 49.449], [0.073, 0.414, 0.908, 0.000], [0, 0, 0, 0], [ 9E9, 9E9, 9E9, 9E9, 9E9, 9E9] ], v1000, fine, pen\WObj:=platform;
    
    !!-2.9775280898876404, -0.056179775280898736;
    MoveL [ [-10.871, 0.910, 49.344], [0.080, 0.121, 0.989, 0.000], [0, 0, 0, 0], [ 9E9, 9E9, 9E9, 9E9, 9E9, 9E9] ], v1000, fine, pen\WObj:=platform;
    MoveL [ [-2.978, -0.056, -0.020], [0.080, 0.121, 0.989, 0.000], [0, 0, 0, 0], [ 9E9, 9E9, 9E9, 9E9, 9E9, 9E9] ], v30, fine, pen\WObj:=platform;
    MoveL [ [-10.871, 0.910, 49.344], [0.080, 0.121, 0.989, 0.000], [0, 0, 0, 0], [ 9E9, 9E9, 9E9, 9E9, 9E9, 9E9] ], v1000, fine, pen\WObj:=platform;
    
    !!-2.8651685393258424, -0.056179775280898736;
    MoveL [ [-0.414, 3.799, 49.771], [0.046, 0.843, -0.536, 0.000], [0, 0, 0, 0], [ 9E9, 9E9, 9E9, 9E9, 9E9, 9E9] ], v1000, fine, pen\WObj:=platform;
    MoveL [ [-2.865, -0.056, -0.020], [0.046, 0.843, -0.536, 0.000], [0, 0, 0, 0], [ 9E9, 9E9, 9E9, 9E9, 9E9, 9E9] ], v30, fine, pen\WObj:=platform;
    MoveL [ [-0.414, 3.799, 49.771], [0.046, 0.843, -0.536, 0.000], [0, 0, 0, 0], [ 9E9, 9E9, 9E9, 9E9, 9E9, 9E9] ], v1000, fine, pen\WObj:=platform;
    
    !!-2.752808988764045, -0.056179775280898736;
    MoveL [ [-0.090, 2.967, 49.817], [0.040, 0.750, -0.660, 0.000], [0, 0, 0, 0], [ 9E9, 9E9, 9E9, 9E9, 9E9, 9E9] ], v1000, fine, pen\WObj:=platform;
    MoveL [ [-2.753, -0.056, -0.020], [0.040, 0.750, -0.660, 0.000], [0, 0, 0, 0], [ 9E9, 9E9, 9E9, 9E9, 9E9, 9E9] ], v30, fine, pen\WObj:=platform;
    MoveL [ [-0.090, 2.967, 49.817], [0.040, 0.750, -0.660, 0.000], [0, 0, 0, 0], [ 9E9, 9E9, 9E9, 9E9, 9E9, 9E9] ], v1000, fine, pen\WObj:=platform;
    
    !!-2.640449438202247, -0.056179775280898736;
    MoveL [ [-9.575, -3.622, 49.368], [0.078, -0.456, 0.887, 0.000], [0, 0, 0, 0], [ 9E9, 9E9, 9E9, 9E9, 9E9, 9E9] ], v1000, fine, pen\WObj:=platform;
    MoveL [ [-2.640, -0.056, -0.020], [0.078, -0.456, 0.887, 0.000], [0, 0, 0, 0], [ 9E9, 9E9, 9E9, 9E9, 9E9, 9E9] ], v30, fine, pen\WObj:=platform;
    MoveL [ [-9.575, -3.622, 49.368], [0.078, -0.456, 0.887, 0.000], [0, 0, 0, 0], [ 9E9, 9E9, 9E9, 9E9, 9E9, 9E9] ], v1000, fine, pen\WObj:=platform;
    
    !!-2.5280898876404496, -0.056179775280898736;
    MoveL [ [-10.163, -15.862, 46.798], [0.178, -0.886, 0.428, 0.000], [0, 0, 0, 0], [ 9E9, 9E9, 9E9, 9E9, 9E9, 9E9] ], v1000, fine, pen\WObj:=platform;
    MoveL [ [-2.528, -0.056, -0.020], [0.178, -0.886, 0.428, 0.000], [0, 0, 0, 0], [ 9E9, 9E9, 9E9, 9E9, 9E9, 9E9] ], v30, fine, pen\WObj:=platform;
    MoveL [ [-10.163, -15.862, 46.798], [0.178, -0.886, 0.428, 0.000], [0, 0, 0, 0], [ 9E9, 9E9, 9E9, 9E9, 9E9, 9E9] ], v1000, fine, pen\WObj:=platform;
    
    !!-1.9662921348314608, -0.056179775280898736;
    MoveL [ [-7.039, -15.617, 47.225], [0.166, -0.938, 0.306, 0.000], [0, 0, 0, 0], [ 9E9, 9E9, 9E9, 9E9, 9E9, 9E9] ], v1000, fine, pen\WObj:=platform;
    MoveL [ [-1.966, -0.056, -0.020], [0.166, -0.938, 0.306, 0.000], [0, 0, 0, 0], [ 9E9, 9E9, 9E9, 9E9, 9E9, 9E9] ], v30, fine, pen\WObj:=platform;
    MoveL [ [-7.039, -15.617, 47.225], [0.166, -0.938, 0.306, 0.000], [0, 0, 0, 0], [ 9E9, 9E9, 9E9, 9E9, 9E9, 9E9] ], v1000, fine, pen\WObj:=platform;
    
    !!-1.853932584269663, -0.056179775280898736;
    MoveL [ [-6.787, -14.187, 47.687], [0.151, -0.933, 0.326, 0.000], [0, 0, 0, 0], [ 9E9, 9E9, 9E9, 9E9, 9E9, 9E9] ], v1000, fine, pen\WObj:=platform;
    MoveL [ [-1.854, -0.056, -0.020], [0.151, -0.933, 0.326, 0.000], [0, 0, 0, 0], [ 9E9, 9E9, 9E9, 9E9, 9E9, 9E9] ], v30, fine, pen\WObj:=platform;
    MoveL [ [-6.787, -14.187, 47.687], [0.151, -0.933, 0.326, 0.000], [0, 0, 0, 0], [ 9E9, 9E9, 9E9, 9E9, 9E9, 9E9] ], v1000, fine, pen\WObj:=platform;
    
    !!-1.7415730337078652, -0.056179775280898736;
    MoveL [ [-6.556, -12.788, 48.092], [0.137, -0.926, 0.350, 0.000], [0, 0, 0, 0], [ 9E9, 9E9, 9E9, 9E9, 9E9, 9E9] ], v1000, fine, pen\WObj:=platform;
    MoveL [ [-1.742, -0.056, -0.020], [0.137, -0.926, 0.350, 0.000], [0, 0, 0, 0], [ 9E9, 9E9, 9E9, 9E9, 9E9, 9E9] ], v30, fine, pen\WObj:=platform;
    MoveL [ [-6.556, -12.788, 48.092], [0.137, -0.926, 0.350, 0.000], [0, 0, 0, 0], [ 9E9, 9E9, 9E9, 9E9, 9E9, 9E9] ], v1000, fine, pen\WObj:=platform;
    
    !!-1.6292134831460676, -0.056179775280898736;
    MoveL [ [-1.918, -9.494, 49.080], [0.095, -0.995, 0.030, 0.000], [0, 0, 0, 0], [ 9E9, 9E9, 9E9, 9E9, 9E9, 9E9] ], v1000, fine, pen\WObj:=platform;
    MoveL [ [-1.629, -0.056, -0.020], [0.095, -0.995, 0.030, 0.000], [0, 0, 0, 0], [ 9E9, 9E9, 9E9, 9E9, 9E9, 9E9] ], v30, fine, pen\WObj:=platform;
    MoveL [ [-1.918, -9.494, 49.080], [0.095, -0.995, 0.030, 0.000], [0, 0, 0, 0], [ 9E9, 9E9, 9E9, 9E9, 9E9, 9E9] ], v1000, fine, pen\WObj:=platform;
    
    !!-1.5168539325842698, -0.056179775280898736;
    MoveL [ [-7.422, -8.226, 48.953], [0.101, -0.806, 0.583, 0.000], [0, 0, 0, 0], [ 9E9, 9E9, 9E9, 9E9, 9E9, 9E9] ], v1000, fine, pen\WObj:=platform;
    MoveL [ [-1.517, -0.056, -0.020], [0.101, -0.806, 0.583, 0.000], [0, 0, 0, 0], [ 9E9, 9E9, 9E9, 9E9, 9E9, 9E9] ], v30, fine, pen\WObj:=platform;
    MoveL [ [-7.422, -8.226, 48.953], [0.101, -0.806, 0.583, 0.000], [0, 0, 0, 0], [ 9E9, 9E9, 9E9, 9E9, 9E9, 9E9] ], v1000, fine, pen\WObj:=platform;
    
    !!-1.404494382022472, -0.056179775280898736;
    MoveL [ [1.406, 9.660, 48.946], [0.102, 0.956, -0.276, 0.000], [0, 0, 0, 0], [ 9E9, 9E9, 9E9, 9E9, 9E9, 9E9] ], v1000, fine, pen\WObj:=platform;
    MoveL [ [-1.404, -0.056, -0.020], [0.102, 0.956, -0.276, 0.000], [0, 0, 0, 0], [ 9E9, 9E9, 9E9, 9E9, 9E9, 9E9] ], v30, fine, pen\WObj:=platform;
    MoveL [ [1.406, 9.660, 48.946], [0.102, 0.956, -0.276, 0.000], [0, 0, 0, 0], [ 9E9, 9E9, 9E9, 9E9, 9E9, 9E9] ], v1000, fine, pen\WObj:=platform;
    
    !!-1.2921348314606742, -0.056179775280898736;
    MoveL [ [-5.302, -10.366, 48.741], [0.111, -0.926, 0.360, 0.000], [0, 0, 0, 0], [ 9E9, 9E9, 9E9, 9E9, 9E9, 9E9] ], v1000, fine, pen\WObj:=platform;
    MoveL [ [-1.292, -0.056, -0.020], [0.111, -0.926, 0.360, 0.000], [0, 0, 0, 0], [ 9E9, 9E9, 9E9, 9E9, 9E9, 9E9] ], v30, fine, pen\WObj:=platform;
    MoveL [ [-5.302, -10.366, 48.741], [0.111, -0.926, 0.360, 0.000], [0, 0, 0, 0], [ 9E9, 9E9, 9E9, 9E9, 9E9, 9E9] ], v1000, fine, pen\WObj:=platform;
    
    !!-1.1797752808988764, -0.056179775280898736;
    MoveL [ [-8.013, 12.876, 47.793], [0.148, 0.874, 0.462, 0.000], [0, 0, 0, 0], [ 9E9, 9E9, 9E9, 9E9, 9E9, 9E9] ], v1000, fine, pen\WObj:=platform;
    MoveL [ [-1.180, -0.056, -0.020], [0.148, 0.874, 0.462, 0.000], [0, 0, 0, 0], [ 9E9, 9E9, 9E9, 9E9, 9E9, 9E9] ], v30, fine, pen\WObj:=platform;
    MoveL [ [-8.013, 12.876, 47.793], [0.148, 0.874, 0.462, 0.000], [0, 0, 0, 0], [ 9E9, 9E9, 9E9, 9E9, 9E9, 9E9] ], v1000, fine, pen\WObj:=platform;
    
    !!-0.7303370786516854, -0.056179775280898736;
    MoveL [ [1.029, 0.479, 49.946], [0.018, 0.291, -0.957, 0.000], [0, 0, 0, 0], [ 9E9, 9E9, 9E9, 9E9, 9E9, 9E9] ], v1000, fine, pen\WObj:=platform;
    MoveL [ [-0.730, -0.056, -0.020], [0.018, 0.291, -0.957, 0.000], [0, 0, 0, 0], [ 9E9, 9E9, 9E9, 9E9, 9E9, 9E9] ], v30, fine, pen\WObj:=platform;
    MoveL [ [1.029, 0.479, 49.946], [0.018, 0.291, -0.957, 0.000], [0, 0, 0, 0], [ 9E9, 9E9, 9E9, 9E9, 9E9, 9E9] ], v1000, fine, pen\WObj:=platform;
    
    !!-0.6179775280898876, -0.056179775280898736;
    MoveL [ [-1.798, 1.822, 49.931], [0.022, 0.846, 0.532, 0.000], [0, 0, 0, 0], [ 9E9, 9E9, 9E9, 9E9, 9E9, 9E9] ], v1000, fine, pen\WObj:=platform;
    MoveL [ [-0.618, -0.056, -0.020], [0.022, 0.846, 0.532, 0.000], [0, 0, 0, 0], [ 9E9, 9E9, 9E9, 9E9, 9E9, 9E9] ], v30, fine, pen\WObj:=platform;
    MoveL [ [-1.798, 1.822, 49.931], [0.022, 0.846, 0.532, 0.000], [0, 0, 0, 0], [ 9E9, 9E9, 9E9, 9E9, 9E9, 9E9] ], v1000, fine, pen\WObj:=platform;
    
    !!-0.5056179775280899, -0.056179775280898736;
    MoveL [ [-7.996, 4.755, 49.181], [0.089, 0.538, 0.838, 0.000], [0, 0, 0, 0], [ 9E9, 9E9, 9E9, 9E9, 9E9, 9E9] ], v1000, fine, pen\WObj:=platform;
    MoveL [ [-0.506, -0.056, -0.020], [0.089, 0.538, 0.838, 0.000], [0, 0, 0, 0], [ 9E9, 9E9, 9E9, 9E9, 9E9, 9E9] ], v30, fine, pen\WObj:=platform;
    MoveL [ [-7.996, 4.755, 49.181], [0.089, 0.538, 0.838, 0.000], [0, 0, 0, 0], [ 9E9, 9E9, 9E9, 9E9, 9E9, 9E9] ], v1000, fine, pen\WObj:=platform;
    
    !!0.16853932584269662, -0.056179775280898736;
    MoveL [ [-1.306, -7.638, 49.380], [0.077, -0.979, 0.190, 0.000], [0, 0, 0, 0], [ 9E9, 9E9, 9E9, 9E9, 9E9, 9E9] ], v1000, fine, pen\WObj:=platform;
    MoveL [ [0.169, -0.056, -0.020], [0.077, -0.979, 0.190, 0.000], [0, 0, 0, 0], [ 9E9, 9E9, 9E9, 9E9, 9E9, 9E9] ], v30, fine, pen\WObj:=platform;
    MoveL [ [-1.306, -7.638, 49.380], [0.077, -0.979, 0.190, 0.000], [0, 0, 0, 0], [ 9E9, 9E9, 9E9, 9E9, 9E9, 9E9] ], v1000, fine, pen\WObj:=platform;
    
    !!0.2808988764044944, -0.056179775280898736;
    MoveL [ [-9.272, -6.848, 48.587], [0.118, -0.575, 0.809, 0.000], [0, 0, 0, 0], [ 9E9, 9E9, 9E9, 9E9, 9E9, 9E9] ], v1000, fine, pen\WObj:=platform;
    MoveL [ [0.281, -0.056, -0.020], [0.118, -0.575, 0.809, 0.000], [0, 0, 0, 0], [ 9E9, 9E9, 9E9, 9E9, 9E9, 9E9] ], v30, fine, pen\WObj:=platform;
    MoveL [ [-9.272, -6.848, 48.587], [0.118, -0.575, 0.809, 0.000], [0, 0, 0, 0], [ 9E9, 9E9, 9E9, 9E9, 9E9, 9E9] ], v1000, fine, pen\WObj:=platform;
    
    !!0.3932584269662921, -0.056179775280898736;
    MoveL [ [0.972, 3.963, 49.815], [0.041, 0.989, -0.142, 0.000], [0, 0, 0, 0], [ 9E9, 9E9, 9E9, 9E9, 9E9, 9E9] ], v1000, fine, pen\WObj:=platform;
    MoveL [ [0.393, -0.056, -0.020], [0.041, 0.989, -0.142, 0.000], [0, 0, 0, 0], [ 9E9, 9E9, 9E9, 9E9, 9E9, 9E9] ], v30, fine, pen\WObj:=platform;
    MoveL [ [0.972, 3.963, 49.815], [0.041, 0.989, -0.142, 0.000], [0, 0, 0, 0], [ 9E9, 9E9, 9E9, 9E9, 9E9, 9E9] ], v1000, fine, pen\WObj:=platform;
    
    !!0.8426966292134831, -0.056179775280898736;
    MoveL [ [-8.977, -3.261, 48.901], [0.104, -0.309, 0.946, 0.000], [0, 0, 0, 0], [ 9E9, 9E9, 9E9, 9E9, 9E9, 9E9] ], v1000, fine, pen\WObj:=platform;
    MoveL [ [0.843, -0.056, -0.020], [0.104, -0.309, 0.946, 0.000], [0, 0, 0, 0], [ 9E9, 9E9, 9E9, 9E9, 9E9, 9E9] ], v30, fine, pen\WObj:=platform;
    MoveL [ [-8.977, -3.261, 48.901], [0.104, -0.309, 0.946, 0.000], [0, 0, 0, 0], [ 9E9, 9E9, 9E9, 9E9, 9E9, 9E9] ], v1000, fine, pen\WObj:=platform;
    
    !!0.9550561797752809, -0.056179775280898736;
    MoveL [ [-7.187, -3.969, 49.157], [0.091, -0.431, 0.898, 0.000], [0, 0, 0, 0], [ 9E9, 9E9, 9E9, 9E9, 9E9, 9E9] ], v1000, fine, pen\WObj:=platform;
    MoveL [ [0.955, -0.056, -0.020], [0.091, -0.431, 0.898, 0.000], [0, 0, 0, 0], [ 9E9, 9E9, 9E9, 9E9, 9E9, 9E9] ], v30, fine, pen\WObj:=platform;
    MoveL [ [-7.187, -3.969, 49.157], [0.091, -0.431, 0.898, 0.000], [0, 0, 0, 0], [ 9E9, 9E9, 9E9, 9E9, 9E9, 9E9] ], v1000, fine, pen\WObj:=platform;
    
    !!1.0674157303370786, -0.056179775280898736;
    MoveL [ [-1.286, 2.829, 49.841], [0.037, 0.774, 0.632, 0.000], [0, 0, 0, 0], [ 9E9, 9E9, 9E9, 9E9, 9E9, 9E9] ], v1000, fine, pen\WObj:=platform;
    MoveL [ [1.067, -0.056, -0.020], [0.037, 0.774, 0.632, 0.000], [0, 0, 0, 0], [ 9E9, 9E9, 9E9, 9E9, 9E9, 9E9] ], v30, fine, pen\WObj:=platform;
    MoveL [ [-1.286, 2.829, 49.841], [0.037, 0.774, 0.632, 0.000], [0, 0, 0, 0], [ 9E9, 9E9, 9E9, 9E9, 9E9, 9E9] ], v1000, fine, pen\WObj:=platform;
    
    !!1.1797752808988764, -0.056179775280898736;
    MoveL [ [-7.832, -9.776, 48.191], [0.134, -0.727, 0.674, 0.000], [0, 0, 0, 0], [ 9E9, 9E9, 9E9, 9E9, 9E9, 9E9] ], v1000, fine, pen\WObj:=platform;
    MoveL [ [1.180, -0.056, -0.020], [0.134, -0.727, 0.674, 0.000], [0, 0, 0, 0], [ 9E9, 9E9, 9E9, 9E9, 9E9, 9E9] ], v30, fine, pen\WObj:=platform;
    MoveL [ [-7.832, -9.776, 48.191], [0.134, -0.727, 0.674, 0.000], [0, 0, 0, 0], [ 9E9, 9E9, 9E9, 9E9, 9E9, 9E9] ], v1000, fine, pen\WObj:=platform;
    
    !!1.2921348314606742, -0.056179775280898736;
    MoveL [ [-10.805, 3.217, 48.384], [0.126, 0.259, 0.958, 0.000], [0, 0, 0, 0], [ 9E9, 9E9, 9E9, 9E9, 9E9, 9E9] ], v1000, fine, pen\WObj:=platform;
    MoveL [ [1.292, -0.056, -0.020], [0.126, 0.259, 0.958, 0.000], [0, 0, 0, 0], [ 9E9, 9E9, 9E9, 9E9, 9E9, 9E9] ], v30, fine, pen\WObj:=platform;
    MoveL [ [-10.805, 3.217, 48.384], [0.126, 0.259, 0.958, 0.000], [0, 0, 0, 0], [ 9E9, 9E9, 9E9, 9E9, 9E9, 9E9] ], v1000, fine, pen\WObj:=platform;
    
    !!1.404494382022472, -0.056179775280898736;
    MoveL [ [-6.760, -7.698, 48.713], [0.113, -0.679, 0.725, 0.000], [0, 0, 0, 0], [ 9E9, 9E9, 9E9, 9E9, 9E9, 9E9] ], v1000, fine, pen\WObj:=platform;
    MoveL [ [1.404, -0.056, -0.020], [0.113, -0.679, 0.725, 0.000], [0, 0, 0, 0], [ 9E9, 9E9, 9E9, 9E9, 9E9, 9E9] ], v30, fine, pen\WObj:=platform;
    MoveL [ [-6.760, -7.698, 48.713], [0.113, -0.679, 0.725, 0.000], [0, 0, 0, 0], [ 9E9, 9E9, 9E9, 9E9, 9E9, 9E9] ], v1000, fine, pen\WObj:=platform;
    
    !!1.5168539325842698, -0.056179775280898736;
    MoveL [ [-7.174, -13.985, 47.208], [0.167, -0.837, 0.522, 0.000], [0, 0, 0, 0], [ 9E9, 9E9, 9E9, 9E9, 9E9, 9E9] ], v1000, fine, pen\WObj:=platform;
    MoveL [ [1.517, -0.056, -0.020], [0.167, -0.837, 0.522, 0.000], [0, 0, 0, 0], [ 9E9, 9E9, 9E9, 9E9, 9E9, 9E9] ], v30, fine, pen\WObj:=platform;
    MoveL [ [-7.174, -13.985, 47.208], [0.167, -0.837, 0.522, 0.000], [0, 0, 0, 0], [ 9E9, 9E9, 9E9, 9E9, 9E9, 9E9] ], v1000, fine, pen\WObj:=platform;
    
    !!1.6292134831460676, -0.056179775280898736;
    MoveL [ [-4.578, -3.816, 49.450], [0.073, -0.517, 0.853, 0.000], [0, 0, 0, 0], [ 9E9, 9E9, 9E9, 9E9, 9E9, 9E9] ], v1000, fine, pen\WObj:=platform;
    MoveL [ [1.629, -0.056, -0.020], [0.073, -0.517, 0.853, 0.000], [0, 0, 0, 0], [ 9E9, 9E9, 9E9, 9E9, 9E9, 9E9] ], v30, fine, pen\WObj:=platform;
    MoveL [ [-4.578, -3.816, 49.450], [0.073, -0.517, 0.853, 0.000], [0, 0, 0, 0], [ 9E9, 9E9, 9E9, 9E9, 9E9, 9E9] ], v1000, fine, pen\WObj:=platform;
    
    !!1.7415730337078652, -0.056179775280898736;
    MoveL [ [-14.478, -17.325, 44.011], [0.244, -0.707, 0.664, 0.000], [0, 0, 0, 0], [ 9E9, 9E9, 9E9, 9E9, 9E9, 9E9] ], v1000, fine, pen\WObj:=platform;
    MoveL [ [1.742, -0.056, -0.020], [0.244, -0.707, 0.664, 0.000], [0, 0, 0, 0], [ 9E9, 9E9, 9E9, 9E9, 9E9, 9E9] ], v30, fine, pen\WObj:=platform;
    MoveL [ [-14.478, -17.325, 44.011], [0.244, -0.707, 0.664, 0.000], [0, 0, 0, 0], [ 9E9, 9E9, 9E9, 9E9, 9E9, 9E9] ], v1000, fine, pen\WObj:=platform;
    
    !!2.1910112359550564, -0.056179775280898736;
    MoveL [ [-6.561, -12.079, 47.717], [0.150, -0.799, 0.582, 0.000], [0, 0, 0, 0], [ 9E9, 9E9, 9E9, 9E9, 9E9, 9E9] ], v1000, fine, pen\WObj:=platform;
    MoveL [ [2.191, -0.056, -0.020], [0.150, -0.799, 0.582, 0.000], [0, 0, 0, 0], [ 9E9, 9E9, 9E9, 9E9, 9E9, 9E9] ], v30, fine, pen\WObj:=platform;
    MoveL [ [-6.561, -12.079, 47.717], [0.150, -0.799, 0.582, 0.000], [0, 0, 0, 0], [ 9E9, 9E9, 9E9, 9E9, 9E9, 9E9] ], v1000, fine, pen\WObj:=platform;
    
    !!2.303370786516854, -0.056179775280898736;
    MoveL [ [-6.195, -6.809, 48.788], [0.109, -0.618, 0.778, 0.000], [0, 0, 0, 0], [ 9E9, 9E9, 9E9, 9E9, 9E9, 9E9] ], v1000, fine, pen\WObj:=platform;
    MoveL [ [2.303, -0.056, -0.020], [0.109, -0.618, 0.778, 0.000], [0, 0, 0, 0], [ 9E9, 9E9, 9E9, 9E9, 9E9, 9E9] ], v30, fine, pen\WObj:=platform;
    MoveL [ [-6.195, -6.809, 48.788], [0.109, -0.618, 0.778, 0.000], [0, 0, 0, 0], [ 9E9, 9E9, 9E9, 9E9, 9E9, 9E9] ], v1000, fine, pen\WObj:=platform;
    
    !!2.4157303370786516, -0.056179775280898736;
    MoveL [ [-5.672, -11.624, 47.946], [0.143, -0.811, 0.567, 0.000], [0, 0, 0, 0], [ 9E9, 9E9, 9E9, 9E9, 9E9, 9E9] ], v1000, fine, pen\WObj:=platform;
    MoveL [ [2.416, -0.056, -0.020], [0.143, -0.811, 0.567, 0.000], [0, 0, 0, 0], [ 9E9, 9E9, 9E9, 9E9, 9E9, 9E9] ], v30, fine, pen\WObj:=platform;
    MoveL [ [-5.672, -11.624, 47.946], [0.143, -0.811, 0.567, 0.000], [0, 0, 0, 0], [ 9E9, 9E9, 9E9, 9E9, 9E9, 9E9] ], v1000, fine, pen\WObj:=platform;
    
    !!2.9775280898876404, -0.056179775280898736;
    MoveL [ [-9.329, 6.304, 48.023], [0.140, 0.455, 0.880, 0.000], [0, 0, 0, 0], [ 9E9, 9E9, 9E9, 9E9, 9E9, 9E9] ], v1000, fine, pen\WObj:=platform;
    MoveL [ [2.978, -0.056, -0.020], [0.140, 0.455, 0.880, 0.000], [0, 0, 0, 0], [ 9E9, 9E9, 9E9, 9E9, 9E9, 9E9] ], v30, fine, pen\WObj:=platform;
    MoveL [ [-9.329, 6.304, 48.023], [0.140, 0.455, 0.880, 0.000], [0, 0, 0, 0], [ 9E9, 9E9, 9E9, 9E9, 9E9, 9E9] ], v1000, fine, pen\WObj:=platform;
    
    !!3.089887640449438, -0.056179775280898736;
    MoveL [ [-7.997, 2.658, 48.660], [0.115, 0.236, 0.965, 0.000], [0, 0, 0, 0], [ 9E9, 9E9, 9E9, 9E9, 9E9, 9E9] ], v1000, fine, pen\WObj:=platform;
    MoveL [ [3.090, -0.056, -0.020], [0.115, 0.236, 0.965, 0.000], [0, 0, 0, 0], [ 9E9, 9E9, 9E9, 9E9, 9E9, 9E9] ], v30, fine, pen\WObj:=platform;
    MoveL [ [-7.997, 2.658, 48.660], [0.115, 0.236, 0.965, 0.000], [0, 0, 0, 0], [ 9E9, 9E9, 9E9, 9E9, 9E9, 9E9] ], v1000, fine, pen\WObj:=platform;
    
    !!3.202247191011236, -0.056179775280898736;
    MoveL [ [-4.129, 6.072, 49.058], [0.096, 0.638, 0.764, 0.000], [0, 0, 0, 0], [ 9E9, 9E9, 9E9, 9E9, 9E9, 9E9] ], v1000, fine, pen\WObj:=platform;
    MoveL [ [3.202, -0.056, -0.020], [0.096, 0.638, 0.764, 0.000], [0, 0, 0, 0], [ 9E9, 9E9, 9E9, 9E9, 9E9, 9E9] ], v30, fine, pen\WObj:=platform;
    MoveL [ [-4.129, 6.072, 49.058], [0.096, 0.638, 0.764, 0.000], [0, 0, 0, 0], [ 9E9, 9E9, 9E9, 9E9, 9E9, 9E9] ], v1000, fine, pen\WObj:=platform;
    
    !!3.5393258426966288, -0.056179775280898736;
    MoveL [ [-9.790, -0.872, 48.164], [0.135, -0.061, 0.989, 0.000], [0, 0, 0, 0], [ 9E9, 9E9, 9E9, 9E9, 9E9, 9E9] ], v1000, fine, pen\WObj:=platform;
    MoveL [ [3.539, -0.056, -0.020], [0.135, -0.061, 0.989, 0.000], [0, 0, 0, 0], [ 9E9, 9E9, 9E9, 9E9, 9E9, 9E9] ], v30, fine, pen\WObj:=platform;
    MoveL [ [-9.790, -0.872, 48.164], [0.135, -0.061, 0.989, 0.000], [0, 0, 0, 0], [ 9E9, 9E9, 9E9, 9E9, 9E9, 9E9] ], v1000, fine, pen\WObj:=platform;
    
    !!3.6516853932584272, -0.056179775280898736;
    MoveL [ [-2.680, 10.684, 48.401], [0.126, 0.855, 0.504, 0.000], [0, 0, 0, 0], [ 9E9, 9E9, 9E9, 9E9, 9E9, 9E9] ], v1000, fine, pen\WObj:=platform;
    MoveL [ [3.652, -0.056, -0.020], [0.126, 0.855, 0.504, 0.000], [0, 0, 0, 0], [ 9E9, 9E9, 9E9, 9E9, 9E9, 9E9] ], v30, fine, pen\WObj:=platform;
    MoveL [ [-2.680, 10.684, 48.401], [0.126, 0.855, 0.504, 0.000], [0, 0, 0, 0], [ 9E9, 9E9, 9E9, 9E9, 9E9, 9E9] ], v1000, fine, pen\WObj:=platform;
    
    !!3.7640449438202244, -0.056179775280898736;
    MoveL [ [-11.146, 0.177, 47.704], [0.151, 0.015, 0.988, 0.000], [0, 0, 0, 0], [ 9E9, 9E9, 9E9, 9E9, 9E9, 9E9] ], v1000, fine, pen\WObj:=platform;
    MoveL [ [3.764, -0.056, -0.020], [0.151, 0.015, 0.988, 0.000], [0, 0, 0, 0], [ 9E9, 9E9, 9E9, 9E9, 9E9, 9E9] ], v30, fine, pen\WObj:=platform;
    MoveL [ [-11.146, 0.177, 47.704], [0.151, 0.015, 0.988, 0.000], [0, 0, 0, 0], [ 9E9, 9E9, 9E9, 9E9, 9E9, 9E9] ], v1000, fine, pen\WObj:=platform;
    
    !!3.8764044943820224, -0.056179775280898736;
    MoveL [ [-10.119, -0.380, 47.980], [0.141, -0.023, 0.990, 0.000], [0, 0, 0, 0], [ 9E9, 9E9, 9E9, 9E9, 9E9, 9E9] ], v1000, fine, pen\WObj:=platform;
    MoveL [ [3.876, -0.056, -0.020], [0.141, -0.023, 0.990, 0.000], [0, 0, 0, 0], [ 9E9, 9E9, 9E9, 9E9, 9E9, 9E9] ], v30, fine, pen\WObj:=platform;
    MoveL [ [-10.119, -0.380, 47.980], [0.141, -0.023, 0.990, 0.000], [0, 0, 0, 0], [ 9E9, 9E9, 9E9, 9E9, 9E9, 9E9] ], v1000, fine, pen\WObj:=platform;
    
    !!3.98876404494382, -0.056179775280898736;
    MoveL [ [-8.181, 10.590, 47.293], [0.164, 0.650, 0.742, 0.000], [0, 0, 0, 0], [ 9E9, 9E9, 9E9, 9E9, 9E9, 9E9] ], v1000, fine, pen\WObj:=platform;
    MoveL [ [3.989, -0.056, -0.020], [0.164, 0.650, 0.742, 0.000], [0, 0, 0, 0], [ 9E9, 9E9, 9E9, 9E9, 9E9, 9E9] ], v30, fine, pen\WObj:=platform;
    MoveL [ [-8.181, 10.590, 47.293], [0.164, 0.650, 0.742, 0.000], [0, 0, 0, 0], [ 9E9, 9E9, 9E9, 9E9, 9E9, 9E9] ], v1000, fine, pen\WObj:=platform;
    
    !!4.101123595505618, -0.056179775280898736;
    MoveL [ [-30.220, -35.603, -7.670], [0.759, -0.468, 0.452, 0.000], [0, 0, 0, 0], [ 9E9, 9E9, 9E9, 9E9, 9E9, 9E9] ], v1000, fine, pen\WObj:=platform;
    MoveL [ [4.101, -0.056, -0.020], [0.759, -0.468, 0.452, 0.000], [0, 0, 0, 0], [ 9E9, 9E9, 9E9, 9E9, 9E9, 9E9] ], v30, fine, pen\WObj:=platform;
    MoveL [ [-30.220, -35.603, -7.670], [0.759, -0.468, 0.452, 0.000], [0, 0, 0, 0], [ 9E9, 9E9, 9E9, 9E9, 9E9, 9E9] ], v1000, fine, pen\WObj:=platform;
    
    !!4.213483146067415, -0.056179775280898736;
    MoveL [ [-1.449, 1.760, 49.625], [0.060, 0.305, 0.951, 0.000], [0, 0, 0, 0], [ 9E9, 9E9, 9E9, 9E9, 9E9, 9E9] ], v1000, fine, pen\WObj:=platform;
    MoveL [ [4.213, -0.056, -0.020], [0.060, 0.305, 0.951, 0.000], [0, 0, 0, 0], [ 9E9, 9E9, 9E9, 9E9, 9E9, 9E9] ], v30, fine, pen\WObj:=platform;
    MoveL [ [-1.449, 1.760, 49.625], [0.060, 0.305, 0.951, 0.000], [0, 0, 0, 0], [ 9E9, 9E9, 9E9, 9E9, 9E9, 9E9] ], v1000, fine, pen\WObj:=platform;
    
    !!4.325842696629214, -0.056179775280898736;
    MoveL [ [-5.138, -8.831, 48.286], [0.130, -0.674, 0.727, 0.000], [0, 0, 0, 0], [ 9E9, 9E9, 9E9, 9E9, 9E9, 9E9] ], v1000, fine, pen\WObj:=platform;
    MoveL [ [4.326, -0.056, -0.020], [0.130, -0.674, 0.727, 0.000], [0, 0, 0, 0], [ 9E9, 9E9, 9E9, 9E9, 9E9, 9E9] ], v30, fine, pen\WObj:=platform;
    MoveL [ [-5.138, -8.831, 48.286], [0.130, -0.674, 0.727, 0.000], [0, 0, 0, 0], [ 9E9, 9E9, 9E9, 9E9, 9E9, 9E9] ], v1000, fine, pen\WObj:=platform;
    
    !!4.438202247191011, -0.056179775280898736;
    MoveL [ [-7.291, 0.497, 48.582], [0.118, 0.047, 0.992, 0.000], [0, 0, 0, 0], [ 9E9, 9E9, 9E9, 9E9, 9E9, 9E9] ], v1000, fine, pen\WObj:=platform;
    MoveL [ [4.438, -0.056, -0.020], [0.118, 0.047, 0.992, 0.000], [0, 0, 0, 0], [ 9E9, 9E9, 9E9, 9E9, 9E9, 9E9] ], v30, fine, pen\WObj:=platform;
    MoveL [ [-7.291, 0.497, 48.582], [0.118, 0.047, 0.992, 0.000], [0, 0, 0, 0], [ 9E9, 9E9, 9E9, 9E9, 9E9, 9E9] ], v1000, fine, pen\WObj:=platform;
    
    !!-4.550561797752809, -0.16853932584269649;
    MoveL [ [-7.415, 3.794, 49.740], [0.049, 0.809, 0.585, 0.000], [0, 0, 0, 0], [ 9E9, 9E9, 9E9, 9E9, 9E9, 9E9] ], v1000, fine, pen\WObj:=platform;
    MoveL [ [-4.551, -0.169, -0.020], [0.049, 0.809, 0.585, 0.000], [0, 0, 0, 0], [ 9E9, 9E9, 9E9, 9E9, 9E9, 9E9] ], v30, fine, pen\WObj:=platform;
    MoveL [ [-7.415, 3.794, 49.740], [0.049, 0.809, 0.585, 0.000], [0, 0, 0, 0], [ 9E9, 9E9, 9E9, 9E9, 9E9, 9E9] ], v1000, fine, pen\WObj:=platform;
    
    !!-4.438202247191011, -0.16853932584269649;
    MoveL [ [-9.002, 5.344, 49.465], [0.072, 0.768, 0.636, 0.000], [0, 0, 0, 0], [ 9E9, 9E9, 9E9, 9E9, 9E9, 9E9] ], v1000, fine, pen\WObj:=platform;
    MoveL [ [-4.438, -0.169, -0.020], [0.072, 0.768, 0.636, 0.000], [0, 0, 0, 0], [ 9E9, 9E9, 9E9, 9E9, 9E9, 9E9] ], v30, fine, pen\WObj:=platform;
    MoveL [ [-9.002, 5.344, 49.465], [0.072, 0.768, 0.636, 0.000], [0, 0, 0, 0], [ 9E9, 9E9, 9E9, 9E9, 9E9, 9E9] ], v1000, fine, pen\WObj:=platform;
    
    !!-4.325842696629214, -0.16853932584269649;
    MoveL [ [-15.036, -0.130, 48.819], [0.108, 0.004, 0.994, 0.000], [0, 0, 0, 0], [ 9E9, 9E9, 9E9, 9E9, 9E9, 9E9] ], v1000, fine, pen\WObj:=platform;
    MoveL [ [-4.326, -0.169, -0.020], [0.108, 0.004, 0.994, 0.000], [0, 0, 0, 0], [ 9E9, 9E9, 9E9, 9E9, 9E9, 9E9] ], v30, fine, pen\WObj:=platform;
    MoveL [ [-15.036, -0.130, 48.819], [0.108, 0.004, 0.994, 0.000], [0, 0, 0, 0], [ 9E9, 9E9, 9E9, 9E9, 9E9, 9E9] ], v1000, fine, pen\WObj:=platform;
    
    !!-4.213483146067415, -0.16853932584269649;
    MoveL [ [-5.607, 5.175, 49.674], [0.055, 0.966, 0.252, 0.000], [0, 0, 0, 0], [ 9E9, 9E9, 9E9, 9E9, 9E9, 9E9] ], v1000, fine, pen\WObj:=platform;
    MoveL [ [-4.213, -0.169, -0.020], [0.055, 0.966, 0.252, 0.000], [0, 0, 0, 0], [ 9E9, 9E9, 9E9, 9E9, 9E9, 9E9] ], v30, fine, pen\WObj:=platform;
    MoveL [ [-5.607, 5.175, 49.674], [0.055, 0.966, 0.252, 0.000], [0, 0, 0, 0], [ 9E9, 9E9, 9E9, 9E9, 9E9, 9E9] ], v1000, fine, pen\WObj:=platform;
    
    !!-4.101123595505618, -0.16853932584269649;
    MoveL [ [-6.731, 5.179, 49.624], [0.060, 0.896, 0.440, 0.000], [0, 0, 0, 0], [ 9E9, 9E9, 9E9, 9E9, 9E9, 9E9] ], v1000, fine, pen\WObj:=platform;
    MoveL [ [-4.101, -0.169, -0.020], [0.060, 0.896, 0.440, 0.000], [0, 0, 0, 0], [ 9E9, 9E9, 9E9, 9E9, 9E9, 9E9] ], v30, fine, pen\WObj:=platform;
    MoveL [ [-6.731, 5.179, 49.624], [0.060, 0.896, 0.440, 0.000], [0, 0, 0, 0], [ 9E9, 9E9, 9E9, 9E9, 9E9, 9E9] ], v1000, fine, pen\WObj:=platform;
    
    !!-3.98876404494382, -0.16853932584269649;
    MoveL [ [-2.562, 2.672, 49.879], [0.032, 0.893, -0.449, 0.000], [0, 0, 0, 0], [ 9E9, 9E9, 9E9, 9E9, 9E9, 9E9] ], v1000, fine, pen\WObj:=platform;
    MoveL [ [-3.989, -0.169, -0.020], [0.032, 0.893, -0.449, 0.000], [0, 0, 0, 0], [ 9E9, 9E9, 9E9, 9E9, 9E9, 9E9] ], v30, fine, pen\WObj:=platform;
    MoveL [ [-2.562, 2.672, 49.879], [0.032, 0.893, -0.449, 0.000], [0, 0, 0, 0], [ 9E9, 9E9, 9E9, 9E9, 9E9, 9E9] ], v1000, fine, pen\WObj:=platform;
    
    !!-3.8764044943820224, -0.16853932584269649;
    MoveL [ [-15.518, -15.032, 46.278], [0.192, -0.773, 0.605, 0.000], [0, 0, 0, 0], [ 9E9, 9E9, 9E9, 9E9, 9E9, 9E9] ], v1000, fine, pen\WObj:=platform;
    MoveL [ [-3.876, -0.169, -0.020], [0.192, -0.773, 0.605, 0.000], [0, 0, 0, 0], [ 9E9, 9E9, 9E9, 9E9, 9E9, 9E9] ], v30, fine, pen\WObj:=platform;
    MoveL [ [-15.518, -15.032, 46.278], [0.192, -0.773, 0.605, 0.000], [0, 0, 0, 0], [ 9E9, 9E9, 9E9, 9E9, 9E9, 9E9] ], v1000, fine, pen\WObj:=platform;
    
    !!-3.7640449438202244, -0.16853932584269649;
    MoveL [ [-6.576, 2.456, 49.832], [0.038, 0.682, 0.731, 0.000], [0, 0, 0, 0], [ 9E9, 9E9, 9E9, 9E9, 9E9, 9E9] ], v1000, fine, pen\WObj:=platform;
    MoveL [ [-3.764, -0.169, -0.020], [0.038, 0.682, 0.731, 0.000], [0, 0, 0, 0], [ 9E9, 9E9, 9E9, 9E9, 9E9, 9E9] ], v30, fine, pen\WObj:=platform;
    MoveL [ [-6.576, 2.456, 49.832], [0.038, 0.682, 0.731, 0.000], [0, 0, 0, 0], [ 9E9, 9E9, 9E9, 9E9, 9E9, 9E9] ], v1000, fine, pen\WObj:=platform;
    
    !!-3.6516853932584272, -0.16853932584269649;
    MoveL [ [-6.201, 1.077, 49.899], [0.028, 0.439, 0.898, 0.000], [0, 0, 0, 0], [ 9E9, 9E9, 9E9, 9E9, 9E9, 9E9] ], v1000, fine, pen\WObj:=platform;
    MoveL [ [-3.652, -0.169, -0.020], [0.028, 0.439, 0.898, 0.000], [0, 0, 0, 0], [ 9E9, 9E9, 9E9, 9E9, 9E9, 9E9] ], v30, fine, pen\WObj:=platform;
    MoveL [ [-6.201, 1.077, 49.899], [0.028, 0.439, 0.898, 0.000], [0, 0, 0, 0], [ 9E9, 9E9, 9E9, 9E9, 9E9, 9E9] ], v1000, fine, pen\WObj:=platform;
    
    !!-3.5393258426966288, -0.16853932584269649;
    MoveL [ [-13.949, -44.407, 20.827], [0.540, -0.819, 0.193, 0.000], [0, 0, 0, 0], [ 9E9, 9E9, 9E9, 9E9, 9E9, 9E9] ], v1000, fine, pen\WObj:=platform;
    MoveL [ [-3.539, -0.169, -0.020], [0.540, -0.819, 0.193, 0.000], [0, 0, 0, 0], [ 9E9, 9E9, 9E9, 9E9, 9E9, 9E9] ], v30, fine, pen\WObj:=platform;
    MoveL [ [-13.949, -44.407, 20.827], [0.540, -0.819, 0.193, 0.000], [0, 0, 0, 0], [ 9E9, 9E9, 9E9, 9E9, 9E9, 9E9] ], v1000, fine, pen\WObj:=platform;
    
    !!-2.9775280898876404, -0.16853932584269649;
    MoveL [ [-9.919, 1.290, 49.474], [0.071, 0.205, 0.976, 0.000], [0, 0, 0, 0], [ 9E9, 9E9, 9E9, 9E9, 9E9, 9E9] ], v1000, fine, pen\WObj:=platform;
    MoveL [ [-2.978, -0.169, -0.020], [0.071, 0.205, 0.976, 0.000], [0, 0, 0, 0], [ 9E9, 9E9, 9E9, 9E9, 9E9, 9E9] ], v30, fine, pen\WObj:=platform;
    MoveL [ [-9.919, 1.290, 49.474], [0.071, 0.205, 0.976, 0.000], [0, 0, 0, 0], [ 9E9, 9E9, 9E9, 9E9, 9E9, 9E9] ], v1000, fine, pen\WObj:=platform;
    
    !!-2.8651685393258424, -0.16853932584269649;
    MoveL [ [-1.894, 5.568, 49.640], [0.058, 0.984, -0.167, 0.000], [0, 0, 0, 0], [ 9E9, 9E9, 9E9, 9E9, 9E9, 9E9] ], v1000, fine, pen\WObj:=platform;
    MoveL [ [-2.865, -0.169, -0.020], [0.058, 0.984, -0.167, 0.000], [0, 0, 0, 0], [ 9E9, 9E9, 9E9, 9E9, 9E9, 9E9] ], v30, fine, pen\WObj:=platform;
    MoveL [ [-1.894, 5.568, 49.640], [0.058, 0.984, -0.167, 0.000], [0, 0, 0, 0], [ 9E9, 9E9, 9E9, 9E9, 9E9, 9E9] ], v1000, fine, pen\WObj:=platform;
    
    !!-2.752808988764045, -0.16853932584269649;
    MoveL [ [-9.796, -2.624, 49.421], [0.075, -0.328, 0.942, 0.000], [0, 0, 0, 0], [ 9E9, 9E9, 9E9, 9E9, 9E9, 9E9] ], v1000, fine, pen\WObj:=platform;
    MoveL [ [-2.753, -0.169, -0.020], [0.075, -0.328, 0.942, 0.000], [0, 0, 0, 0], [ 9E9, 9E9, 9E9, 9E9, 9E9, 9E9] ], v30, fine, pen\WObj:=platform;
    MoveL [ [-9.796, -2.624, 49.421], [0.075, -0.328, 0.942, 0.000], [0, 0, 0, 0], [ 9E9, 9E9, 9E9, 9E9, 9E9, 9E9] ], v1000, fine, pen\WObj:=platform;
    
    !!-2.0786516853932584, -0.16853932584269649;
    MoveL [ [-4.351, 9.262, 49.030], [0.097, 0.968, 0.233, 0.000], [0, 0, 0, 0], [ 9E9, 9E9, 9E9, 9E9, 9E9, 9E9] ], v1000, fine, pen\WObj:=platform;
    MoveL [ [-2.079, -0.169, -0.020], [0.097, 0.968, 0.233, 0.000], [0, 0, 0, 0], [ 9E9, 9E9, 9E9, 9E9, 9E9, 9E9] ], v30, fine, pen\WObj:=platform;
    MoveL [ [-4.351, 9.262, 49.030], [0.097, 0.968, 0.233, 0.000], [0, 0, 0, 0], [ 9E9, 9E9, 9E9, 9E9, 9E9, 9E9] ], v1000, fine, pen\WObj:=platform;
    
    !!-1.9662921348314608, -0.16853932584269649;
    MoveL [ [-5.006, -2.185, 49.847], [0.037, -0.552, 0.833, 0.000], [0, 0, 0, 0], [ 9E9, 9E9, 9E9, 9E9, 9E9, 9E9] ], v1000, fine, pen\WObj:=platform;
    MoveL [ [-1.966, -0.169, -0.020], [0.037, -0.552, 0.833, 0.000], [0, 0, 0, 0], [ 9E9, 9E9, 9E9, 9E9, 9E9, 9E9] ], v30, fine, pen\WObj:=platform;
    MoveL [ [-5.006, -2.185, 49.847], [0.037, -0.552, 0.833, 0.000], [0, 0, 0, 0], [ 9E9, 9E9, 9E9, 9E9, 9E9, 9E9] ], v1000, fine, pen\WObj:=platform;
    
    !!-1.853932584269663, -0.16853932584269649;
    MoveL [ [-3.795, 2.355, 49.879], [0.032, 0.792, 0.609, 0.000], [0, 0, 0, 0], [ 9E9, 9E9, 9E9, 9E9, 9E9, 9E9] ], v1000, fine, pen\WObj:=platform;
    MoveL [ [-1.854, -0.169, -0.020], [0.032, 0.792, 0.609, 0.000], [0, 0, 0, 0], [ 9E9, 9E9, 9E9, 9E9, 9E9, 9E9] ], v30, fine, pen\WObj:=platform;
    MoveL [ [-3.795, 2.355, 49.879], [0.032, 0.792, 0.609, 0.000], [0, 0, 0, 0], [ 9E9, 9E9, 9E9, 9E9, 9E9, 9E9] ], v1000, fine, pen\WObj:=platform;
    
    !!-1.7415730337078652, -0.16853932584269649;
    MoveL [ [-6.849, 4.541, 49.495], [0.070, 0.676, 0.733, 0.000], [0, 0, 0, 0], [ 9E9, 9E9, 9E9, 9E9, 9E9, 9E9] ], v1000, fine, pen\WObj:=platform;
    MoveL [ [-1.742, -0.169, -0.020], [0.070, 0.676, 0.733, 0.000], [0, 0, 0, 0], [ 9E9, 9E9, 9E9, 9E9, 9E9, 9E9] ], v30, fine, pen\WObj:=platform;
    MoveL [ [-6.849, 4.541, 49.495], [0.070, 0.676, 0.733, 0.000], [0, 0, 0, 0], [ 9E9, 9E9, 9E9, 9E9, 9E9, 9E9] ], v1000, fine, pen\WObj:=platform;
    
    !!-1.6292134831460676, -0.16853932584269649;
    MoveL [ [-6.333, -12.076, 48.313], [0.129, -0.922, 0.364, 0.000], [0, 0, 0, 0], [ 9E9, 9E9, 9E9, 9E9, 9E9, 9E9] ], v1000, fine, pen\WObj:=platform;
    MoveL [ [-1.629, -0.169, -0.020], [0.129, -0.922, 0.364, 0.000], [0, 0, 0, 0], [ 9E9, 9E9, 9E9, 9E9, 9E9, 9E9] ], v30, fine, pen\WObj:=platform;
    MoveL [ [-6.333, -12.076, 48.313], [0.129, -0.922, 0.364, 0.000], [0, 0, 0, 0], [ 9E9, 9E9, 9E9, 9E9, 9E9, 9E9] ], v1000, fine, pen\WObj:=platform;
    
    !!-1.5168539325842698, -0.16853932584269649;
    MoveL [ [-5.544, 2.737, 49.733], [0.050, 0.584, 0.810, 0.000], [0, 0, 0, 0], [ 9E9, 9E9, 9E9, 9E9, 9E9, 9E9] ], v1000, fine, pen\WObj:=platform;
    MoveL [ [-1.517, -0.169, -0.020], [0.050, 0.584, 0.810, 0.000], [0, 0, 0, 0], [ 9E9, 9E9, 9E9, 9E9, 9E9, 9E9] ], v30, fine, pen\WObj:=platform;
    MoveL [ [-5.544, 2.737, 49.733], [0.050, 0.584, 0.810, 0.000], [0, 0, 0, 0], [ 9E9, 9E9, 9E9, 9E9, 9E9, 9E9] ], v1000, fine, pen\WObj:=platform;
    
    !!-1.404494382022472, -0.16853932584269649;
    MoveL [ [-11.272, -6.982, 48.521], [0.121, -0.564, 0.817, 0.000], [0, 0, 0, 0], [ 9E9, 9E9, 9E9, 9E9, 9E9, 9E9] ], v1000, fine, pen\WObj:=platform;
    MoveL [ [-1.404, -0.169, -0.020], [0.121, -0.564, 0.817, 0.000], [0, 0, 0, 0], [ 9E9, 9E9, 9E9, 9E9, 9E9, 9E9] ], v30, fine, pen\WObj:=platform;
    MoveL [ [-11.272, -6.982, 48.521], [0.121, -0.564, 0.817, 0.000], [0, 0, 0, 0], [ 9E9, 9E9, 9E9, 9E9, 9E9, 9E9] ], v1000, fine, pen\WObj:=platform;
    
    !!-1.2921348314606742, -0.16853932584269649;
    MoveL [ [-9.400, 4.947, 49.052], [0.096, 0.531, 0.842, 0.000], [0, 0, 0, 0], [ 9E9, 9E9, 9E9, 9E9, 9E9, 9E9] ], v1000, fine, pen\WObj:=platform;
    MoveL [ [-1.292, -0.169, -0.020], [0.096, 0.531, 0.842, 0.000], [0, 0, 0, 0], [ 9E9, 9E9, 9E9, 9E9, 9E9, 9E9] ], v30, fine, pen\WObj:=platform;
    MoveL [ [-9.400, 4.947, 49.052], [0.096, 0.531, 0.842, 0.000], [0, 0, 0, 0], [ 9E9, 9E9, 9E9, 9E9, 9E9, 9E9] ], v1000, fine, pen\WObj:=platform;
    
    !!-1.1797752808988764, -0.16853932584269649;
    MoveL [ [-2.645, -0.042, 49.958], [0.015, 0.086, 0.996, 0.000], [0, 0, 0, 0], [ 9E9, 9E9, 9E9, 9E9, 9E9, 9E9] ], v1000, fine, pen\WObj:=platform;
    MoveL [ [-1.180, -0.169, -0.020], [0.015, 0.086, 0.996, 0.000], [0, 0, 0, 0], [ 9E9, 9E9, 9E9, 9E9, 9E9, 9E9] ], v30, fine, pen\WObj:=platform;
    MoveL [ [-2.645, -0.042, 49.958], [0.015, 0.086, 0.996, 0.000], [0, 0, 0, 0], [ 9E9, 9E9, 9E9, 9E9, 9E9, 9E9] ], v1000, fine, pen\WObj:=platform;
    
    !!-1.0674157303370786, -0.16853932584269649;
    MoveL [ [-2.750, 2.379, 49.887], [0.031, 0.834, 0.551, 0.000], [0, 0, 0, 0], [ 9E9, 9E9, 9E9, 9E9, 9E9, 9E9] ], v1000, fine, pen\WObj:=platform;
    MoveL [ [-1.067, -0.169, -0.020], [0.031, 0.834, 0.551, 0.000], [0, 0, 0, 0], [ 9E9, 9E9, 9E9, 9E9, 9E9, 9E9] ], v30, fine, pen\WObj:=platform;
    MoveL [ [-2.750, 2.379, 49.887], [0.031, 0.834, 0.551, 0.000], [0, 0, 0, 0], [ 9E9, 9E9, 9E9, 9E9, 9E9, 9E9] ], v1000, fine, pen\WObj:=platform;
    
    !!-0.7303370786516854, -0.16853932584269649;
    MoveL [ [-7.405, 0.838, 49.522], [0.068, 0.149, 0.987, 0.000], [0, 0, 0, 0], [ 9E9, 9E9, 9E9, 9E9, 9E9, 9E9] ], v1000, fine, pen\WObj:=platform;
    MoveL [ [-0.730, -0.169, -0.020], [0.068, 0.149, 0.987, 0.000], [0, 0, 0, 0], [ 9E9, 9E9, 9E9, 9E9, 9E9, 9E9] ], v30, fine, pen\WObj:=platform;
    MoveL [ [-7.405, 0.838, 49.522], [0.068, 0.149, 0.987, 0.000], [0, 0, 0, 0], [ 9E9, 9E9, 9E9, 9E9, 9E9, 9E9] ], v1000, fine, pen\WObj:=platform;
    
    !!-0.6179775280898876, -0.16853932584269649;
    MoveL [ [-4.839, 0.802, 49.792], [0.043, 0.224, 0.974, 0.000], [0, 0, 0, 0], [ 9E9, 9E9, 9E9, 9E9, 9E9, 9E9] ], v1000, fine, pen\WObj:=platform;
    MoveL [ [-0.618, -0.169, -0.020], [0.043, 0.224, 0.974, 0.000], [0, 0, 0, 0], [ 9E9, 9E9, 9E9, 9E9, 9E9, 9E9] ], v30, fine, pen\WObj:=platform;
    MoveL [ [-4.839, 0.802, 49.792], [0.043, 0.224, 0.974, 0.000], [0, 0, 0, 0], [ 9E9, 9E9, 9E9, 9E9, 9E9, 9E9] ], v1000, fine, pen\WObj:=platform;
    
    !!-0.5056179775280899, -0.16853932584269649;
    MoveL [ [-0.601, 10.886, 48.742], [0.111, 0.994, 0.009, 0.000], [0, 0, 0, 0], [ 9E9, 9E9, 9E9, 9E9, 9E9, 9E9] ], v1000, fine, pen\WObj:=platform;
    MoveL [ [-0.506, -0.169, -0.020], [0.111, 0.994, 0.009, 0.000], [0, 0, 0, 0], [ 9E9, 9E9, 9E9, 9E9, 9E9, 9E9] ], v30, fine, pen\WObj:=platform;
    MoveL [ [-0.601, 10.886, 48.742], [0.111, 0.994, 0.009, 0.000], [0, 0, 0, 0], [ 9E9, 9E9, 9E9, 9E9, 9E9, 9E9] ], v1000, fine, pen\WObj:=platform;
    
    !!-0.3932584269662921, -0.16853932584269649;
    MoveL [ [-2.494, -5.308, 49.671], [0.056, -0.924, 0.378, 0.000], [0, 0, 0, 0], [ 9E9, 9E9, 9E9, 9E9, 9E9, 9E9] ], v1000, fine, pen\WObj:=platform;
    MoveL [ [-0.393, -0.169, -0.020], [0.056, -0.924, 0.378, 0.000], [0, 0, 0, 0], [ 9E9, 9E9, 9E9, 9E9, 9E9, 9E9] ], v30, fine, pen\WObj:=platform;
    MoveL [ [-2.494, -5.308, 49.671], [0.056, -0.924, 0.378, 0.000], [0, 0, 0, 0], [ 9E9, 9E9, 9E9, 9E9, 9E9, 9E9] ], v1000, fine, pen\WObj:=platform;
    
    !!0.056179775280898875, -0.16853932584269649;
    MoveL [ [-8.683, -5.941, 48.871], [0.105, -0.548, 0.830, 0.000], [0, 0, 0, 0], [ 9E9, 9E9, 9E9, 9E9, 9E9, 9E9] ], v1000, fine, pen\WObj:=platform;
    MoveL [ [0.056, -0.169, -0.020], [0.105, -0.548, 0.830, 0.000], [0, 0, 0, 0], [ 9E9, 9E9, 9E9, 9E9, 9E9, 9E9] ], v30, fine, pen\WObj:=platform;
    MoveL [ [-8.683, -5.941, 48.871], [0.105, -0.548, 0.830, 0.000], [0, 0, 0, 0], [ 9E9, 9E9, 9E9, 9E9, 9E9, 9E9] ], v1000, fine, pen\WObj:=platform;
    
    !!0.16853932584269662, -0.16853932584269649;
    MoveL [ [-7.323, -11.028, 48.208], [0.133, -0.816, 0.563, 0.000], [0, 0, 0, 0], [ 9E9, 9E9, 9E9, 9E9, 9E9, 9E9] ], v1000, fine, pen\WObj:=platform;
    MoveL [ [0.169, -0.169, -0.020], [0.133, -0.816, 0.563, 0.000], [0, 0, 0, 0], [ 9E9, 9E9, 9E9, 9E9, 9E9, 9E9] ], v30, fine, pen\WObj:=platform;
    MoveL [ [-7.323, -11.028, 48.208], [0.133, -0.816, 0.563, 0.000], [0, 0, 0, 0], [ 9E9, 9E9, 9E9, 9E9, 9E9, 9E9] ], v1000, fine, pen\WObj:=platform;
    
    !!0.2808988764044944, -0.16853932584269649;
    MoveL [ [-7.452, -7.396, 48.847], [0.106, -0.679, 0.726, 0.000], [0, 0, 0, 0], [ 9E9, 9E9, 9E9, 9E9, 9E9, 9E9] ], v1000, fine, pen\WObj:=platform;
    MoveL [ [0.281, -0.169, -0.020], [0.106, -0.679, 0.726, 0.000], [0, 0, 0, 0], [ 9E9, 9E9, 9E9, 9E9, 9E9, 9E9] ], v30, fine, pen\WObj:=platform;
    MoveL [ [-7.452, -7.396, 48.847], [0.106, -0.679, 0.726, 0.000], [0, 0, 0, 0], [ 9E9, 9E9, 9E9, 9E9, 9E9, 9E9] ], v1000, fine, pen\WObj:=platform;
    
    !!0.3932584269662921, -0.16853932584269649;
    MoveL [ [-3.200, 8.619, 49.070], [0.095, 0.921, 0.377, 0.000], [0, 0, 0, 0], [ 9E9, 9E9, 9E9, 9E9, 9E9, 9E9] ], v1000, fine, pen\WObj:=platform;
    MoveL [ [0.393, -0.169, -0.020], [0.095, 0.921, 0.377, 0.000], [0, 0, 0, 0], [ 9E9, 9E9, 9E9, 9E9, 9E9, 9E9] ], v30, fine, pen\WObj:=platform;
    MoveL [ [-3.200, 8.619, 49.070], [0.095, 0.921, 0.377, 0.000], [0, 0, 0, 0], [ 9E9, 9E9, 9E9, 9E9, 9E9, 9E9] ], v1000, fine, pen\WObj:=platform;
    
    !!0.7303370786516854, -0.16853932584269649;
    MoveL [ [-4.429, -2.127, 49.675], [0.055, -0.354, 0.934, 0.000], [0, 0, 0, 0], [ 9E9, 9E9, 9E9, 9E9, 9E9, 9E9] ], v1000, fine, pen\WObj:=platform;
    MoveL [ [0.730, -0.169, -0.020], [0.055, -0.354, 0.934, 0.000], [0, 0, 0, 0], [ 9E9, 9E9, 9E9, 9E9, 9E9, 9E9] ], v30, fine, pen\WObj:=platform;
    MoveL [ [-4.429, -2.127, 49.675], [0.055, -0.354, 0.934, 0.000], [0, 0, 0, 0], [ 9E9, 9E9, 9E9, 9E9, 9E9, 9E9] ], v1000, fine, pen\WObj:=platform;
    
    !!0.8426966292134831, -0.16853932584269649;
    MoveL [ [-8.858, -1.801, 49.003], [0.099, -0.165, 0.981, 0.000], [0, 0, 0, 0], [ 9E9, 9E9, 9E9, 9E9, 9E9, 9E9] ], v1000, fine, pen\WObj:=platform;
    MoveL [ [0.843, -0.169, -0.020], [0.099, -0.165, 0.981, 0.000], [0, 0, 0, 0], [ 9E9, 9E9, 9E9, 9E9, 9E9, 9E9] ], v30, fine, pen\WObj:=platform;
    MoveL [ [-8.858, -1.801, 49.003], [0.099, -0.165, 0.981, 0.000], [0, 0, 0, 0], [ 9E9, 9E9, 9E9, 9E9, 9E9, 9E9] ], v1000, fine, pen\WObj:=platform;
    
    !!0.9550561797752809, -0.16853932584269649;
    MoveL [ [-5.437, -0.271, 49.570], [0.064, -0.016, 0.998, 0.000], [0, 0, 0, 0], [ 9E9, 9E9, 9E9, 9E9, 9E9, 9E9] ], v1000, fine, pen\WObj:=platform;
    MoveL [ [0.955, -0.169, -0.020], [0.064, -0.016, 0.998, 0.000], [0, 0, 0, 0], [ 9E9, 9E9, 9E9, 9E9, 9E9, 9E9] ], v30, fine, pen\WObj:=platform;
    MoveL [ [-5.437, -0.271, 49.570], [0.064, -0.016, 0.998, 0.000], [0, 0, 0, 0], [ 9E9, 9E9, 9E9, 9E9, 9E9, 9E9] ], v1000, fine, pen\WObj:=platform;
    
    !!1.0674157303370786, -0.16853932584269649;
    MoveL [ [-7.048, -10.568, 48.208], [0.133, -0.781, 0.610, 0.000], [0, 0, 0, 0], [ 9E9, 9E9, 9E9, 9E9, 9E9, 9E9] ], v1000, fine, pen\WObj:=platform;
    MoveL [ [1.067, -0.169, -0.020], [0.133, -0.781, 0.610, 0.000], [0, 0, 0, 0], [ 9E9, 9E9, 9E9, 9E9, 9E9, 9E9] ], v30, fine, pen\WObj:=platform;
    MoveL [ [-7.048, -10.568, 48.208], [0.133, -0.781, 0.610, 0.000], [0, 0, 0, 0], [ 9E9, 9E9, 9E9, 9E9, 9E9, 9E9] ], v1000, fine, pen\WObj:=platform;
    
    !!1.1797752808988764, -0.16853932584269649;
    MoveL [ [-7.006, -14.572, 47.155], [0.168, -0.857, 0.487, 0.000], [0, 0, 0, 0], [ 9E9, 9E9, 9E9, 9E9, 9E9, 9E9] ], v1000, fine, pen\WObj:=platform;
    MoveL [ [1.180, -0.169, -0.020], [0.168, -0.857, 0.487, 0.000], [0, 0, 0, 0], [ 9E9, 9E9, 9E9, 9E9, 9E9, 9E9] ], v30, fine, pen\WObj:=platform;
    MoveL [ [-7.006, -14.572, 47.155], [0.168, -0.857, 0.487, 0.000], [0, 0, 0, 0], [ 9E9, 9E9, 9E9, 9E9, 9E9, 9E9] ], v1000, fine, pen\WObj:=platform;
    
    !!1.2921348314606742, -0.16853932584269649;
    MoveL [ [-7.325, 0.705, 49.224], [0.087, 0.100, 0.991, 0.000], [0, 0, 0, 0], [ 9E9, 9E9, 9E9, 9E9, 9E9, 9E9] ], v1000, fine, pen\WObj:=platform;
    MoveL [ [1.292, -0.169, -0.020], [0.087, 0.100, 0.991, 0.000], [0, 0, 0, 0], [ 9E9, 9E9, 9E9, 9E9, 9E9, 9E9] ], v30, fine, pen\WObj:=platform;
    MoveL [ [-7.325, 0.705, 49.224], [0.087, 0.100, 0.991, 0.000], [0, 0, 0, 0], [ 9E9, 9E9, 9E9, 9E9, 9E9, 9E9] ], v1000, fine, pen\WObj:=platform;
    
    !!1.404494382022472, -0.16853932584269649;
    MoveL [ [-4.690, 9.797, 48.596], [0.118, 0.847, 0.518, 0.000], [0, 0, 0, 0], [ 9E9, 9E9, 9E9, 9E9, 9E9, 9E9] ], v1000, fine, pen\WObj:=platform;
    MoveL [ [1.404, -0.169, -0.020], [0.118, 0.847, 0.518, 0.000], [0, 0, 0, 0], [ 9E9, 9E9, 9E9, 9E9, 9E9, 9E9] ], v30, fine, pen\WObj:=platform;
    MoveL [ [-4.690, 9.797, 48.596], [0.118, 0.847, 0.518, 0.000], [0, 0, 0, 0], [ 9E9, 9E9, 9E9, 9E9, 9E9, 9E9] ], v1000, fine, pen\WObj:=platform;
    
    !!1.5168539325842698, -0.16853932584269649;
    MoveL [ [4.330, -12.002, 48.478], [0.123, -0.966, -0.230, 0.000], [0, 0, 0, 0], [ 9E9, 9E9, 9E9, 9E9, 9E9, 9E9] ], v1000, fine, pen\WObj:=platform;
    MoveL [ [1.517, -0.169, -0.020], [0.123, -0.966, -0.230, 0.000], [0, 0, 0, 0], [ 9E9, 9E9, 9E9, 9E9, 9E9, 9E9] ], v30, fine, pen\WObj:=platform;
    MoveL [ [4.330, -12.002, 48.478], [0.123, -0.966, -0.230, 0.000], [0, 0, 0, 0], [ 9E9, 9E9, 9E9, 9E9, 9E9, 9E9] ], v1000, fine, pen\WObj:=platform;
    
    !!1.6292134831460676, -0.16853932584269649;
    MoveL [ [-7.905, 5.584, 48.724], [0.112, 0.513, 0.851, 0.000], [0, 0, 0, 0], [ 9E9, 9E9, 9E9, 9E9, 9E9, 9E9] ], v1000, fine, pen\WObj:=platform;
    MoveL [ [1.629, -0.169, -0.020], [0.112, 0.513, 0.851, 0.000], [0, 0, 0, 0], [ 9E9, 9E9, 9E9, 9E9, 9E9, 9E9] ], v30, fine, pen\WObj:=platform;
    MoveL [ [-7.905, 5.584, 48.724], [0.112, 0.513, 0.851, 0.000], [0, 0, 0, 0], [ 9E9, 9E9, 9E9, 9E9, 9E9, 9E9] ], v1000, fine, pen\WObj:=platform;
    
    !!1.7415730337078652, -0.16853932584269649;
    MoveL [ [-5.808, -12.690, 47.794], [0.148, -0.847, 0.511, 0.000], [0, 0, 0, 0], [ 9E9, 9E9, 9E9, 9E9, 9E9, 9E9] ], v1000, fine, pen\WObj:=platform;
    MoveL [ [1.742, -0.169, -0.020], [0.148, -0.847, 0.511, 0.000], [0, 0, 0, 0], [ 9E9, 9E9, 9E9, 9E9, 9E9, 9E9] ], v30, fine, pen\WObj:=platform;
    MoveL [ [-5.808, -12.690, 47.794], [0.148, -0.847, 0.511, 0.000], [0, 0, 0, 0], [ 9E9, 9E9, 9E9, 9E9, 9E9, 9E9] ], v1000, fine, pen\WObj:=platform;
    
    !!1.853932584269663, -0.16853932584269649;
    MoveL [ [-5.469, -9.754, 48.503], [0.122, -0.789, 0.603, 0.000], [0, 0, 0, 0], [ 9E9, 9E9, 9E9, 9E9, 9E9, 9E9] ], v1000, fine, pen\WObj:=platform;
    MoveL [ [1.854, -0.169, -0.020], [0.122, -0.789, 0.603, 0.000], [0, 0, 0, 0], [ 9E9, 9E9, 9E9, 9E9, 9E9, 9E9] ], v30, fine, pen\WObj:=platform;
    MoveL [ [-5.469, -9.754, 48.503], [0.122, -0.789, 0.603, 0.000], [0, 0, 0, 0], [ 9E9, 9E9, 9E9, 9E9, 9E9, 9E9] ], v1000, fine, pen\WObj:=platform;
    
    !!2.1910112359550564, -0.16853932584269649;
    MoveL [ [-7.272, -2.587, 49.017], [0.098, -0.246, 0.964, 0.000], [0, 0, 0, 0], [ 9E9, 9E9, 9E9, 9E9, 9E9, 9E9] ], v1000, fine, pen\WObj:=platform;
    MoveL [ [2.191, -0.169, -0.020], [0.098, -0.246, 0.964, 0.000], [0, 0, 0, 0], [ 9E9, 9E9, 9E9, 9E9, 9E9, 9E9] ], v30, fine, pen\WObj:=platform;
    MoveL [ [-7.272, -2.587, 49.017], [0.098, -0.246, 0.964, 0.000], [0, 0, 0, 0], [ 9E9, 9E9, 9E9, 9E9, 9E9, 9E9] ], v1000, fine, pen\WObj:=platform;
    
    !!2.303370786516854, -0.16853932584269649;
    MoveL [ [-3.537, 13.453, 47.733], [0.150, 0.909, 0.390, 0.000], [0, 0, 0, 0], [ 9E9, 9E9, 9E9, 9E9, 9E9, 9E9] ], v1000, fine, pen\WObj:=platform;
    MoveL [ [2.303, -0.169, -0.020], [0.150, 0.909, 0.390, 0.000], [0, 0, 0, 0], [ 9E9, 9E9, 9E9, 9E9, 9E9, 9E9] ], v30, fine, pen\WObj:=platform;
    MoveL [ [-3.537, 13.453, 47.733], [0.150, 0.909, 0.390, 0.000], [0, 0, 0, 0], [ 9E9, 9E9, 9E9, 9E9, 9E9, 9E9] ], v1000, fine, pen\WObj:=platform;
    
    !!2.4157303370786516, -0.16853932584269649;
    MoveL [ [-10.033, -5.073, 48.156], [0.135, -0.363, 0.922, 0.000], [0, 0, 0, 0], [ 9E9, 9E9, 9E9, 9E9, 9E9, 9E9] ], v1000, fine, pen\WObj:=platform;
    MoveL [ [2.416, -0.169, -0.020], [0.135, -0.363, 0.922, 0.000], [0, 0, 0, 0], [ 9E9, 9E9, 9E9, 9E9, 9E9, 9E9] ], v30, fine, pen\WObj:=platform;
    MoveL [ [-10.033, -5.073, 48.156], [0.135, -0.363, 0.922, 0.000], [0, 0, 0, 0], [ 9E9, 9E9, 9E9, 9E9, 9E9, 9E9] ], v1000, fine, pen\WObj:=platform;
    
    !!2.5280898876404496, -0.16853932584269649;
    MoveL [ [0.165, 3.286, 49.805], [0.042, 0.825, 0.564, 0.000], [0, 0, 0, 0], [ 9E9, 9E9, 9E9, 9E9, 9E9, 9E9] ], v1000, fine, pen\WObj:=platform;
    MoveL [ [2.528, -0.169, -0.020], [0.042, 0.825, 0.564, 0.000], [0, 0, 0, 0], [ 9E9, 9E9, 9E9, 9E9, 9E9, 9E9] ], v30, fine, pen\WObj:=platform;
    MoveL [ [0.165, 3.286, 49.805], [0.042, 0.825, 0.564, 0.000], [0, 0, 0, 0], [ 9E9, 9E9, 9E9, 9E9, 9E9, 9E9] ], v1000, fine, pen\WObj:=platform;
    
    !!2.9775280898876404, -0.16853932584269649;
    MoveL [ [-10.074, 4.501, 48.020], [0.140, 0.334, 0.932, 0.000], [0, 0, 0, 0], [ 9E9, 9E9, 9E9, 9E9, 9E9, 9E9] ], v1000, fine, pen\WObj:=platform;
    MoveL [ [2.978, -0.169, -0.020], [0.140, 0.334, 0.932, 0.000], [0, 0, 0, 0], [ 9E9, 9E9, 9E9, 9E9, 9E9, 9E9] ], v30, fine, pen\WObj:=platform;
    MoveL [ [-10.074, 4.501, 48.020], [0.140, 0.334, 0.932, 0.000], [0, 0, 0, 0], [ 9E9, 9E9, 9E9, 9E9, 9E9, 9E9] ], v1000, fine, pen\WObj:=platform;
    
    !!3.089887640449438, -0.16853932584269649;
    MoveL [ [-8.217, -12.918, 46.986], [0.173, -0.737, 0.654, 0.000], [0, 0, 0, 0], [ 9E9, 9E9, 9E9, 9E9, 9E9, 9E9] ], v1000, fine, pen\WObj:=platform;
    MoveL [ [3.090, -0.169, -0.020], [0.173, -0.737, 0.654, 0.000], [0, 0, 0, 0], [ 9E9, 9E9, 9E9, 9E9, 9E9, 9E9] ], v30, fine, pen\WObj:=platform;
    MoveL [ [-8.217, -12.918, 46.986], [0.173, -0.737, 0.654, 0.000], [0, 0, 0, 0], [ 9E9, 9E9, 9E9, 9E9, 9E9, 9E9] ], v1000, fine, pen\WObj:=platform;
    
    !!3.202247191011236, -0.16853932584269649;
    MoveL [ [-11.190, 0.537, 47.859], [0.146, 0.048, 0.988, 0.000], [0, 0, 0, 0], [ 9E9, 9E9, 9E9, 9E9, 9E9, 9E9] ], v1000, fine, pen\WObj:=platform;
    MoveL [ [3.202, -0.169, -0.020], [0.146, 0.048, 0.988, 0.000], [0, 0, 0, 0], [ 9E9, 9E9, 9E9, 9E9, 9E9, 9E9] ], v30, fine, pen\WObj:=platform;
    MoveL [ [-11.190, 0.537, 47.859], [0.146, 0.048, 0.988, 0.000], [0, 0, 0, 0], [ 9E9, 9E9, 9E9, 9E9, 9E9, 9E9] ], v1000, fine, pen\WObj:=platform;
    
    !!3.5393258426966288, -0.16853932584269649;
    MoveL [ [-6.080, -2.949, 48.967], [0.101, -0.276, 0.956, 0.000], [0, 0, 0, 0], [ 9E9, 9E9, 9E9, 9E9, 9E9, 9E9] ], v1000, fine, pen\WObj:=platform;
    MoveL [ [3.539, -0.169, -0.020], [0.101, -0.276, 0.956, 0.000], [0, 0, 0, 0], [ 9E9, 9E9, 9E9, 9E9, 9E9, 9E9] ], v30, fine, pen\WObj:=platform;
    MoveL [ [-6.080, -2.949, 48.967], [0.101, -0.276, 0.956, 0.000], [0, 0, 0, 0], [ 9E9, 9E9, 9E9, 9E9, 9E9, 9E9] ], v1000, fine, pen\WObj:=platform;
    
    !!3.6516853932584272, -0.16853932584269649;
    MoveL [ [0.613, 11.038, 48.613], [0.117, 0.959, 0.260, 0.000], [0, 0, 0, 0], [ 9E9, 9E9, 9E9, 9E9, 9E9, 9E9] ], v1000, fine, pen\WObj:=platform;
    MoveL [ [3.652, -0.169, -0.020], [0.117, 0.959, 0.260, 0.000], [0, 0, 0, 0], [ 9E9, 9E9, 9E9, 9E9, 9E9, 9E9] ], v30, fine, pen\WObj:=platform;
    MoveL [ [0.613, 11.038, 48.613], [0.117, 0.959, 0.260, 0.000], [0, 0, 0, 0], [ 9E9, 9E9, 9E9, 9E9, 9E9, 9E9] ], v1000, fine, pen\WObj:=platform;
    
    !!3.7640449438202244, -0.16853932584269649;
    MoveL [ [-9.795, 7.177, 47.543], [0.156, 0.470, 0.868, 0.000], [0, 0, 0, 0], [ 9E9, 9E9, 9E9, 9E9, 9E9, 9E9] ], v1000, fine, pen\WObj:=platform;
    MoveL [ [3.764, -0.169, -0.020], [0.156, 0.470, 0.868, 0.000], [0, 0, 0, 0], [ 9E9, 9E9, 9E9, 9E9, 9E9, 9E9] ], v30, fine, pen\WObj:=platform;
    MoveL [ [-9.795, 7.177, 47.543], [0.156, 0.470, 0.868, 0.000], [0, 0, 0, 0], [ 9E9, 9E9, 9E9, 9E9, 9E9, 9E9] ], v1000, fine, pen\WObj:=platform;
    
    !!3.8764044943820224, -0.16853932584269649;
    MoveL [ [-10.355, 2.532, 47.836], [0.146, 0.184, 0.972, 0.000], [0, 0, 0, 0], [ 9E9, 9E9, 9E9, 9E9, 9E9, 9E9] ], v1000, fine, pen\WObj:=platform;
    MoveL [ [3.876, -0.169, -0.020], [0.146, 0.184, 0.972, 0.000], [0, 0, 0, 0], [ 9E9, 9E9, 9E9, 9E9, 9E9, 9E9] ], v30, fine, pen\WObj:=platform;
    MoveL [ [-10.355, 2.532, 47.836], [0.146, 0.184, 0.972, 0.000], [0, 0, 0, 0], [ 9E9, 9E9, 9E9, 9E9, 9E9, 9E9] ], v1000, fine, pen\WObj:=platform;
    
    !!3.98876404494382, -0.16853932584269649;
    MoveL [ [-9.952, -4.506, 47.801], [0.148, -0.294, 0.944, 0.000], [0, 0, 0, 0], [ 9E9, 9E9, 9E9, 9E9, 9E9, 9E9] ], v1000, fine, pen\WObj:=platform;
    MoveL [ [3.989, -0.169, -0.020], [0.148, -0.294, 0.944, 0.000], [0, 0, 0, 0], [ 9E9, 9E9, 9E9, 9E9, 9E9, 9E9] ], v30, fine, pen\WObj:=platform;
    MoveL [ [-9.952, -4.506, 47.801], [0.148, -0.294, 0.944, 0.000], [0, 0, 0, 0], [ 9E9, 9E9, 9E9, 9E9, 9E9, 9E9] ], v1000, fine, pen\WObj:=platform;
    
    !!4.101123595505618, -0.16853932584269649;
    MoveL [ [-8.499, 8.957, 47.498], [0.158, 0.579, 0.800, 0.000], [0, 0, 0, 0], [ 9E9, 9E9, 9E9, 9E9, 9E9, 9E9] ], v1000, fine, pen\WObj:=platform;
    MoveL [ [4.101, -0.169, -0.020], [0.158, 0.579, 0.800, 0.000], [0, 0, 0, 0], [ 9E9, 9E9, 9E9, 9E9, 9E9, 9E9] ], v30, fine, pen\WObj:=platform;
    MoveL [ [-8.499, 8.957, 47.498], [0.158, 0.579, 0.800, 0.000], [0, 0, 0, 0], [ 9E9, 9E9, 9E9, 9E9, 9E9, 9E9] ], v1000, fine, pen\WObj:=platform;
    
    !!4.213483146067415, -0.16853932584269649;
    MoveL [ [-8.989, -9.948, 47.203], [0.167, -0.587, 0.792, 0.000], [0, 0, 0, 0], [ 9E9, 9E9, 9E9, 9E9, 9E9, 9E9] ], v1000, fine, pen\WObj:=platform;
    MoveL [ [4.213, -0.169, -0.020], [0.167, -0.587, 0.792, 0.000], [0, 0, 0, 0], [ 9E9, 9E9, 9E9, 9E9, 9E9, 9E9] ], v30, fine, pen\WObj:=platform;
    MoveL [ [-8.989, -9.948, 47.203], [0.167, -0.587, 0.792, 0.000], [0, 0, 0, 0], [ 9E9, 9E9, 9E9, 9E9, 9E9, 9E9] ], v1000, fine, pen\WObj:=platform;
    
    !!4.325842696629214, -0.16853932584269649;
    MoveL [ [-8.742, -3.964, 48.093], [0.137, -0.276, 0.951, 0.000], [0, 0, 0, 0], [ 9E9, 9E9, 9E9, 9E9, 9E9, 9E9] ], v1000, fine, pen\WObj:=platform;
    MoveL [ [4.326, -0.169, -0.020], [0.137, -0.276, 0.951, 0.000], [0, 0, 0, 0], [ 9E9, 9E9, 9E9, 9E9, 9E9, 9E9] ], v30, fine, pen\WObj:=platform;
    MoveL [ [-8.742, -3.964, 48.093], [0.137, -0.276, 0.951, 0.000], [0, 0, 0, 0], [ 9E9, 9E9, 9E9, 9E9, 9E9, 9E9] ], v1000, fine, pen\WObj:=platform;
    
    !!4.438202247191011, -0.16853932584269649;
    MoveL [ [-6.910, 12.437, 47.015], [0.172, 0.732, 0.659, 0.000], [0, 0, 0, 0], [ 9E9, 9E9, 9E9, 9E9, 9E9, 9E9] ], v1000, fine, pen\WObj:=platform;
    MoveL [ [4.438, -0.169, -0.020], [0.172, 0.732, 0.659, 0.000], [0, 0, 0, 0], [ 9E9, 9E9, 9E9, 9E9, 9E9, 9E9] ], v30, fine, pen\WObj:=platform;
    MoveL [ [-6.910, 12.437, 47.015], [0.172, 0.732, 0.659, 0.000], [0, 0, 0, 0], [ 9E9, 9E9, 9E9, 9E9, 9E9, 9E9] ], v1000, fine, pen\WObj:=platform;
    
    !!4.550561797752809, -0.16853932584269649;
    MoveL [ [-5.226, -2.539, 48.958], [0.101, -0.234, 0.967, 0.000], [0, 0, 0, 0], [ 9E9, 9E9, 9E9, 9E9, 9E9, 9E9] ], v1000, fine, pen\WObj:=platform;
    MoveL [ [4.551, -0.169, -0.020], [0.101, -0.234, 0.967, 0.000], [0, 0, 0, 0], [ 9E9, 9E9, 9E9, 9E9, 9E9, 9E9] ], v30, fine, pen\WObj:=platform;
    MoveL [ [-5.226, -2.539, 48.958], [0.101, -0.234, 0.967, 0.000], [0, 0, 0, 0], [ 9E9, 9E9, 9E9, 9E9, 9E9, 9E9] ], v1000, fine, pen\WObj:=platform;
    
    !!-4.550561797752809, -0.28089887640449424;
    MoveL [ [-5.171, -4.191, 49.823], [0.040, -0.987, 0.157, 0.000], [0, 0, 0, 0], [ 9E9, 9E9, 9E9, 9E9, 9E9, 9E9] ], v1000, fine, pen\WObj:=platform;
    MoveL [ [-4.551, -0.281, -0.020], [0.040, -0.987, 0.157, 0.000], [0, 0, 0, 0], [ 9E9, 9E9, 9E9, 9E9, 9E9, 9E9] ], v30, fine, pen\WObj:=platform;
    MoveL [ [-5.171, -4.191, 49.823], [0.040, -0.987, 0.157, 0.000], [0, 0, 0, 0], [ 9E9, 9E9, 9E9, 9E9, 9E9, 9E9] ], v1000, fine, pen\WObj:=platform;
    
    !!-4.438202247191011, -0.28089887640449424;
    MoveL [ [-9.239, 2.745, 49.657], [0.057, 0.532, 0.845, 0.000], [0, 0, 0, 0], [ 9E9, 9E9, 9E9, 9E9, 9E9, 9E9] ], v1000, fine, pen\WObj:=platform;
    MoveL [ [-4.438, -0.281, -0.020], [0.057, 0.532, 0.845, 0.000], [0, 0, 0, 0], [ 9E9, 9E9, 9E9, 9E9, 9E9, 9E9] ], v30, fine, pen\WObj:=platform;
    MoveL [ [-9.239, 2.745, 49.657], [0.057, 0.532, 0.845, 0.000], [0, 0, 0, 0], [ 9E9, 9E9, 9E9, 9E9, 9E9, 9E9] ], v1000, fine, pen\WObj:=platform;
    
    !!-4.325842696629214, -0.28089887640449424;
    MoveL [ [-6.745, -11.294, 48.692], [0.113, -0.970, 0.213, 0.000], [0, 0, 0, 0], [ 9E9, 9E9, 9E9, 9E9, 9E9, 9E9] ], v1000, fine, pen\WObj:=platform;
    MoveL [ [-4.326, -0.281, -0.020], [0.113, -0.970, 0.213, 0.000], [0, 0, 0, 0], [ 9E9, 9E9, 9E9, 9E9, 9E9, 9E9] ], v30, fine, pen\WObj:=platform;
    MoveL [ [-6.745, -11.294, 48.692], [0.113, -0.970, 0.213, 0.000], [0, 0, 0, 0], [ 9E9, 9E9, 9E9, 9E9, 9E9, 9E9] ], v1000, fine, pen\WObj:=platform;
    
    !!-3.8764044943820224, -0.28089887640449424;
    MoveL [ [-8.751, 0.501, 49.736], [0.049, 0.158, 0.986, 0.000], [0, 0, 0, 0], [ 9E9, 9E9, 9E9, 9E9, 9E9, 9E9] ], v1000, fine, pen\WObj:=platform;
    MoveL [ [-3.876, -0.281, -0.020], [0.049, 0.158, 0.986, 0.000], [0, 0, 0, 0], [ 9E9, 9E9, 9E9, 9E9, 9E9, 9E9] ], v30, fine, pen\WObj:=platform;
    MoveL [ [-8.751, 0.501, 49.736], [0.049, 0.158, 0.986, 0.000], [0, 0, 0, 0], [ 9E9, 9E9, 9E9, 9E9, 9E9, 9E9] ], v1000, fine, pen\WObj:=platform;
    
    !!-3.7640449438202244, -0.28089887640449424;
    MoveL [ [-1.718, 8.081, 49.233], [0.086, 0.968, -0.237, 0.000], [0, 0, 0, 0], [ 9E9, 9E9, 9E9, 9E9, 9E9, 9E9] ], v1000, fine, pen\WObj:=platform;
    MoveL [ [-3.764, -0.281, -0.020], [0.086, 0.968, -0.237, 0.000], [0, 0, 0, 0], [ 9E9, 9E9, 9E9, 9E9, 9E9, 9E9] ], v30, fine, pen\WObj:=platform;
    MoveL [ [-1.718, 8.081, 49.233], [0.086, 0.968, -0.237, 0.000], [0, 0, 0, 0], [ 9E9, 9E9, 9E9, 9E9, 9E9, 9E9] ], v1000, fine, pen\WObj:=platform;
    
    !!-3.6516853932584272, -0.28089887640449424;
    MoveL [ [1.532, -0.523, 49.710], [0.052, -0.047, -0.998, 0.000], [0, 0, 0, 0], [ 9E9, 9E9, 9E9, 9E9, 9E9, 9E9] ], v1000, fine, pen\WObj:=platform;
    MoveL [ [-3.652, -0.281, -0.020], [0.052, -0.047, -0.998, 0.000], [0, 0, 0, 0], [ 9E9, 9E9, 9E9, 9E9, 9E9, 9E9] ], v30, fine, pen\WObj:=platform;
    MoveL [ [1.532, -0.523, 49.710], [0.052, -0.047, -0.998, 0.000], [0, 0, 0, 0], [ 9E9, 9E9, 9E9, 9E9, 9E9, 9E9] ], v1000, fine, pen\WObj:=platform;
    
    !!-3.5393258426966288, -0.28089887640449424;
    MoveL [ [-8.341, 3.818, 49.580], [0.063, 0.648, 0.759, 0.000], [0, 0, 0, 0], [ 9E9, 9E9, 9E9, 9E9, 9E9, 9E9] ], v1000, fine, pen\WObj:=platform;
    MoveL [ [-3.539, -0.281, -0.020], [0.063, 0.648, 0.759, 0.000], [0, 0, 0, 0], [ 9E9, 9E9, 9E9, 9E9, 9E9, 9E9] ], v30, fine, pen\WObj:=platform;
    MoveL [ [-8.341, 3.818, 49.580], [0.063, 0.648, 0.759, 0.000], [0, 0, 0, 0], [ 9E9, 9E9, 9E9, 9E9, 9E9, 9E9] ], v1000, fine, pen\WObj:=platform;
    
    !!-2.9775280898876404, -0.28089887640449424;
    MoveL [ [-7.652, -3.861, 49.632], [0.059, -0.607, 0.793, 0.000], [0, 0, 0, 0], [ 9E9, 9E9, 9E9, 9E9, 9E9, 9E9] ], v1000, fine, pen\WObj:=platform;
    MoveL [ [-2.978, -0.281, -0.020], [0.059, -0.607, 0.793, 0.000], [0, 0, 0, 0], [ 9E9, 9E9, 9E9, 9E9, 9E9, 9E9] ], v30, fine, pen\WObj:=platform;
    MoveL [ [-7.652, -3.861, 49.632], [0.059, -0.607, 0.793, 0.000], [0, 0, 0, 0], [ 9E9, 9E9, 9E9, 9E9, 9E9, 9E9] ], v1000, fine, pen\WObj:=platform;
    
    !!-2.8651685393258424, -0.28089887640449424;
    MoveL [ [-6.038, 6.963, 49.351], [0.079, 0.913, 0.400, 0.000], [0, 0, 0, 0], [ 9E9, 9E9, 9E9, 9E9, 9E9, 9E9] ], v1000, fine, pen\WObj:=platform;
    MoveL [ [-2.865, -0.281, -0.020], [0.079, 0.913, 0.400, 0.000], [0, 0, 0, 0], [ 9E9, 9E9, 9E9, 9E9, 9E9, 9E9] ], v30, fine, pen\WObj:=platform;
    MoveL [ [-6.038, 6.963, 49.351], [0.079, 0.913, 0.400, 0.000], [0, 0, 0, 0], [ 9E9, 9E9, 9E9, 9E9, 9E9, 9E9] ], v1000, fine, pen\WObj:=platform;
    
    !!-2.752808988764045, -0.28089887640449424;
    MoveL [ [-6.908, -4.334, 49.642], [0.058, -0.697, 0.715, 0.000], [0, 0, 0, 0], [ 9E9, 9E9, 9E9, 9E9, 9E9, 9E9] ], v1000, fine, pen\WObj:=platform;
    MoveL [ [-2.753, -0.281, -0.020], [0.058, -0.697, 0.715, 0.000], [0, 0, 0, 0], [ 9E9, 9E9, 9E9, 9E9, 9E9, 9E9] ], v30, fine, pen\WObj:=platform;
    MoveL [ [-6.908, -4.334, 49.642], [0.058, -0.697, 0.715, 0.000], [0, 0, 0, 0], [ 9E9, 9E9, 9E9, 9E9, 9E9, 9E9] ], v1000, fine, pen\WObj:=platform;
    
    !!-2.0786516853932584, -0.28089887640449424;
    MoveL [ [-7.350, -12.563, 48.160], [0.135, -0.911, 0.391, 0.000], [0, 0, 0, 0], [ 9E9, 9E9, 9E9, 9E9, 9E9, 9E9] ], v1000, fine, pen\WObj:=platform;
    MoveL [ [-2.079, -0.281, -0.020], [0.135, -0.911, 0.391, 0.000], [0, 0, 0, 0], [ 9E9, 9E9, 9E9, 9E9, 9E9, 9E9] ], v30, fine, pen\WObj:=platform;
    MoveL [ [-7.350, -12.563, 48.160], [0.135, -0.911, 0.391, 0.000], [0, 0, 0, 0], [ 9E9, 9E9, 9E9, 9E9, 9E9, 9E9] ], v1000, fine, pen\WObj:=platform;
    
    !!-1.9662921348314608, -0.28089887640449424;
    MoveL [ [-4.419, -1.637, 49.901], [0.028, -0.484, 0.875, 0.000], [0, 0, 0, 0], [ 9E9, 9E9, 9E9, 9E9, 9E9, 9E9] ], v1000, fine, pen\WObj:=platform;
    MoveL [ [-1.966, -0.281, -0.020], [0.028, -0.484, 0.875, 0.000], [0, 0, 0, 0], [ 9E9, 9E9, 9E9, 9E9, 9E9, 9E9] ], v30, fine, pen\WObj:=platform;
    MoveL [ [-4.419, -1.637, 49.901], [0.028, -0.484, 0.875, 0.000], [0, 0, 0, 0], [ 9E9, 9E9, 9E9, 9E9, 9E9, 9E9] ], v1000, fine, pen\WObj:=platform;
    
    !!-1.853932584269663, -0.28089887640449424;
    MoveL [ [-2.253, -8.310, 49.329], [0.081, -0.996, 0.049, 0.000], [0, 0, 0, 0], [ 9E9, 9E9, 9E9, 9E9, 9E9, 9E9] ], v1000, fine, pen\WObj:=platform;
    MoveL [ [-1.854, -0.281, -0.020], [0.081, -0.996, 0.049, 0.000], [0, 0, 0, 0], [ 9E9, 9E9, 9E9, 9E9, 9E9, 9E9] ], v30, fine, pen\WObj:=platform;
    MoveL [ [-2.253, -8.310, 49.329], [0.081, -0.996, 0.049, 0.000], [0, 0, 0, 0], [ 9E9, 9E9, 9E9, 9E9, 9E9, 9E9] ], v1000, fine, pen\WObj:=platform;
    
    !!-1.7415730337078652, -0.28089887640449424;
    MoveL [ [-3.340, -6.347, 49.585], [0.063, -0.965, 0.254, 0.000], [0, 0, 0, 0], [ 9E9, 9E9, 9E9, 9E9, 9E9, 9E9] ], v1000, fine, pen\WObj:=platform;
    MoveL [ [-1.742, -0.281, -0.020], [0.063, -0.965, 0.254, 0.000], [0, 0, 0, 0], [ 9E9, 9E9, 9E9, 9E9, 9E9, 9E9] ], v30, fine, pen\WObj:=platform;
    MoveL [ [-3.340, -6.347, 49.585], [0.063, -0.965, 0.254, 0.000], [0, 0, 0, 0], [ 9E9, 9E9, 9E9, 9E9, 9E9, 9E9] ], v1000, fine, pen\WObj:=platform;
    
    !!-1.404494382022472, -0.28089887640449424;
    MoveL [ [-5.617, -9.043, 49.026], [0.098, -0.897, 0.431, 0.000], [0, 0, 0, 0], [ 9E9, 9E9, 9E9, 9E9, 9E9, 9E9] ], v1000, fine, pen\WObj:=platform;
    MoveL [ [-1.404, -0.281, -0.020], [0.098, -0.897, 0.431, 0.000], [0, 0, 0, 0], [ 9E9, 9E9, 9E9, 9E9, 9E9, 9E9] ], v30, fine, pen\WObj:=platform;
    MoveL [ [-5.617, -9.043, 49.026], [0.098, -0.897, 0.431, 0.000], [0, 0, 0, 0], [ 9E9, 9E9, 9E9, 9E9, 9E9, 9E9] ], v1000, fine, pen\WObj:=platform;
    
    !!-1.2921348314606742, -0.28089887640449424;
    MoveL [ [-4.029, 11.471, 48.502], [0.122, 0.967, 0.225, 0.000], [0, 0, 0, 0], [ 9E9, 9E9, 9E9, 9E9, 9E9, 9E9] ], v1000, fine, pen\WObj:=platform;
    MoveL [ [-1.292, -0.281, -0.020], [0.122, 0.967, 0.225, 0.000], [0, 0, 0, 0], [ 9E9, 9E9, 9E9, 9E9, 9E9, 9E9] ], v30, fine, pen\WObj:=platform;
    MoveL [ [-4.029, 11.471, 48.502], [0.122, 0.967, 0.225, 0.000], [0, 0, 0, 0], [ 9E9, 9E9, 9E9, 9E9, 9E9, 9E9] ], v1000, fine, pen\WObj:=platform;
    
    !!-1.1797752808988764, -0.28089887640449424;
    MoveL [ [-7.719, -7.653, 48.999], [0.099, -0.744, 0.660, 0.000], [0, 0, 0, 0], [ 9E9, 9E9, 9E9, 9E9, 9E9, 9E9] ], v1000, fine, pen\WObj:=platform;
    MoveL [ [-1.180, -0.281, -0.020], [0.099, -0.744, 0.660, 0.000], [0, 0, 0, 0], [ 9E9, 9E9, 9E9, 9E9, 9E9, 9E9] ], v30, fine, pen\WObj:=platform;
    MoveL [ [-7.719, -7.653, 48.999], [0.099, -0.744, 0.660, 0.000], [0, 0, 0, 0], [ 9E9, 9E9, 9E9, 9E9, 9E9, 9E9] ], v1000, fine, pen\WObj:=platform;
    
    !!-1.0674157303370786, -0.28089887640449424;
    MoveL [ [-9.640, 6.986, 48.701], [0.113, 0.642, 0.758, 0.000], [0, 0, 0, 0], [ 9E9, 9E9, 9E9, 9E9, 9E9, 9E9] ], v1000, fine, pen\WObj:=platform;
    MoveL [ [-1.067, -0.281, -0.020], [0.113, 0.642, 0.758, 0.000], [0, 0, 0, 0], [ 9E9, 9E9, 9E9, 9E9, 9E9, 9E9] ], v30, fine, pen\WObj:=platform;
    MoveL [ [-9.640, 6.986, 48.701], [0.113, 0.642, 0.758, 0.000], [0, 0, 0, 0], [ 9E9, 9E9, 9E9, 9E9, 9E9, 9E9] ], v1000, fine, pen\WObj:=platform;
    
    !!-0.7303370786516854, -0.28089887640449424;
    MoveL [ [-4.750, 4.528, 49.586], [0.063, 0.766, 0.640, 0.000], [0, 0, 0, 0], [ 9E9, 9E9, 9E9, 9E9, 9E9, 9E9] ], v1000, fine, pen\WObj:=platform;
    MoveL [ [-0.730, -0.281, -0.020], [0.063, 0.766, 0.640, 0.000], [0, 0, 0, 0], [ 9E9, 9E9, 9E9, 9E9, 9E9, 9E9] ], v30, fine, pen\WObj:=platform;
    MoveL [ [-4.750, 4.528, 49.586], [0.063, 0.766, 0.640, 0.000], [0, 0, 0, 0], [ 9E9, 9E9, 9E9, 9E9, 9E9, 9E9] ], v1000, fine, pen\WObj:=platform;
    
    !!-0.6179775280898876, -0.28089887640449424;
    MoveL [ [-10.957, 0.668, 48.890], [0.104, 0.091, 0.990, 0.000], [0, 0, 0, 0], [ 9E9, 9E9, 9E9, 9E9, 9E9, 9E9] ], v1000, fine, pen\WObj:=platform;
    MoveL [ [-0.618, -0.281, -0.020], [0.104, 0.091, 0.990, 0.000], [0, 0, 0, 0], [ 9E9, 9E9, 9E9, 9E9, 9E9, 9E9] ], v30, fine, pen\WObj:=platform;
    MoveL [ [-10.957, 0.668, 48.890], [0.104, 0.091, 0.990, 0.000], [0, 0, 0, 0], [ 9E9, 9E9, 9E9, 9E9, 9E9, 9E9] ], v1000, fine, pen\WObj:=platform;
    
    !!-0.5056179775280899, -0.28089887640449424;
    MoveL [ [-12.279, 7.864, 47.887], [0.145, 0.563, 0.814, 0.000], [0, 0, 0, 0], [ 9E9, 9E9, 9E9, 9E9, 9E9, 9E9] ], v1000, fine, pen\WObj:=platform;
    MoveL [ [-0.506, -0.281, -0.020], [0.145, 0.563, 0.814, 0.000], [0, 0, 0, 0], [ 9E9, 9E9, 9E9, 9E9, 9E9, 9E9] ], v30, fine, pen\WObj:=platform;
    MoveL [ [-12.279, 7.864, 47.887], [0.145, 0.563, 0.814, 0.000], [0, 0, 0, 0], [ 9E9, 9E9, 9E9, 9E9, 9E9, 9E9] ], v1000, fine, pen\WObj:=platform;
    
    !!-0.3932584269662921, -0.28089887640449424;
    MoveL [ [-7.327, 7.014, 48.957], [0.101, 0.721, 0.685, 0.000], [0, 0, 0, 0], [ 9E9, 9E9, 9E9, 9E9, 9E9, 9E9] ], v1000, fine, pen\WObj:=platform;
    MoveL [ [-0.393, -0.281, -0.020], [0.101, 0.721, 0.685, 0.000], [0, 0, 0, 0], [ 9E9, 9E9, 9E9, 9E9, 9E9, 9E9] ], v30, fine, pen\WObj:=platform;
    MoveL [ [-7.327, 7.014, 48.957], [0.101, 0.721, 0.685, 0.000], [0, 0, 0, 0], [ 9E9, 9E9, 9E9, 9E9, 9E9, 9E9] ], v1000, fine, pen\WObj:=platform;
    
    !!-0.2808988764044944, -0.28089887640449424;
    MoveL [ [-8.028, -6.566, 48.975], [0.100, -0.627, 0.773, 0.000], [0, 0, 0, 0], [ 9E9, 9E9, 9E9, 9E9, 9E9, 9E9] ], v1000, fine, pen\WObj:=platform;
    MoveL [ [-0.281, -0.281, -0.020], [0.100, -0.627, 0.773, 0.000], [0, 0, 0, 0], [ 9E9, 9E9, 9E9, 9E9, 9E9, 9E9] ], v30, fine, pen\WObj:=platform;
    MoveL [ [-8.028, -6.566, 48.975], [0.100, -0.627, 0.773, 0.000], [0, 0, 0, 0], [ 9E9, 9E9, 9E9, 9E9, 9E9, 9E9] ], v1000, fine, pen\WObj:=platform;
    
    !!-0.056179775280898875, -0.28089887640449424;
    MoveL [ [-4.416, 1.560, 49.756], [0.047, 0.389, 0.920, 0.000], [0, 0, 0, 0], [ 9E9, 9E9, 9E9, 9E9, 9E9, 9E9] ], v1000, fine, pen\WObj:=platform;
    MoveL [ [-0.056, -0.281, -0.020], [0.047, 0.389, 0.920, 0.000], [0, 0, 0, 0], [ 9E9, 9E9, 9E9, 9E9, 9E9, 9E9] ], v30, fine, pen\WObj:=platform;
    MoveL [ [-4.416, 1.560, 49.756], [0.047, 0.389, 0.920, 0.000], [0, 0, 0, 0], [ 9E9, 9E9, 9E9, 9E9, 9E9, 9E9] ], v1000, fine, pen\WObj:=platform;
    
    !!0.056179775280898875, -0.28089887640449424;
    MoveL [ [-6.582, 7.308, 48.953], [0.101, 0.749, 0.655, 0.000], [0, 0, 0, 0], [ 9E9, 9E9, 9E9, 9E9, 9E9, 9E9] ], v1000, fine, pen\WObj:=platform;
    MoveL [ [0.056, -0.281, -0.020], [0.101, 0.749, 0.655, 0.000], [0, 0, 0, 0], [ 9E9, 9E9, 9E9, 9E9, 9E9, 9E9] ], v30, fine, pen\WObj:=platform;
    MoveL [ [-6.582, 7.308, 48.953], [0.101, 0.749, 0.655, 0.000], [0, 0, 0, 0], [ 9E9, 9E9, 9E9, 9E9, 9E9, 9E9] ], v1000, fine, pen\WObj:=platform;
    
    !!0.16853932584269662, -0.28089887640449424;
    MoveL [ [-7.727, -4.728, 49.152], [0.091, -0.489, 0.868, 0.000], [0, 0, 0, 0], [ 9E9, 9E9, 9E9, 9E9, 9E9, 9E9] ], v1000, fine, pen\WObj:=platform;
    MoveL [ [0.169, -0.281, -0.020], [0.091, -0.489, 0.868, 0.000], [0, 0, 0, 0], [ 9E9, 9E9, 9E9, 9E9, 9E9, 9E9] ], v30, fine, pen\WObj:=platform;
    MoveL [ [-7.727, -4.728, 49.152], [0.091, -0.489, 0.868, 0.000], [0, 0, 0, 0], [ 9E9, 9E9, 9E9, 9E9, 9E9, 9E9] ], v1000, fine, pen\WObj:=platform;
    
    !!0.2808988764044944, -0.28089887640449424;
    MoveL [ [-6.167, -12.095, 48.134], [0.136, -0.870, 0.475, 0.000], [0, 0, 0, 0], [ 9E9, 9E9, 9E9, 9E9, 9E9, 9E9] ], v1000, fine, pen\WObj:=platform;
    MoveL [ [0.281, -0.281, -0.020], [0.136, -0.870, 0.475, 0.000], [0, 0, 0, 0], [ 9E9, 9E9, 9E9, 9E9, 9E9, 9E9] ], v30, fine, pen\WObj:=platform;
    MoveL [ [-6.167, -12.095, 48.134], [0.136, -0.870, 0.475, 0.000], [0, 0, 0, 0], [ 9E9, 9E9, 9E9, 9E9, 9E9, 9E9] ], v1000, fine, pen\WObj:=platform;
    
    !!0.3932584269662921, -0.28089887640449424;
    MoveL [ [-10.790, 4.088, 48.517], [0.121, 0.361, 0.925, 0.000], [0, 0, 0, 0], [ 9E9, 9E9, 9E9, 9E9, 9E9, 9E9] ], v1000, fine, pen\WObj:=platform;
    MoveL [ [0.393, -0.281, -0.020], [0.121, 0.361, 0.925, 0.000], [0, 0, 0, 0], [ 9E9, 9E9, 9E9, 9E9, 9E9, 9E9] ], v30, fine, pen\WObj:=platform;
    MoveL [ [-10.790, 4.088, 48.517], [0.121, 0.361, 0.925, 0.000], [0, 0, 0, 0], [ 9E9, 9E9, 9E9, 9E9, 9E9, 9E9] ], v1000, fine, pen\WObj:=platform;
    
    !!0.7303370786516854, -0.28089887640449424;
    MoveL [ [-5.241, 8.060, 48.916], [0.103, 0.809, 0.579, 0.000], [0, 0, 0, 0], [ 9E9, 9E9, 9E9, 9E9, 9E9, 9E9] ], v1000, fine, pen\WObj:=platform;
    MoveL [ [0.730, -0.281, -0.020], [0.103, 0.809, 0.579, 0.000], [0, 0, 0, 0], [ 9E9, 9E9, 9E9, 9E9, 9E9, 9E9] ], v30, fine, pen\WObj:=platform;
    MoveL [ [-5.241, 8.060, 48.916], [0.103, 0.809, 0.579, 0.000], [0, 0, 0, 0], [ 9E9, 9E9, 9E9, 9E9, 9E9, 9E9] ], v1000, fine, pen\WObj:=platform;
    
    !!0.8426966292134831, -0.28089887640449424;
    MoveL [ [-5.334, -8.607, 48.893], [0.104, -0.799, 0.593, 0.000], [0, 0, 0, 0], [ 9E9, 9E9, 9E9, 9E9, 9E9, 9E9] ], v1000, fine, pen\WObj:=platform;
    MoveL [ [0.843, -0.281, -0.020], [0.104, -0.799, 0.593, 0.000], [0, 0, 0, 0], [ 9E9, 9E9, 9E9, 9E9, 9E9, 9E9] ], v30, fine, pen\WObj:=platform;
    MoveL [ [-5.334, -8.607, 48.893], [0.104, -0.799, 0.593, 0.000], [0, 0, 0, 0], [ 9E9, 9E9, 9E9, 9E9, 9E9, 9E9] ], v1000, fine, pen\WObj:=platform;
    
    !!0.9550561797752809, -0.28089887640449424;
    MoveL [ [0.412, -3.751, 49.857], [0.035, -0.987, 0.154, 0.000], [0, 0, 0, 0], [ 9E9, 9E9, 9E9, 9E9, 9E9, 9E9] ], v1000, fine, pen\WObj:=platform;
    MoveL [ [0.955, -0.281, -0.020], [0.035, -0.987, 0.154, 0.000], [0, 0, 0, 0], [ 9E9, 9E9, 9E9, 9E9, 9E9, 9E9] ], v30, fine, pen\WObj:=platform;
    MoveL [ [0.412, -3.751, 49.857], [0.035, -0.987, 0.154, 0.000], [0, 0, 0, 0], [ 9E9, 9E9, 9E9, 9E9, 9E9, 9E9] ], v1000, fine, pen\WObj:=platform;
    
    !!1.0674157303370786, -0.28089887640449424;
    MoveL [ [-5.896, -3.897, 49.361], [0.079, -0.459, 0.885, 0.000], [0, 0, 0, 0], [ 9E9, 9E9, 9E9, 9E9, 9E9, 9E9] ], v1000, fine, pen\WObj:=platform;
    MoveL [ [1.067, -0.281, -0.020], [0.079, -0.459, 0.885, 0.000], [0, 0, 0, 0], [ 9E9, 9E9, 9E9, 9E9, 9E9, 9E9] ], v30, fine, pen\WObj:=platform;
    MoveL [ [-5.896, -3.897, 49.361], [0.079, -0.459, 0.885, 0.000], [0, 0, 0, 0], [ 9E9, 9E9, 9E9, 9E9, 9E9, 9E9] ], v1000, fine, pen\WObj:=platform;
    
    !!1.5168539325842698, -0.28089887640449424;
    MoveL [ [-7.719, -0.860, 49.116], [0.093, -0.062, 0.994, 0.000], [0, 0, 0, 0], [ 9E9, 9E9, 9E9, 9E9, 9E9, 9E9] ], v1000, fine, pen\WObj:=platform;
    MoveL [ [1.517, -0.281, -0.020], [0.093, -0.062, 0.994, 0.000], [0, 0, 0, 0], [ 9E9, 9E9, 9E9, 9E9, 9E9, 9E9] ], v30, fine, pen\WObj:=platform;
    MoveL [ [-7.719, -0.860, 49.116], [0.093, -0.062, 0.994, 0.000], [0, 0, 0, 0], [ 9E9, 9E9, 9E9, 9E9, 9E9, 9E9] ], v1000, fine, pen\WObj:=platform;
    
    !!1.6292134831460676, -0.28089887640449424;
    MoveL [ [-9.209, -4.873, 48.575], [0.119, -0.387, 0.914, 0.000], [0, 0, 0, 0], [ 9E9, 9E9, 9E9, 9E9, 9E9, 9E9] ], v1000, fine, pen\WObj:=platform;
    MoveL [ [1.629, -0.281, -0.020], [0.119, -0.387, 0.914, 0.000], [0, 0, 0, 0], [ 9E9, 9E9, 9E9, 9E9, 9E9, 9E9] ], v30, fine, pen\WObj:=platform;
    MoveL [ [-9.209, -4.873, 48.575], [0.119, -0.387, 0.914, 0.000], [0, 0, 0, 0], [ 9E9, 9E9, 9E9, 9E9, 9E9, 9E9] ], v1000, fine, pen\WObj:=platform;
    
    !!1.7415730337078652, -0.28089887640449424;
    MoveL [ [-10.317, -0.716, 48.502], [0.122, -0.036, 0.992, 0.000], [0, 0, 0, 0], [ 9E9, 9E9, 9E9, 9E9, 9E9, 9E9] ], v1000, fine, pen\WObj:=platform;
    MoveL [ [1.742, -0.281, -0.020], [0.122, -0.036, 0.992, 0.000], [0, 0, 0, 0], [ 9E9, 9E9, 9E9, 9E9, 9E9, 9E9] ], v30, fine, pen\WObj:=platform;
    MoveL [ [-10.317, -0.716, 48.502], [0.122, -0.036, 0.992, 0.000], [0, 0, 0, 0], [ 9E9, 9E9, 9E9, 9E9, 9E9, 9E9] ], v1000, fine, pen\WObj:=platform;
    
    !!1.853932584269663, -0.28089887640449424;
    MoveL [ [-8.296, -2.349, 48.895], [0.104, -0.199, 0.975, 0.000], [0, 0, 0, 0], [ 9E9, 9E9, 9E9, 9E9, 9E9, 9E9] ], v1000, fine, pen\WObj:=platform;
    MoveL [ [1.854, -0.281, -0.020], [0.104, -0.199, 0.975, 0.000], [0, 0, 0, 0], [ 9E9, 9E9, 9E9, 9E9, 9E9, 9E9] ], v30, fine, pen\WObj:=platform;
    MoveL [ [-8.296, -2.349, 48.895], [0.104, -0.199, 0.975, 0.000], [0, 0, 0, 0], [ 9E9, 9E9, 9E9, 9E9, 9E9, 9E9] ], v1000, fine, pen\WObj:=platform;
    
    !!2.1910112359550564, -0.28089887640449424;
    MoveL [ [-8.551, -9.116, 48.007], [0.140, -0.629, 0.765, 0.000], [0, 0, 0, 0], [ 9E9, 9E9, 9E9, 9E9, 9E9, 9E9] ], v1000, fine, pen\WObj:=platform;
    MoveL [ [2.191, -0.281, -0.020], [0.140, -0.629, 0.765, 0.000], [0, 0, 0, 0], [ 9E9, 9E9, 9E9, 9E9, 9E9, 9E9] ], v30, fine, pen\WObj:=platform;
    MoveL [ [-8.551, -9.116, 48.007], [0.140, -0.629, 0.765, 0.000], [0, 0, 0, 0], [ 9E9, 9E9, 9E9, 9E9, 9E9, 9E9] ], v1000, fine, pen\WObj:=platform;
    
    !!2.303370786516854, -0.28089887640449424;
    MoveL [ [-9.587, -7.004, 48.078], [0.138, -0.487, 0.862, 0.000], [0, 0, 0, 0], [ 9E9, 9E9, 9E9, 9E9, 9E9, 9E9] ], v1000, fine, pen\WObj:=platform;
    MoveL [ [2.303, -0.281, -0.020], [0.138, -0.487, 0.862, 0.000], [0, 0, 0, 0], [ 9E9, 9E9, 9E9, 9E9, 9E9, 9E9] ], v30, fine, pen\WObj:=platform;
    MoveL [ [-9.587, -7.004, 48.078], [0.138, -0.487, 0.862, 0.000], [0, 0, 0, 0], [ 9E9, 9E9, 9E9, 9E9, 9E9, 9E9] ], v1000, fine, pen\WObj:=platform;
    
    !!2.4157303370786516, -0.28089887640449424;
    MoveL [ [-11.602, 9.401, 46.988], [0.173, 0.560, 0.810, 0.000], [0, 0, 0, 0], [ 9E9, 9E9, 9E9, 9E9, 9E9, 9E9] ], v1000, fine, pen\WObj:=platform;
    MoveL [ [2.416, -0.281, -0.020], [0.173, 0.560, 0.810, 0.000], [0, 0, 0, 0], [ 9E9, 9E9, 9E9, 9E9, 9E9, 9E9] ], v30, fine, pen\WObj:=platform;
    MoveL [ [-11.602, 9.401, 46.988], [0.173, 0.560, 0.810, 0.000], [0, 0, 0, 0], [ 9E9, 9E9, 9E9, 9E9, 9E9, 9E9] ], v1000, fine, pen\WObj:=platform;
    
    !!2.5280898876404496, -0.28089887640449424;
    MoveL [ [-8.040, 7.004, 48.304], [0.129, 0.563, 0.816, 0.000], [0, 0, 0, 0], [ 9E9, 9E9, 9E9, 9E9, 9E9, 9E9] ], v1000, fine, pen\WObj:=platform;
